; generated by Slic3r 1.2.6 on 2015-02-06 at 15:55:51

; external perimeters extrusion width = 0.50mm
; perimeters extrusion width = 0.72mm
; infill extrusion width = 0.72mm
; solid infill extrusion width = 0.72mm
; top infill extrusion width = 0.72mm

M107
M190 S110 ; set bed temperature
M104 S230 ; set temperature
G28 ; home all axes
G1 Z.5 F100 ; lift nozzle
M203 X500 Y500 Z100 ; set feedrate limits
M109 S230 ; wait for temperature to be reached
G21 ; set units to millimeters
G90 ; use absolute coordinates
M82 ; use absolute distances for extrusion
G92 E0
G1 Z0.350 F6000.000
G1 E-2.00000 F600.00000
G92 E0
G1 Z0.850 F6000.000
G1 X82.215 Y70.353 F6000.000
G1 Z0.350 F6000.000
G1 E2.00000 F600.00000
G1 X83.968 Y68.874 E2.10644 F1800.000
G1 X86.120 Y68.081 E2.21289
G1 X87.300 Y67.975 E2.26786
G1 X112.700 Y67.975 E3.44673
G1 X114.959 Y68.372 E3.55317
G1 X116.947 Y69.515 E3.65961 F1800.000
G1 X118.426 Y71.268 E3.76606
G1 X119.219 Y73.420 E3.87250
G1 X119.325 Y74.600 E3.92748
G1 X119.325 Y125.400 E6.28521
G1 X118.928 Y127.659 E6.39165
G1 X117.785 Y129.647 E6.49809
G1 X116.032 Y131.126 E6.60454
G1 X113.880 Y131.919 E6.71098
G1 X112.700 Y132.025 E6.76596
G1 X87.300 Y132.025 E7.94482
G1 X85.041 Y131.628 E8.05126
G1 X83.053 Y130.485 E8.15771
G1 X81.574 Y128.732 E8.26415
G1 X80.781 Y126.580 E8.37059
G1 X80.675 Y125.400 E8.42557
G1 X80.675 Y74.600 E10.78330
G1 X81.072 Y72.341 E10.88974
G1 X82.178 Y70.418 E10.99271
G1 E8.99271 F600.00000
G92 E0
G1 Z0.850 F6000.000
G1 X111.135 Y123.835 F6000.000
G1 Z0.350 F6000.000
G1 E2.00000 F600.00000
G1 X104.105 Y123.835 E2.32627 F1800.000
G1 X104.105 Y76.165 E4.53871
G1 X111.135 Y76.165 E4.86498
G1 X111.135 Y123.760 E7.07395
G1 X110.510 Y123.210 F6000.000
G1 X104.730 Y123.210 E7.34221 F1800.000
G1 X104.730 Y76.790 E9.49665
G1 X110.510 Y76.790 E9.76491
G1 X110.510 Y123.135 E11.91588
G1 X110.510 Y123.710 F6000.000
G1 X95.895 Y123.835 F6000.000
G1 X88.865 Y123.835 E12.24214 F1800.000
G1 X88.865 Y76.165 E14.45459
G1 X95.895 Y76.165 E14.78086
G1 X95.895 Y123.760 E16.98983
G1 X95.270 Y123.210 F6000.000
G1 X89.490 Y123.210 E17.25809 F1800.000
G1 X89.490 Y76.790 E19.41253
G1 X95.270 Y76.790 E19.68079
G1 X95.270 Y123.135 E21.83175
G1 X95.270 Y123.710 F6000.000
G1 X96.520 Y123.800 F6000.000
G1 X96.520 Y76.200 E24.04098 F1800.000
G1 X103.480 Y76.200 E24.36403
G1 X103.480 Y123.800 E26.57326
G1 X96.595 Y123.800 E26.89283
G1 X88.275 Y124.425 F6000.000
G1 X88.275 Y75.575 E29.16007 F1800.000
G1 X111.725 Y75.575 E30.24844
G1 X111.725 Y124.425 E32.51567
G1 X88.350 Y124.425 E33.60056
G1 X87.650 Y125.050 F6000.000
G1 X87.650 Y74.950 E35.92580 F1800.000
G1 X112.350 Y74.950 E37.07218
G1 X112.350 Y125.050 E39.39742
G1 X87.725 Y125.050 E40.54031
G1 X87.900 Y124.617 F6000.000
G1 X97.192 Y123.433 F6000.000
G1 X96.887 Y123.128 E40.56047 F1800.000
G1 X96.887 Y122.238 E40.60202
G1 X98.082 Y123.433 E40.68095
G1 X98.971 Y123.433 E40.72250
G1 X96.887 Y121.349 E40.86019
G1 X96.887 Y120.459 E40.90174
G1 X99.861 Y123.433 E41.09820
G1 X100.750 Y123.433 E41.13976
G1 X96.887 Y119.570 E41.39498
G1 X96.887 Y118.680 E41.43654
G1 X101.640 Y123.433 E41.75053
G1 X102.529 Y123.433 E41.79208
G1 X96.887 Y117.791 E42.16484
G1 X96.887 Y116.901 E42.20639
G1 X103.113 Y123.127 E42.61771
G1 X103.113 Y122.238 E42.65927
G1 X96.887 Y116.012 E43.07058
G1 X96.887 Y115.122 E43.11214
G1 X103.113 Y121.348 E43.52346
G1 X103.113 Y120.458 E43.56501
G1 X96.887 Y114.233 E43.97633
G1 X96.887 Y113.343 E44.01788
G1 X103.113 Y119.569 E44.42920
G1 X103.113 Y118.679 E44.47076
G1 X96.887 Y112.454 E44.88207
G1 X96.887 Y111.564 E44.92363
G1 X103.113 Y117.790 E45.33495
G1 X103.113 Y116.900 E45.37650
G1 X96.887 Y110.675 E45.78782
G1 X96.887 Y109.785 E45.82937
G1 X103.113 Y116.011 E46.24069
G1 X103.113 Y115.121 E46.28225
G1 X96.887 Y108.896 E46.69356
G1 X96.887 Y108.006 E46.73512
G1 X103.113 Y114.232 E47.14644
G1 X103.113 Y113.342 E47.18799
G1 X96.887 Y107.117 E47.59931
G1 X96.887 Y106.227 E47.64086
G1 X103.113 Y112.453 E48.05218
G1 X103.113 Y111.563 E48.09373
G1 X96.887 Y105.338 E48.50505
G1 X96.887 Y104.448 E48.54661
G1 X103.113 Y110.674 E48.95792
G1 X103.113 Y109.784 E48.99948
G1 X96.887 Y103.558 E49.41080
G1 X96.887 Y102.669 E49.45235
G1 X103.113 Y108.895 E49.86367
G1 X103.113 Y108.005 E49.90522
G1 X96.887 Y101.779 E50.31654
G1 X96.887 Y100.890 E50.35810
G1 X103.113 Y107.116 E50.76941
G1 X103.113 Y106.226 E50.81097
G1 X96.887 Y100.000 E51.22229
G1 X96.887 Y99.111 E51.26384
G1 X103.113 Y105.337 E51.67516
G1 X103.113 Y104.447 E51.71671
G1 X96.887 Y98.221 E52.12803
G1 X96.887 Y97.332 E52.16959
G1 X103.113 Y103.558 E52.58090
G1 X103.113 Y102.668 E52.62246
G1 X96.887 Y96.442 E53.03378
G1 X96.887 Y95.553 E53.07533
G1 X103.113 Y101.779 E53.48665
G1 X103.113 Y100.889 E53.52820
G1 X96.887 Y94.663 E53.93952
G1 X96.887 Y93.774 E53.98108
G1 X103.113 Y100.000 E54.39239
G1 X103.113 Y99.110 E54.43395
G1 X96.887 Y92.884 E54.84527
G1 X96.887 Y91.995 E54.88682
G1 X103.113 Y98.221 E55.29814
G1 X103.113 Y97.331 E55.33969
G1 X96.887 Y91.105 E55.75101
G1 X96.887 Y90.216 E55.79256
G1 X103.113 Y96.442 E56.20388
G1 X103.113 Y95.552 E56.24544
G1 X96.887 Y89.326 E56.65675
G1 X96.887 Y88.437 E56.69831
G1 X103.113 Y94.663 E57.10963
G1 X103.113 Y93.773 E57.15118
G1 X96.887 Y87.547 E57.56250
G1 X96.887 Y86.658 E57.60405
G1 X103.113 Y92.883 E58.01537
G1 X103.113 Y91.994 E58.05693
G1 X96.887 Y85.768 E58.46824
G1 X96.887 Y84.879 E58.50980
G1 X103.113 Y91.104 E58.92112
G1 X103.113 Y90.215 E58.96267
G1 X96.887 Y83.989 E59.37399
G1 X96.887 Y83.100 E59.41554
G1 X103.113 Y89.325 E59.82686
G1 X103.113 Y88.436 E59.86842
G1 X96.887 Y82.210 E60.27973
G1 X96.887 Y81.321 E60.32129
G1 X103.113 Y87.546 E60.73261
G1 X103.113 Y86.657 E60.77416
G1 X96.887 Y80.431 E61.18548
G1 X96.887 Y79.542 E61.22703
G1 X103.113 Y85.767 E61.63835
G1 X103.113 Y84.878 E61.67990
G1 X96.887 Y78.652 E62.09122
G1 X96.887 Y77.763 E62.13278
G1 X103.113 Y83.988 E62.54409
G1 X103.113 Y83.099 E62.58565
G1 X96.887 Y76.873 E62.99697
G1 X97.471 Y76.567 E63.02775
G1 X103.113 Y82.209 E63.40051
G1 X103.113 Y81.320 E63.44206
G1 X98.360 Y76.567 E63.75606
G1 X99.250 Y76.567 E63.79761
G1 X103.113 Y80.430 E64.05284
G1 X103.113 Y79.541 E64.09439
G1 X100.139 Y76.567 E64.29085
G1 X101.029 Y76.567 E64.33241
G1 X103.113 Y78.651 E64.47010
G1 X103.113 Y77.762 E64.51166
G1 X101.918 Y76.567 E64.59058
G1 X102.808 Y76.567 E64.63214
G1 X103.113 Y76.872 E64.65229
G1 Z0.650 F6000.000
G1 X104.285 Y123.655 F6000.000
G1 X104.285 Y76.345 E66.62355 F3600.000
G1 X110.955 Y76.345 E66.90147
G1 X110.955 Y123.655 E68.87272
G1 X104.360 Y123.655 E69.14752
G1 X104.830 Y123.110 F6000.000
G1 X104.830 Y76.890 E70.42931 F1800.000
G1 X110.410 Y76.890 E70.58406
G1 X110.410 Y123.110 E71.86585
G1 X104.905 Y123.110 E72.01852
G1 X104.330 Y123.110 F6000.000
G1 X95.715 Y123.655 F6000.000
G1 X89.045 Y123.655 E72.29644 F3600.000
G1 X89.045 Y76.345 E74.26769
G1 X95.715 Y76.345 E74.54562
G1 X95.715 Y123.580 E76.51375
G1 X95.170 Y123.110 F6000.000
G1 X89.590 Y123.110 E76.66849 F1800.000
G1 X89.590 Y76.890 E77.95028
G1 X95.170 Y76.890 E78.10503
G1 X95.170 Y123.035 E79.38474
G1 X95.170 Y123.610 F6000.000
G1 X96.370 Y123.950 F6000.000
G1 X96.370 Y76.050 E81.38061 F3600.000
G1 X103.630 Y76.050 E81.68315
G1 X103.630 Y123.950 E83.67902
G1 X96.445 Y123.950 E83.97843
G1 X88.095 Y124.605 F6000.000
G1 X88.095 Y75.395 E86.02884 F3600.000
G1 X111.905 Y75.395 E87.02092
G1 X111.905 Y124.605 E89.07133
G1 X88.170 Y124.605 E90.06029
G1 X87.550 Y125.150 F6000.000
G1 X87.550 Y74.850 E91.45523 F1800.000
G1 X112.450 Y74.850 E92.14576
G1 X112.450 Y125.150 E93.54070
G1 X87.625 Y125.150 E94.22916
G1 X87.800 Y124.717 F6000.000
G1 X102.925 Y123.563 F6000.000
G1 X103.243 Y123.245 E94.24796 F1200.000
G1 X103.243 Y122.316 E94.28684
G1 X101.996 Y123.563 E94.36062
G1 X101.066 Y123.563 E94.39951
G1 X103.243 Y121.386 E94.52828
G1 X103.243 Y120.457 E94.56716
G1 X100.137 Y123.563 E94.75093
G1 X99.207 Y123.563 E94.78981
G1 X103.243 Y119.527 E95.02856
G1 X103.243 Y118.598 E95.06745
G1 X98.278 Y123.563 E95.36119
G1 X97.349 Y123.563 E95.40007
G1 X103.243 Y117.669 E95.74880
G1 X103.243 Y116.739 E95.78768
G1 X96.757 Y123.224 E96.17140
G1 X96.757 Y122.295 E96.21028
G1 X103.243 Y115.810 E96.59399
G1 X103.243 Y114.880 E96.63288
G1 X96.757 Y121.366 E97.01659
G1 X96.757 Y120.436 E97.05547
G1 X103.243 Y113.951 E97.43919
G1 X103.243 Y113.022 E97.47807
G1 X96.757 Y119.507 E97.86178
G1 X96.757 Y118.578 E97.90066
G1 X103.243 Y112.092 E98.28438
G1 X103.243 Y111.163 E98.32326
G1 X96.757 Y117.648 E98.70697
G1 X96.757 Y116.719 E98.74586
G1 X103.243 Y110.233 E99.12957
G1 X103.243 Y109.304 E99.16845
G1 X96.757 Y115.789 E99.55217
G1 X96.757 Y114.860 E99.59105
G1 X103.243 Y108.375 E99.97476
G1 X103.243 Y107.445 E100.01364
G1 X96.757 Y113.931 E100.39736
G1 X96.757 Y113.001 E100.43624
G1 X103.243 Y106.516 E100.81995
G1 X103.243 Y105.587 E100.85884
G1 X96.757 Y112.072 E101.24255
G1 X96.757 Y111.142 E101.28143
G1 X103.243 Y104.657 E101.66515
G1 X103.243 Y103.728 E101.70403
G1 X96.757 Y110.213 E102.08774
G1 X96.757 Y109.284 E102.12662
G1 X103.243 Y102.798 E102.51034
G1 X103.243 Y101.869 E102.54922
G1 X96.757 Y108.354 E102.93293
G1 X96.757 Y107.425 E102.97182
G1 X103.243 Y100.940 E103.35553
G1 X103.243 Y100.010 E103.39441
G1 X96.757 Y106.495 E103.77813
G1 X96.757 Y105.566 E103.81701
G1 X103.243 Y99.081 E104.20072
G1 X103.243 Y98.151 E104.23960
G1 X96.757 Y104.637 E104.62332
G1 X96.757 Y103.707 E104.66220
G1 X103.243 Y97.222 E105.04591
G1 X103.243 Y96.293 E105.08480
G1 X96.757 Y102.778 E105.46851
G1 X96.757 Y101.849 E105.50739
G1 X103.243 Y95.363 E105.89111
G1 X103.243 Y94.434 E105.92999
G1 X96.757 Y100.919 E106.31370
G1 X96.757 Y99.990 E106.35259
G1 X103.243 Y93.504 E106.73630
G1 X103.243 Y92.575 E106.77518
G1 X96.757 Y99.060 E107.15889
G1 X96.757 Y98.131 E107.19778
G1 X103.243 Y91.646 E107.58149
G1 X103.243 Y90.716 E107.62037
G1 X96.757 Y97.202 E108.00409
G1 X96.757 Y96.272 E108.04297
G1 X103.243 Y89.787 E108.42668
G1 X103.243 Y88.858 E108.46557
G1 X96.757 Y95.343 E108.84928
G1 X96.757 Y94.413 E108.88816
G1 X103.243 Y87.928 E109.27187
G1 X103.243 Y86.999 E109.31076
G1 X96.757 Y93.484 E109.69447
G1 X96.757 Y92.555 E109.73335
G1 X103.243 Y86.069 E110.11707
G1 X103.243 Y85.140 E110.15595
G1 X96.757 Y91.625 E110.53966
G1 X96.757 Y90.696 E110.57854
G1 X103.243 Y84.211 E110.96226
G1 X103.243 Y83.281 E111.00114
G1 X96.757 Y89.766 E111.38485
G1 X96.757 Y88.837 E111.42374
G1 X103.243 Y82.352 E111.80745
G1 X103.243 Y81.422 E111.84633
G1 X96.757 Y87.908 E112.23005
G1 X96.757 Y86.978 E112.26893
G1 X103.243 Y80.493 E112.65264
G1 X103.243 Y79.564 E112.69152
G1 X96.757 Y86.049 E113.07524
G1 X96.757 Y85.120 E113.11412
G1 X103.243 Y78.634 E113.49783
G1 X103.243 Y77.705 E113.53672
G1 X96.757 Y84.190 E113.92043
G1 X96.757 Y83.261 E113.95931
G1 X103.243 Y76.775 E114.34303
G1 X102.651 Y76.437 E114.37152
G1 X96.757 Y82.331 E114.72025
G1 X96.757 Y81.402 E114.75913
G1 X101.722 Y76.437 E115.05287
G1 X100.793 Y76.437 E115.09176
G1 X96.757 Y80.473 E115.33051
G1 X96.757 Y79.543 E115.36939
G1 X99.863 Y76.437 E115.55315
G1 X98.934 Y76.437 E115.59203
G1 X96.757 Y78.614 E115.72080
G1 X96.757 Y77.684 E115.75969
G1 X98.004 Y76.437 E115.83347
G1 X97.075 Y76.437 E115.87235
G1 X96.757 Y76.755 E115.89115
G1 Z0.950 F6000.000
G1 X104.285 Y123.655 F6000.000
G1 X104.285 Y76.345 E117.86240 F3600.000
G1 X110.955 Y76.345 E118.14032
G1 X110.955 Y123.655 E120.11158
G1 X104.360 Y123.655 E120.38638
G1 X104.830 Y123.110 F6000.000
G1 X104.830 Y76.890 E121.66817 F1800.000
G1 X110.410 Y76.890 E121.82291
G1 X110.410 Y123.110 E123.10471
G1 X104.905 Y123.110 E123.25737
G1 X104.330 Y123.110 F6000.000
G1 X95.715 Y123.655 F6000.000
G1 X89.045 Y123.655 E123.53529 F3600.000
G1 X89.045 Y76.345 E125.50655
G1 X95.715 Y76.345 E125.78447
G1 X95.715 Y123.580 E127.75260
G1 X95.170 Y123.110 F6000.000
G1 X89.590 Y123.110 E127.90735 F1800.000
G1 X89.590 Y76.890 E129.18914
G1 X95.170 Y76.890 E129.34389
G1 X95.170 Y123.035 E130.62360
G1 X95.170 Y123.610 F6000.000
G1 X96.370 Y123.950 F6000.000
G1 X96.370 Y76.050 E132.61947 F3600.000
G1 X103.630 Y76.050 E132.92200
G1 X103.630 Y123.950 E134.91787
G1 X96.445 Y123.950 E135.21729
G1 X88.095 Y124.605 F6000.000
G1 X88.095 Y75.395 E137.26770 F3600.000
G1 X111.905 Y75.395 E138.25978
G1 X111.905 Y124.605 E140.31019
G1 X88.170 Y124.605 E141.29914
G1 X87.550 Y125.150 F6000.000
G1 X87.550 Y74.850 E142.69408 F1800.000
G1 X112.450 Y74.850 E143.38462
G1 X112.450 Y125.150 E144.77956
G1 X87.625 Y125.150 E145.46801
G1 X87.800 Y124.717 F6000.000
G1 X97.075 Y123.563 F6000.000
G1 X96.757 Y123.245 E145.48681 F1200.000
G1 X96.757 Y122.316 E145.52569
G1 X98.004 Y123.563 E145.59947
G1 X98.934 Y123.563 E145.63836
G1 X96.757 Y121.386 E145.76713
G1 X96.757 Y120.457 E145.80601
G1 X99.863 Y123.563 E145.98977
G1 X100.793 Y123.563 E146.02866
G1 X96.757 Y119.527 E146.26741
G1 X96.757 Y118.598 E146.30629
G1 X101.722 Y123.563 E146.60003
G1 X102.651 Y123.563 E146.63891
G1 X96.757 Y117.669 E146.98764
G1 X96.757 Y116.739 E147.02652
G1 X103.243 Y123.225 E147.41024
G1 X103.243 Y122.295 E147.44912
G1 X96.757 Y115.810 E147.83283
G1 X96.757 Y114.880 E147.87172
G1 X103.243 Y121.366 E148.25543
G1 X103.243 Y120.436 E148.29431
G1 X96.757 Y113.951 E148.67802
G1 X96.757 Y113.022 E148.71691
G1 X103.243 Y119.507 E149.10062
G1 X103.243 Y118.578 E149.13950
G1 X96.757 Y112.092 E149.52322
G1 X96.757 Y111.163 E149.56210
G1 X103.243 Y117.648 E149.94581
G1 X103.243 Y116.719 E149.98470
G1 X96.757 Y110.234 E150.36841
G1 X96.757 Y109.304 E150.40729
G1 X103.243 Y115.789 E150.79100
G1 X103.243 Y114.860 E150.82989
G1 X96.757 Y108.375 E151.21360
G1 X96.757 Y107.445 E151.25248
G1 X103.243 Y113.931 E151.63620
G1 X103.243 Y113.001 E151.67508
G1 X96.757 Y106.516 E152.05879
G1 X96.757 Y105.587 E152.09768
G1 X103.243 Y112.072 E152.48139
G1 X103.243 Y111.142 E152.52027
G1 X96.757 Y104.657 E152.90398
G1 X96.757 Y103.728 E152.94287
G1 X103.243 Y110.213 E153.32658
G1 X103.243 Y109.284 E153.36546
G1 X96.757 Y102.798 E153.74918
G1 X96.757 Y101.869 E153.78806
G1 X103.243 Y108.354 E154.17177
G1 X103.243 Y107.425 E154.21066
G1 X96.757 Y100.940 E154.59437
G1 X96.757 Y100.010 E154.63325
G1 X103.243 Y106.496 E155.01696
G1 X103.243 Y105.566 E155.05585
G1 X96.757 Y99.081 E155.43956
G1 X96.757 Y98.151 E155.47844
G1 X103.243 Y104.637 E155.86216
G1 X103.243 Y103.707 E155.90104
G1 X96.757 Y97.222 E156.28475
G1 X96.757 Y96.293 E156.32364
G1 X103.243 Y102.778 E156.70735
G1 X103.243 Y101.849 E156.74623
G1 X96.757 Y95.363 E157.12994
G1 X96.757 Y94.434 E157.16883
G1 X103.243 Y100.919 E157.55254
G1 X103.243 Y99.990 E157.59142
G1 X96.757 Y93.505 E157.97514
G1 X96.757 Y92.575 E158.01402
G1 X103.243 Y99.060 E158.39773
G1 X103.243 Y98.131 E158.43662
G1 X96.757 Y91.646 E158.82033
G1 X96.757 Y90.716 E158.85921
G1 X103.243 Y97.202 E159.24292
G1 X103.243 Y96.272 E159.28181
G1 X96.757 Y89.787 E159.66552
G1 X96.757 Y88.858 E159.70440
G1 X103.243 Y95.343 E160.08812
G1 X103.243 Y94.413 E160.12700
G1 X96.757 Y87.928 E160.51071
G1 X96.757 Y86.999 E160.54960
G1 X103.243 Y93.484 E160.93331
G1 X103.243 Y92.555 E160.97219
G1 X96.757 Y86.069 E161.35590
G1 X96.757 Y85.140 E161.39479
G1 X103.243 Y91.625 E161.77850
G1 X103.243 Y90.696 E161.81738
G1 X96.757 Y84.211 E162.20110
G1 X96.757 Y83.281 E162.23998
G1 X103.243 Y89.766 E162.62369
G1 X103.243 Y88.837 E162.66258
G1 X96.757 Y82.352 E163.04629
G1 X96.757 Y81.422 E163.08517
G1 X103.243 Y87.908 E163.46889
G1 X103.243 Y86.978 E163.50777
G1 X96.757 Y80.493 E163.89148
G1 X96.757 Y79.564 E163.93036
G1 X103.243 Y86.049 E164.31408
G1 X103.243 Y85.120 E164.35296
G1 X96.757 Y78.634 E164.73667
G1 X96.757 Y77.705 E164.77556
G1 X103.243 Y84.190 E165.15927
G1 X103.243 Y83.261 E165.19815
G1 X96.757 Y76.775 E165.58187
G1 X97.349 Y76.437 E165.61036
G1 X103.243 Y82.331 E165.95909
G1 X103.243 Y81.402 E165.99797
G1 X98.278 Y76.437 E166.29172
G1 X99.207 Y76.437 E166.33060
G1 X103.243 Y80.473 E166.56935
G1 X103.243 Y79.543 E166.60823
G1 X100.137 Y76.437 E166.79200
G1 X101.066 Y76.437 E166.83088
G1 X103.243 Y78.614 E166.95966
G1 X103.243 Y77.684 E166.99854
G1 X101.996 Y76.437 E167.07232
G1 X102.925 Y76.437 E167.11121
