; generated by Slic3r 1.2.6 on 2015-02-26 at 13:42:26

; external perimeters extrusion width = 0.50mm
; perimeters extrusion width = 0.72mm
; infill extrusion width = 0.72mm
; solid infill extrusion width = 0.72mm
; top infill extrusion width = 0.72mm

M107
M190 S110 ; set bed temperature
M104 S230 ; set temperature
G28 ; home all axes
G1 Z1 F100 ; lift nozzle
M203 X4000 Y4000 Z20 ; set feedrate limits
M109 S230 ; wait for temperature to be reached
G21 ; set units to millimeters
G90 ; use absolute coordinates
M82 ; use absolute distances for extrusion
G92 E0
G1 E-2.00000 F600.00000
G92 E0
G1 Z0.500 F1800.000
G1 X37.206 Y70.843 F1800.000
G1 Z0.350 F1800.000
G1 E2.00000 F600.00000
G1 X38.519 Y70.299 E2.04397 F1800.000
G1 X38.758 Y70.227 E2.05169
G1 X40.152 Y69.950 E2.09565
G1 X41.110 Y69.890 E2.12536
G1 X58.890 Y69.890 E2.67550
G1 X59.601 Y69.925 E2.69751
G1 X59.849 Y69.950 E2.70525 F1800.000
G1 X61.242 Y70.227 E2.74919
G1 X61.481 Y70.299 E2.75689
G1 X62.793 Y70.843 E2.80086
G1 X63.013 Y70.960 E2.80857
G1 X64.195 Y71.750 E2.85254
G1 X64.387 Y71.908 E2.86025
G1 X65.392 Y72.913 E2.90422
G1 X65.550 Y73.105 E2.91192
G1 X66.340 Y74.287 E2.95590
G1 X66.458 Y74.507 E2.96364
G1 X67.001 Y75.819 E3.00757
G1 X67.073 Y76.058 E3.01528
G1 X67.350 Y77.452 E3.05925
G1 X67.410 Y78.410 E3.08896
G1 X67.410 Y121.590 E4.42501
G1 X67.350 Y122.548 E4.45472
G1 X67.073 Y123.942 E4.49869
G1 X67.001 Y124.181 E4.50642
G1 X66.457 Y125.494 E4.55037
G1 X66.340 Y125.713 E4.55807
G1 X65.550 Y126.895 E4.60205
G1 X65.392 Y127.087 E4.60975
G1 X64.387 Y128.092 E4.65372
G1 X64.195 Y128.250 E4.66142
G1 X63.013 Y129.040 E4.70540
G1 X62.793 Y129.157 E4.71311
G1 X61.481 Y129.701 E4.75708
G1 X61.241 Y129.774 E4.76482
G1 X59.848 Y130.050 E4.80875
G1 X58.890 Y130.110 E4.83847
G1 X41.110 Y130.110 E5.38860
G1 X40.152 Y130.050 E5.41831
G1 X38.758 Y129.773 E5.46228
G1 X38.520 Y129.701 E5.46999
G1 X37.206 Y129.157 E5.51396
G1 X36.994 Y129.044 E5.52141
G1 X35.806 Y128.251 E5.56562
G1 X35.613 Y128.092 E5.57335
G1 X34.603 Y127.081 E5.61755
G1 X34.450 Y126.895 E5.62502
G1 X33.660 Y125.713 E5.66899
G1 X33.543 Y125.493 E5.67671
G1 X32.999 Y124.181 E5.72067
G1 X32.927 Y123.942 E5.72839
G1 X32.650 Y122.548 E5.77235
G1 X32.590 Y121.590 E5.80206
G1 X32.590 Y78.410 E7.13810
G1 X32.625 Y77.699 E7.16011
G1 X32.650 Y77.452 E7.16782
G1 X32.927 Y76.058 E7.21179
G1 X32.999 Y75.819 E7.21952
G1 X33.543 Y74.506 E7.26347
G1 X33.660 Y74.287 E7.27117
G1 X34.450 Y73.105 E7.31514
G1 X34.608 Y72.913 E7.32285
G1 X35.612 Y71.908 E7.36681
G1 X35.805 Y71.750 E7.37453
G1 X36.987 Y70.960 E7.41850
G1 X37.140 Y70.878 E7.42389
G1 X37.501 Y71.394 F1800.000
G1 X38.701 Y70.897 E7.46407 F1800.000
G1 X38.940 Y70.825 E7.47179
G1 X40.213 Y70.571 E7.51196
G1 X41.110 Y70.515 E7.53977
G1 X58.890 Y70.515 E8.08991
G1 X59.539 Y70.547 E8.11002
G1 X59.788 Y70.572 E8.11775 F1800.000
G1 X61.061 Y70.825 E8.15791
G1 X61.299 Y70.897 E8.16561
G1 X62.499 Y71.394 E8.20579
G1 X62.718 Y71.511 E8.21350
G1 X63.798 Y72.233 E8.25368
G1 X63.991 Y72.391 E8.26139
G1 X64.909 Y73.309 E8.30157
G1 X65.067 Y73.502 E8.30927
G1 X65.789 Y74.581 E8.34946
G1 X65.906 Y74.802 E8.35719
G1 X66.403 Y76.001 E8.39734
G1 X66.475 Y76.239 E8.40505
G1 X66.729 Y77.513 E8.44523
G1 X66.785 Y78.410 E8.47304
G1 X66.785 Y121.590 E9.80909
G1 X66.729 Y122.487 E9.83690
G1 X66.475 Y123.761 E9.87709
G1 X66.403 Y124.000 E9.88481
G1 X65.906 Y125.199 E9.92497
G1 X65.789 Y125.419 E9.93267
G1 X65.067 Y126.498 E9.97286
G1 X64.909 Y126.691 E9.98056
G1 X63.991 Y127.609 E10.02074
G1 X63.798 Y127.767 E10.02845
G1 X62.718 Y128.489 E10.06863
G1 X62.499 Y128.606 E10.07634
G1 X61.299 Y129.103 E10.11652
G1 X61.060 Y129.176 E10.12426
G1 X59.787 Y129.429 E10.16441
G1 X58.890 Y129.485 E10.19222
G1 X41.110 Y129.485 E10.74236
G1 X40.213 Y129.429 E10.77017
G1 X38.939 Y129.175 E10.81035
G1 X38.701 Y129.103 E10.81805
G1 X37.501 Y128.606 E10.85824
G1 X37.289 Y128.493 E10.86568
G1 X36.202 Y127.767 E10.90611
G1 X36.009 Y127.609 E10.91383
G1 X35.086 Y126.685 E10.95425
G1 X34.933 Y126.498 E10.96171
G1 X34.211 Y125.419 E11.00190
G1 X34.094 Y125.199 E11.00961
G1 X33.597 Y123.999 E11.04978
G1 X33.525 Y123.760 E11.05751
G1 X33.271 Y122.487 E11.09767
G1 X33.215 Y121.590 E11.12548
G1 X33.215 Y78.410 E12.46153
G1 X33.247 Y77.761 E12.48164
G1 X33.271 Y77.513 E12.48935
G1 X33.525 Y76.239 E12.52953
G1 X33.597 Y76.000 E12.53725
G1 X34.094 Y74.801 E12.57742
G1 X34.211 Y74.581 E12.58512
G1 X34.938 Y73.495 E12.62557
G1 X35.091 Y73.309 E12.63301
G1 X36.009 Y72.391 E12.67318
G1 X36.202 Y72.233 E12.68090
G1 X37.281 Y71.511 E12.72108
G1 X37.435 Y71.429 E12.72646
G1 E10.72646 F600.00000
G92 E0
G1 Z0.850 F1800.000
G1 X59.158 Y121.701 F1800.000
G1 Z0.350 F1800.000
G1 E2.00000 F600.00000
G1 X59.051 Y121.831 E2.00522 F1800.000
G1 X58.952 Y121.873 E2.00856
G1 X58.839 Y121.885 E2.01207
G1 X41.158 Y121.885 E2.55914
G1 X41.053 Y121.875 E2.56239
G1 X40.945 Y121.828 E2.56606
G1 X40.842 Y121.701 E2.57111
G1 X40.815 Y121.539 E2.57620
G1 X40.815 Y78.458 E3.90918
G1 X40.825 Y78.353 E3.91243
G1 X40.869 Y78.249 E3.91594
G1 X40.999 Y78.142 E3.92116
G1 X41.161 Y78.115 E3.92624
G1 X58.842 Y78.115 E4.47332
G1 X58.941 Y78.125 E4.47640
G1 X59.051 Y78.169 E4.48007
G1 X59.158 Y78.299 E4.48528
G1 X59.185 Y78.458 E4.49027
G1 X59.177 Y121.629 E5.82603
G1 X59.756 Y121.883 F1800.000
G1 X59.654 Y122.100 E5.83348 F1800.000
G1 X59.539 Y122.239 E5.83905
G1 X59.400 Y122.354 E5.84462
G1 X59.241 Y122.438 E5.85019
G1 X59.076 Y122.489 E5.85553
G1 X58.872 Y122.510 E5.86190
G1 X41.127 Y122.510 E6.41093
G1 X40.931 Y122.491 E6.41704
G1 X40.760 Y122.439 E6.42257
G1 X40.594 Y122.349 E6.42840
G1 X40.461 Y122.239 E6.43374
G1 X40.346 Y122.100 E6.43931
G1 X40.262 Y121.941 E6.44488
G1 X40.211 Y121.776 E6.45022
G1 X40.190 Y121.572 E6.45659
G1 X40.190 Y78.427 E7.79154
G1 X40.209 Y78.231 E7.79764
G1 X40.262 Y78.059 E7.80321
G1 X40.346 Y77.900 E7.80878
G1 X40.461 Y77.761 E7.81435
G1 X40.600 Y77.646 E7.81992
G1 X40.759 Y77.562 E7.82549
G1 X40.924 Y77.511 E7.83083
G1 X41.128 Y77.490 E7.83720
G1 X58.873 Y77.490 E8.38623
G1 X59.062 Y77.509 E8.39211
G1 X59.242 Y77.562 E8.39794 F1800.000
G1 X59.400 Y77.646 E8.40347
G1 X59.539 Y77.761 E8.40904
G1 X59.654 Y77.900 E8.41461
G1 X59.738 Y78.059 E8.42018
G1 X59.791 Y78.231 E8.42575
G1 X59.810 Y78.427 E8.43186
G1 X59.810 Y121.573 E9.76684
G1 X59.778 Y121.811 E9.77427
G1 X59.519 Y121.924 F1800.000
G1 X41.487 Y121.518 F1800.000
G1 X41.182 Y121.213 E9.78781 F1800.000
G1 X41.182 Y120.316 E9.81593
G1 X42.384 Y121.518 E9.86925
G1 X43.280 Y121.518 E9.89738
G1 X41.182 Y119.420 E9.99047
G1 X41.182 Y118.524 E10.01860
G1 X44.176 Y121.518 E10.15147
G1 X45.072 Y121.518 E10.17959
G1 X41.182 Y117.628 E10.35224
G1 X41.182 Y116.731 E10.38037
G1 X45.969 Y121.518 E10.59279
G1 X46.865 Y121.518 E10.62092
G1 X41.182 Y115.835 E10.87312
G1 X41.182 Y114.939 E10.90125
G1 X47.761 Y121.518 E11.19323
G1 X48.658 Y121.518 E11.22135
G1 X41.182 Y114.042 E11.55311
G1 X41.182 Y113.146 E11.58123
G1 X49.554 Y121.518 E11.95277
G1 X50.450 Y121.518 E11.98089
G1 X41.182 Y112.250 E12.39220
G1 X41.182 Y111.354 E12.42033
G1 X51.346 Y121.518 E12.87142
G1 X52.243 Y121.518 E12.89954
G1 X41.182 Y110.457 E13.39041
G1 X41.182 Y109.561 E13.41853
G1 X53.139 Y121.518 E13.94917
G1 X54.035 Y121.518 E13.97730
G1 X41.182 Y108.665 E14.54772
G1 X41.182 Y107.768 E14.57584
G1 X54.932 Y121.518 E15.18604
G1 X55.828 Y121.518 E15.21416
G1 X41.182 Y106.872 E15.86414
G1 X41.182 Y105.976 E15.89226
G1 X56.724 Y121.518 E16.58201
G1 X57.620 Y121.518 E16.61014
G1 X41.182 Y105.080 E17.33966
G1 X41.182 Y104.183 E17.36779
G1 X58.517 Y121.518 E18.13709
G1 X58.818 Y120.923 E18.15803
G1 X41.182 Y103.287 E18.94069
G1 X41.182 Y102.391 E18.96881
G1 X58.818 Y120.026 E19.75148
G1 X58.818 Y119.130 E19.77960
G1 X41.182 Y101.494 E20.56226
G1 X41.182 Y100.598 E20.59039
G1 X58.818 Y118.234 E21.37305
G1 X58.818 Y117.337 E21.40118
G1 X41.182 Y99.702 E22.18384
G1 X41.182 Y98.805 E22.21197
G1 X58.818 Y116.441 E22.99463
G1 X58.818 Y115.545 E23.02276
G1 X41.182 Y97.909 E23.80542
G1 X41.182 Y97.013 E23.83354
G1 X58.818 Y114.649 E24.61621
G1 X58.818 Y113.752 E24.64433
G1 X41.182 Y96.117 E25.42699
G1 X41.182 Y95.220 E25.45512
G1 X58.818 Y112.856 E26.23778
G1 X58.818 Y111.960 E26.26591
G1 X41.182 Y94.324 E27.04857
G1 X41.182 Y93.428 E27.07670
G1 X58.818 Y111.063 E27.85936
G1 X58.818 Y110.167 E27.88749
G1 X41.182 Y92.531 E28.67015
G1 X41.182 Y91.635 E28.69827
G1 X58.818 Y109.271 E29.48094
G1 X58.818 Y108.374 E29.50906
G1 X41.182 Y90.739 E30.29172
G1 X41.182 Y89.843 E30.31985
G1 X58.818 Y107.478 E31.10251
G1 X58.818 Y106.582 E31.13064
G1 X41.182 Y88.946 E31.91330
G1 X41.182 Y88.050 E31.94143
G1 X58.818 Y105.686 E32.72409
G1 X58.818 Y104.789 E32.75222
G1 X41.182 Y87.154 E33.53488
G1 X41.182 Y86.257 E33.56301
G1 X58.818 Y103.893 E34.34567
G1 X58.818 Y102.997 E34.37379
G1 X41.182 Y85.361 E35.15646
G1 X41.182 Y84.465 E35.18458
G1 X58.818 Y102.100 E35.96724
G1 X58.818 Y101.204 E35.99537
G1 X41.182 Y83.569 E36.77803
G1 X41.182 Y82.672 E36.80616
G1 X58.818 Y100.308 E37.58882
G1 X58.818 Y99.412 E37.61695
G1 X41.182 Y81.776 E38.39961
G1 X41.182 Y80.880 E38.42774
G1 X58.818 Y98.515 E39.21040
G1 X58.818 Y97.619 E39.23852
G1 X41.182 Y79.983 E40.02119
G1 X41.182 Y79.087 E40.04931
G1 X58.818 Y96.723 E40.83197
G1 X58.818 Y95.826 E40.86010
G1 X41.474 Y78.482 E41.62982
G1 X42.371 Y78.483 E41.65796
G1 X58.818 Y94.930 E42.38788
G1 X58.818 Y94.034 E42.41601
G1 X43.267 Y78.483 E43.10613
G1 X44.164 Y78.484 E43.13428
G1 X58.818 Y93.138 E43.78460
G1 X58.818 Y92.241 E43.81273
G1 X45.061 Y78.484 E44.42325
G1 X45.958 Y78.485 E44.45139
G1 X58.818 Y91.345 E45.02212
G1 X58.818 Y90.449 E45.05024
G1 X46.855 Y78.485 E45.58117
G1 X47.751 Y78.486 E45.60931
G1 X58.818 Y89.552 E46.10044
G1 X58.818 Y88.656 E46.12857
G1 X48.648 Y78.486 E46.57990
G1 X49.545 Y78.487 E46.60804
G1 X58.818 Y87.760 E47.01957
G1 X58.818 Y86.864 E47.04770
G1 X50.442 Y78.487 E47.41943
G1 X51.338 Y78.488 E47.44757
G1 X58.818 Y85.967 E47.77950
G1 X58.818 Y85.071 E47.80763
G1 X52.235 Y78.488 E48.09976
G1 X53.132 Y78.489 E48.12790
G1 X58.818 Y84.175 E48.38024
G1 X58.818 Y83.278 E48.40837
G1 X54.029 Y78.489 E48.62090
G1 X54.926 Y78.490 E48.64904
G1 X58.818 Y82.382 E48.82178
G1 X58.818 Y81.486 E48.84991
G1 X55.822 Y78.490 E48.98285
G1 X56.719 Y78.491 E49.01099
G1 X58.818 Y80.590 E49.10413
G1 X58.818 Y79.693 E49.13225
G1 X57.616 Y78.491 E49.18559
G1 X58.513 Y78.492 E49.21374
G1 X58.818 Y78.797 E49.22728
G1 E47.22728 F600.00000
G92 E0
G1 Z0.850 F1800.000
G1 X59.330 Y121.753 F1800.000
G1 Z0.650 F1800.000
G1 E2.00000 F600.00000
G1 X59.271 Y121.865 E2.00352 F3600.000
G1 X59.152 Y121.982 E2.00815
G1 X58.982 Y122.052 E2.01325
G1 X58.851 Y122.065 E2.01691
G1 X41.149 Y122.065 E2.50863
G1 X40.936 Y122.027 E2.51463
G1 X40.777 Y121.923 E2.51992
G1 X40.675 Y121.770 E2.52502
G1 X40.635 Y121.544 E2.53141
G1 X40.635 Y78.449 E3.72849
G1 X40.673 Y78.236 E3.73449
G1 X40.729 Y78.135 E3.73772
G1 X40.848 Y78.018 E3.74234
G1 X41.001 Y77.953 E3.74696
G1 X41.156 Y77.935 E3.75129
G1 X58.965 Y77.946 E4.24597
G1 X59.152 Y78.018 E4.25154 F3600.000
G1 X59.282 Y78.148 E4.25665
G1 X59.352 Y78.318 E4.26175
G1 X59.365 Y78.449 E4.26541
G1 X59.365 Y121.551 E5.46268
G1 X59.352 Y121.682 E5.46633
G1 X59.852 Y121.912 F1800.000
G1 X59.723 Y122.173 E5.47172 F1800.000
G1 X59.610 Y122.310 E5.47500
G1 X59.456 Y122.437 E5.47870
G1 X59.280 Y122.531 E5.48239
G1 X59.089 Y122.589 E5.48608
G1 X58.878 Y122.610 E5.49000
G1 X41.122 Y122.610 E5.81827
G1 X40.911 Y122.589 E5.82219
G1 X40.722 Y122.532 E5.82584
G1 X40.527 Y122.423 E5.82998
G1 X40.390 Y122.310 E5.83326
G1 X40.263 Y122.156 E5.83695
G1 X40.169 Y121.980 E5.84064
G1 X40.117 Y121.810 E5.84392
G1 X40.090 Y121.576 E5.84829
G1 X40.090 Y78.422 E6.64612
G1 X40.111 Y78.211 E6.65004
G1 X40.168 Y78.022 E6.65369
G1 X40.277 Y77.827 E6.65783
G1 X40.390 Y77.690 E6.66111
G1 X40.544 Y77.563 E6.66480
G1 X40.720 Y77.469 E6.66849
G1 X40.890 Y77.417 E6.67177
G1 X41.124 Y77.390 E6.67614
G1 X58.878 Y77.390 E7.00437
G1 X59.067 Y77.409 E7.00787
G1 X59.282 Y77.470 E7.01201 F1800.000
G1 X59.456 Y77.563 E7.01566
G1 X59.610 Y77.690 E7.01936
G1 X59.737 Y77.844 E7.02305
G1 X59.831 Y78.020 E7.02674
G1 X59.889 Y78.211 E7.03043
G1 X59.910 Y78.422 E7.03435
G1 X59.910 Y121.578 E7.83222
G1 X59.874 Y121.840 E7.83711
G1 X59.564 Y121.958 F1800.000
G1 X58.657 Y121.677 F1800.000
G1 X58.977 Y121.357 E7.84981 F1200.000
G1 X58.977 Y120.423 E7.87595
G1 X57.723 Y121.677 E7.92561
G1 X56.790 Y121.677 E7.95176
G1 X58.977 Y119.490 E8.03839
G1 X58.977 Y118.557 E8.06454
G1 X55.857 Y121.677 E8.18814
G1 X54.923 Y121.677 E8.21429
G1 X58.977 Y117.623 E8.37487
G1 X58.977 Y116.690 E8.40101
G1 X53.990 Y121.677 E8.59856
G1 X53.057 Y121.677 E8.62471
G1 X58.977 Y115.757 E8.85923
G1 X58.977 Y114.823 E8.88537
G1 X52.123 Y121.677 E9.15687
G1 X51.190 Y121.677 E9.18301
G1 X58.977 Y113.890 E9.49148
G1 X58.977 Y112.957 E9.51763
G1 X50.257 Y121.677 E9.86307
G1 X49.323 Y121.677 E9.88921
G1 X58.977 Y112.023 E10.27162
G1 X58.977 Y111.090 E10.29777
G1 X48.390 Y121.677 E10.71715
G1 X47.457 Y121.677 E10.74329
G1 X58.977 Y110.157 E11.19965
G1 X58.977 Y109.223 E11.22579
G1 X46.523 Y121.677 E11.71912
G1 X45.590 Y121.677 E11.74527
G1 X58.977 Y108.290 E12.27557
G1 X58.977 Y107.357 E12.30171
G1 X44.657 Y121.677 E12.86898
G1 X43.723 Y121.677 E12.89513
G1 X58.977 Y106.423 E13.49937
G1 X58.977 Y105.490 E13.52552
G1 X42.790 Y121.677 E14.16673
G1 X41.857 Y121.677 E14.19288
G1 X58.977 Y104.557 E14.87107
G1 X58.977 Y103.623 E14.89721
G1 X41.023 Y121.577 E15.60842
G1 X41.023 Y120.644 E15.63456
G1 X58.977 Y102.690 E16.34578
G1 X58.977 Y101.756 E16.37192
G1 X41.023 Y119.711 E17.08313
G1 X41.023 Y118.777 E17.10927
G1 X58.977 Y100.823 E17.82049
G1 X58.977 Y99.890 E17.84663
G1 X41.023 Y117.844 E18.55784
G1 X41.023 Y116.911 E18.58398
G1 X58.977 Y98.956 E19.29520
G1 X58.977 Y98.023 E19.32134
G1 X41.023 Y115.977 E20.03255
G1 X41.023 Y115.044 E20.05869
G1 X58.977 Y97.090 E20.76991
G1 X58.977 Y96.156 E20.79605
G1 X41.023 Y114.111 E21.50726
G1 X41.023 Y113.177 E21.53340
G1 X58.977 Y95.223 E22.24462
G1 X58.977 Y94.290 E22.27076
G1 X41.023 Y112.244 E22.98197
G1 X41.023 Y111.311 E23.00811
G1 X58.977 Y93.356 E23.71933
G1 X58.977 Y92.423 E23.74547
G1 X41.023 Y110.377 E24.45668
G1 X41.023 Y109.444 E24.48282
G1 X58.977 Y91.490 E25.19404
G1 X58.977 Y90.556 E25.22018
G1 X41.023 Y108.511 E25.93139
G1 X41.023 Y107.577 E25.95753
G1 X58.977 Y89.623 E26.66875
G1 X58.977 Y88.690 E26.69489
G1 X41.023 Y106.644 E27.40610
G1 X41.023 Y105.711 E27.43224
G1 X58.977 Y87.756 E28.14346
G1 X58.977 Y86.823 E28.16960
G1 X41.023 Y104.777 E28.88081
G1 X41.023 Y103.844 E28.90695
G1 X58.977 Y85.890 E29.61817
G1 X58.977 Y84.956 E29.64431
G1 X41.023 Y102.911 E30.35552
G1 X41.023 Y101.977 E30.38166
G1 X58.977 Y84.023 E31.09288
G1 X58.977 Y83.090 E31.11902
G1 X41.023 Y101.044 E31.83023
G1 X41.023 Y100.110 E31.85637
G1 X58.977 Y82.156 E32.56759
G1 X58.977 Y81.223 E32.59373
G1 X41.023 Y99.177 E33.30494
G1 X41.023 Y98.244 E33.33108
G1 X58.977 Y80.290 E34.04230
G1 X58.977 Y79.356 E34.06844
G1 X41.023 Y97.310 E34.77965
G1 X41.023 Y96.377 E34.80579
G1 X58.977 Y78.423 E35.51701
G1 X58.133 Y78.333 E35.54078
G1 X41.023 Y95.444 E36.21856
G1 X41.023 Y94.510 E36.24470
G1 X57.200 Y78.333 E36.88553
G1 X56.268 Y78.332 E36.91166
G1 X41.023 Y93.577 E37.51554
G1 X41.023 Y92.644 E37.54169
G1 X55.335 Y78.332 E38.10862
G1 X54.402 Y78.331 E38.13475
G1 X41.023 Y91.710 E38.66474
G1 X41.023 Y90.777 E38.69088
G1 X53.469 Y78.331 E39.18392
G1 X52.537 Y78.330 E39.21004
G1 X41.023 Y89.844 E39.66613
G1 X41.023 Y88.910 E39.69227
G1 X51.604 Y78.329 E40.11141
G1 X50.671 Y78.329 E40.13754
G1 X41.023 Y87.977 E40.51973
G1 X41.023 Y87.044 E40.54587
G1 X49.738 Y78.328 E40.89111
G1 X48.806 Y78.328 E40.91724
G1 X41.023 Y86.110 E41.22553
G1 X41.023 Y85.177 E41.25168
G1 X47.873 Y78.327 E41.52302
G1 X46.940 Y78.326 E41.54915
G1 X41.023 Y84.244 E41.78354
G1 X41.023 Y83.310 E41.80969
G1 X46.007 Y78.326 E42.00713
G1 X45.075 Y78.325 E42.03326
G1 X41.023 Y82.377 E42.19376
G1 X41.023 Y81.444 E42.21990
G1 X44.142 Y78.325 E42.34345
G1 X43.209 Y78.324 E42.36957
G1 X41.023 Y80.510 E42.45617
G1 X41.023 Y79.577 E42.48232
G1 X42.276 Y78.323 E42.53197
