; generated by Slic3r 1.2.6 on 2015-02-26 at 18:02:54

; external perimeters extrusion width = 0.50mm
; perimeters extrusion width = 0.72mm
; infill extrusion width = 0.72mm
; solid infill extrusion width = 0.72mm
; top infill extrusion width = 0.72mm

M107
M190 S110 ; set bed temperature
M104 S230 ; set temperature
G28 ; home all axes
G1 Z1 F100 ; lift nozzle
M203 X4000 Y4000 Z20 ; set feedrate limits
M109 S230 ; wait for temperature to be reached
G21 ; set units to millimeters
G90 ; use absolute coordinates
M82 ; use absolute distances for extrusion
G92 E0
G1 E-2.00000 F600.00000
G92 E0
G1 Z0.500 F1800.000
G1 X28.289 Y57.239 F1800.000
G1 Z0.350 F1800.000
G1 E2.00000 F600.00000
G1 X30.493 Y56.289 E2.07426 F1800.000
G1 X32.220 Y56.080 E2.12808
G1 X65.240 Y56.080 E3.14976
G1 X67.607 Y56.477 E3.22402
G1 X69.714 Y57.626 E3.29828 F1800.000
G1 X71.331 Y59.399 E3.37254
G1 X72.426 Y62.372 E3.47056
G1 X74.966 Y81.422 E4.06521
G1 X75.030 Y82.380 E4.09492
G1 X75.030 Y97.620 E4.56646
G1 X74.966 Y98.578 E4.59618
G1 X72.426 Y117.628 E5.19083
G1 X71.720 Y119.922 E5.26508
G1 X70.303 Y121.859 E5.33934
G1 X68.331 Y123.228 E5.41360
G1 X65.240 Y123.920 E5.51162
G1 X32.220 Y123.920 E6.53330
G1 X29.853 Y123.523 E6.60756
G1 X27.746 Y122.374 E6.68182
G1 X26.129 Y120.601 E6.75608
G1 X25.179 Y118.397 E6.83034
G1 X24.970 Y116.670 E6.88416
G1 X24.970 Y63.330 E8.53457
G1 X25.367 Y60.963 E8.60883
G1 X26.516 Y58.856 E8.68308
G1 X28.234 Y57.289 E8.75502
G1 X28.718 Y57.747 F1800.000
G1 X28.888 Y57.604 E8.76190 F1800.000
G1 X31.040 Y56.811 E8.83286
G1 X32.220 Y56.705 E8.86951
G1 X65.240 Y56.705 E9.89119
G1 X67.499 Y57.102 E9.96216
G1 X69.487 Y58.245 E10.03312 F1800.000
G1 X70.966 Y59.998 E10.10408
G1 X71.807 Y62.454 E10.18441
G1 X74.347 Y81.504 E10.77906
G1 X74.405 Y82.380 E10.80621
G1 X74.405 Y97.620 E11.27775
G1 X74.347 Y98.496 E11.30490
G1 X71.807 Y117.546 E11.89955
G1 X71.115 Y119.732 E11.97052
G1 X69.719 Y121.552 E12.04148
G1 X67.786 Y122.786 E12.11244
G1 X65.240 Y123.295 E12.19277
G1 X32.220 Y123.295 E13.21445
G1 X29.961 Y122.898 E13.28541
G1 X27.973 Y121.755 E13.35637
G1 X26.494 Y120.002 E13.42734
G1 X25.701 Y117.850 E13.49830
G1 X25.595 Y116.670 E13.53495
G1 X25.595 Y63.330 E15.18536
G1 X25.992 Y61.071 E15.25632
G1 X27.135 Y59.083 E15.32728
G1 X28.661 Y57.796 E15.38905
G1 E13.38905 F600.00000
G92 E0
G1 Z0.850 F1800.000
G1 X64.145 Y115.575 F1800.000
G1 Z0.350 F1800.000
G1 E2.00000 F600.00000
G1 X57.270 Y115.575 E2.21272 F1800.000
G1 X57.270 Y64.425 E3.79537
G1 X64.145 Y64.425 E4.00809
G1 X64.145 Y115.500 E5.58842
G1 X64.145 Y116.075 F1800.000
G1 X45.270 Y115.575 F1800.000
G1 X38.395 Y115.575 E5.80114 F1800.000
G1 X38.395 Y64.425 E7.38379
G1 X45.270 Y64.425 E7.59651
G1 X45.270 Y115.500 E9.17684
G1 X45.270 Y116.075 F1800.000
G1 E7.17684 F600.00000
G92 E0
G1 Z0.850 F1800.000
G1 X66.180 Y93.758 F1800.000
G1 Z0.350 F1800.000
G1 E2.00000 F600.00000
G1 X65.395 Y92.972 E2.03437 F1800.000
G1 X65.395 Y87.028 E2.21831
G1 X66.180 Y86.242 E2.25268
G1 X66.180 Y93.683 E2.48290
G1 X66.805 Y95.266 F1800.000
G1 X64.770 Y93.231 E2.57195 F1800.000
G1 X64.770 Y86.769 E2.77191
G1 X66.805 Y84.734 E2.86096
G1 X66.805 Y95.191 E3.18454
G1 E1.18454 F600.00000
G92 E0
G1 Z0.850 F1800.000
G1 X56.020 Y115.070 F1800.000
G1 Z0.350 F1800.000
G1 E2.00000 F600.00000
G1 X46.520 Y115.070 E2.29396 F1800.000
G1 X46.520 Y64.930 E3.84537
G1 X56.020 Y64.930 E4.13932
G1 X56.020 Y114.995 E5.68841
G1 X56.645 Y115.695 F1800.000
G1 X45.895 Y115.695 E6.02104 F1800.000
G1 X45.895 Y64.305 E7.61112
G1 X56.645 Y64.305 E7.94375
G1 X56.645 Y115.620 E9.53151
G1 E7.53151 F600.00000
G92 E0
G1 Z0.850 F1800.000
G1 X33.785 Y115.105 F1800.000
G1 Z0.350 F1800.000
G1 E2.00000 F600.00000
G1 X37.770 Y115.105 E2.12330 F1800.000
G1 X37.770 Y115.695 E2.14156
G1 X33.195 Y115.695 E2.28313
G1 X33.195 Y64.305 E3.87321
G1 X33.785 Y64.305 E3.89147
G1 X33.785 Y115.030 E5.46097
G1 X34.410 Y114.480 F1800.000
G1 X37.650 Y114.480 E5.56122 F1800.000
G1 X37.650 Y63.680 E7.13304
G1 X64.890 Y63.680 E7.97588
G1 X64.890 Y85.765 E8.65922
G1 X67.430 Y83.225 E8.77036
G1 X67.430 Y96.775 E9.18962
G1 X64.890 Y94.235 E9.30076
G1 X64.890 Y116.320 E9.98410
G1 X32.570 Y116.320 E10.98412
G1 X32.570 Y63.680 E12.61287
G1 X34.410 Y63.680 E12.66981
G1 X34.410 Y114.405 E14.23930
G1 X34.410 Y114.980 F1800.000
G1 E12.23930 F600.00000
G92 E0
G1 Z0.850 F1800.000
G1 X47.192 Y114.703 F1800.000
G1 Z0.350 F1800.000
G1 E2.00000 F600.00000
G1 X46.887 Y114.398 E2.01338 F1800.000
G1 X46.887 Y113.512 E2.04083
G1 X48.078 Y114.703 E2.09304
G1 X48.963 Y114.703 E2.12050
G1 X46.887 Y112.627 E2.21154
G1 X46.887 Y111.741 E2.23900
G1 X49.849 Y114.703 E2.36886
G1 X50.734 Y114.703 E2.39632
G1 X46.887 Y110.856 E2.56502
G1 X46.887 Y109.970 E2.59248
G1 X51.620 Y114.703 E2.80001
G1 X52.506 Y114.703 E2.82746
G1 X46.887 Y109.084 E3.07383
G1 X46.887 Y108.199 E3.10128
G1 X53.391 Y114.703 E3.38647
G1 X54.277 Y114.703 E3.41393
G1 X46.887 Y107.313 E3.73795
G1 X46.887 Y106.428 E3.76541
G1 X55.162 Y114.703 E4.12826
G1 X55.653 Y114.308 E4.14779
G1 X46.887 Y105.542 E4.53216
G1 X46.887 Y104.657 E4.55961
G1 X55.653 Y113.422 E4.94398
G1 X55.653 Y112.537 E4.97144
G1 X46.887 Y103.771 E5.35581
G1 X46.887 Y102.886 E5.38326
G1 X55.653 Y111.651 E5.76763
G1 X55.653 Y110.766 E5.79509
G1 X46.887 Y102.000 E6.17946
G1 X46.887 Y101.114 E6.20691
G1 X55.653 Y109.880 E6.59128
G1 X55.653 Y108.995 E6.61874
G1 X46.887 Y100.229 E7.00311
G1 X46.887 Y99.343 E7.03056
G1 X55.653 Y108.109 E7.41493
G1 X55.653 Y107.224 E7.44239
G1 X46.887 Y98.458 E7.82676
G1 X46.887 Y97.572 E7.85421
G1 X55.653 Y106.338 E8.23858
G1 X55.653 Y105.452 E8.26604
G1 X46.887 Y96.687 E8.65041
G1 X46.887 Y95.801 E8.67786
G1 X55.653 Y104.567 E9.06223
G1 X55.653 Y103.681 E9.08969
G1 X46.887 Y94.915 E9.47406
G1 X46.887 Y94.030 E9.50151
G1 X55.653 Y102.796 E9.88588
G1 X55.653 Y101.910 E9.91334
G1 X46.887 Y93.144 E10.29771
G1 X46.887 Y92.259 E10.32516
G1 X55.653 Y101.025 E10.70953
G1 X55.653 Y100.139 E10.73699
G1 X46.887 Y91.373 E11.12136
G1 X46.887 Y90.488 E11.14881
G1 X55.653 Y99.254 E11.53318
G1 X55.653 Y98.368 E11.56064
G1 X46.887 Y89.602 E11.94501
G1 X46.887 Y88.717 E11.97246
G1 X55.653 Y97.482 E12.35683
G1 X55.653 Y96.597 E12.38429
G1 X46.887 Y87.831 E12.76866
G1 X46.887 Y86.945 E12.79611
G1 X55.653 Y95.711 E13.18048
G1 X55.653 Y94.826 E13.20794
G1 X46.887 Y86.060 E13.59231
G1 X46.887 Y85.174 E13.61976
G1 X55.653 Y93.940 E14.00413
G1 X55.653 Y93.055 E14.03159
G1 X46.887 Y84.289 E14.41596
G1 X46.887 Y83.403 E14.44341
G1 X55.653 Y92.169 E14.82778
G1 X55.653 Y91.283 E14.85524
G1 X46.887 Y82.518 E15.23961
G1 X46.887 Y81.632 E15.26706
G1 X55.653 Y90.398 E15.65143
G1 X55.653 Y89.512 E15.67889
G1 X46.887 Y80.747 E16.06326
G1 X46.887 Y79.861 E16.09071
G1 X55.653 Y88.627 E16.47508
G1 X55.653 Y87.741 E16.50254
G1 X46.887 Y78.975 E16.88691
G1 X46.887 Y78.090 E16.91436
G1 X55.653 Y86.856 E17.29873
G1 X55.653 Y85.970 E17.32619
G1 X46.887 Y77.204 E17.71056
G1 X46.887 Y76.319 E17.73801
G1 X55.653 Y85.085 E18.12238
G1 X55.653 Y84.199 E18.14984
G1 X46.887 Y75.433 E18.53421
G1 X46.887 Y74.548 E18.56166
G1 X55.653 Y83.313 E18.94603
G1 X55.653 Y82.428 E18.97349
G1 X46.887 Y73.662 E19.35786
G1 X46.887 Y72.776 E19.38531
G1 X55.653 Y81.542 E19.76968
G1 X55.653 Y80.657 E19.79714
G1 X46.887 Y71.891 E20.18151
G1 X46.887 Y71.005 E20.20896
G1 X55.653 Y79.771 E20.59333
G1 X55.653 Y78.886 E20.62079
G1 X46.887 Y70.120 E21.00516
G1 X46.887 Y69.234 E21.03261
G1 X55.653 Y78.000 E21.41698
G1 X55.653 Y77.114 E21.44444
G1 X46.887 Y68.349 E21.82881
G1 X46.887 Y67.463 E21.85626
G1 X55.653 Y76.229 E22.24063
G1 X55.653 Y75.343 E22.26809
G1 X46.887 Y66.578 E22.65246
G1 X46.887 Y65.692 E22.67991
G1 X55.653 Y74.458 E23.06428
G1 X55.653 Y73.572 E23.09174
G1 X47.378 Y65.297 E23.45459
G1 X48.263 Y65.297 E23.48205
G1 X55.653 Y72.687 E23.80607
G1 X55.653 Y71.801 E23.83353
G1 X49.149 Y65.297 E24.11872
G1 X50.034 Y65.297 E24.14618
G1 X55.653 Y70.916 E24.39254
G1 X55.653 Y70.030 E24.42000
G1 X50.920 Y65.297 E24.62753
G1 X51.806 Y65.297 E24.65498
G1 X55.653 Y69.144 E24.82369
G1 X55.653 Y68.259 E24.85114
G1 X52.691 Y65.297 E24.98101
G1 X53.577 Y65.297 E25.00847
G1 X55.653 Y67.373 E25.09951
G1 X55.653 Y66.488 E25.12697
G1 X54.462 Y65.297 E25.17918
G1 X55.348 Y65.297 E25.20663
G1 X55.653 Y65.602 E25.22001
G1 E23.22001 F600.00000
G92 E0
G1 Z0.850 F1800.000
G1 X57.370 Y115.150 F1800.000
G1 Z0.650 F1800.000
G1 E2.00000 F600.00000
G1 X57.370 Y64.850 E2.92996 F1800.000
G1 X63.720 Y64.850 E3.04736
G1 X63.720 Y115.150 E3.97732
G1 X57.445 Y115.150 E4.09333
G1 X56.870 Y115.150 F1800.000
G1 X45.170 Y115.150 F1800.000
G1 X38.820 Y115.150 E4.21073 F1800.000
G1 X38.820 Y64.850 E5.14069
G1 X45.170 Y64.850 E5.25809
G1 X45.170 Y115.075 E6.18667
G1 X45.170 Y115.650 F1800.000
G1 E4.18667 F600.00000
G92 E0
G1 Z1.150 F1800.000
G1 X66.330 Y94.120 F1800.000
G1 Z0.650 F1800.000
G1 E2.00000 F600.00000
G1 X64.920 Y92.710 E2.05542 F900.000
G1 X64.920 Y87.290 E2.20596
G1 X66.330 Y85.880 E2.26138
G1 X66.330 Y94.045 E2.48821
G1 X66.985 Y95.701 F1800.000
G1 X64.265 Y92.981 E2.59506 F900.000
G1 X64.265 Y87.019 E2.76065
G1 X66.985 Y84.299 E2.86750
G1 X66.985 Y95.626 E3.18211
G1 E1.18211 F600.00000
G92 E0
G1 Z1.150 F1800.000
G1 X56.170 Y115.220 F1800.000
G1 Z0.650 F1800.000
G1 E2.00000 F600.00000
G1 X46.370 Y115.220 E2.27225 F3600.000
G1 X46.370 Y64.780 E3.67338
G1 X56.170 Y64.780 E3.94563
G1 X56.170 Y115.145 E5.34468
G1 X56.825 Y115.875 F1800.000
G1 X45.715 Y115.875 E5.65329 F3600.000
G1 X45.715 Y64.125 E7.09079
G1 X56.825 Y64.125 E7.39939
G1 X56.825 Y115.800 E8.83481
G1 E6.83481 F600.00000
G92 E0
G1 Z1.150 F1800.000
G1 X33.965 Y114.925 F1800.000
G1 Z0.650 F1800.000
G1 E2.00000 F600.00000
G1 X38.275 Y114.925 E2.11972 F3600.000
G1 X38.275 Y115.875 E2.14611
G1 X33.015 Y115.875 E2.29222
G1 X33.015 Y64.125 E3.72971
G1 X33.965 Y64.125 E3.75610
G1 X33.965 Y114.850 E5.16513
G1 X34.510 Y114.380 F1800.000
G1 X37.550 Y114.380 E5.22133 F1800.000
G1 X37.550 Y63.580 E6.16053
G1 X64.990 Y63.580 E6.66785
G1 X64.990 Y85.524 E7.07355
G1 X67.530 Y82.984 E7.13996
G1 X67.530 Y97.016 E7.39941
G1 X64.990 Y94.476 E7.46582
G1 X64.990 Y116.420 E7.87152
G1 X32.470 Y116.420 E8.47275
G1 X32.470 Y63.580 E9.44967
G1 X34.510 Y63.580 E9.48739
G1 X34.510 Y114.305 E10.42521
G1 X34.510 Y114.880 F1800.000
G1 X38.185 Y114.598 F1800.000
G1 X38.185 Y64.523 E11.05228 F1200.000
G1 X38.238 Y64.268 E11.05554
G1 X38.493 Y64.215 E11.05880
G1 X45.388 Y64.215 E11.14515
G1 X47.075 Y65.167 F1800.000
G1 X46.757 Y65.485 E11.15777 F1200.000
G1 X46.757 Y66.421 E11.18408
G1 X48.011 Y65.167 E11.23392
G1 X48.948 Y65.167 E11.26023
G1 X46.757 Y67.358 E11.34728
G1 X46.757 Y68.294 E11.37359
G1 X49.884 Y65.167 E11.49785
G1 X50.820 Y65.167 E11.52417
G1 X46.757 Y69.230 E11.68564
G1 X46.757 Y70.167 E11.71195
G1 X51.757 Y65.167 E11.91064
G1 X52.693 Y65.167 E11.93695
G1 X46.757 Y71.103 E12.17285
G1 X46.757 Y72.040 E12.19916
G1 X53.630 Y65.167 E12.47227
G1 X54.566 Y65.167 E12.49859
G1 X46.757 Y72.976 E12.80891
G1 X46.757 Y73.912 E12.83522
G1 X55.502 Y65.167 E13.18276
G1 X55.783 Y65.823 E13.20281
G1 X46.757 Y74.849 E13.56148
G1 X46.757 Y75.785 E13.58779
G1 X55.783 Y66.760 E13.94647
G1 X55.783 Y67.696 E13.97278
G1 X46.757 Y76.721 E14.33145
G1 X46.757 Y77.658 E14.35777
G1 X55.783 Y68.633 E14.71644
G1 X55.783 Y69.569 E14.74275
G1 X46.757 Y78.594 E15.10143
G1 X46.757 Y79.531 E15.12774
G1 X55.783 Y70.505 E15.48641
G1 X55.783 Y71.442 E15.51272
G1 X46.757 Y80.467 E15.87140
G1 X46.757 Y81.403 E15.89771
G1 X55.783 Y72.378 E16.25638
G1 X55.783 Y73.314 E16.28270
G1 X46.757 Y82.340 E16.64137
G1 X46.757 Y83.276 E16.66768
G1 X55.783 Y74.251 E17.02636
G1 X55.783 Y75.187 E17.05267
G1 X46.757 Y84.212 E17.41134
G1 X46.757 Y85.149 E17.43766
G1 X55.783 Y76.124 E17.79633
G1 X55.783 Y77.060 E17.82264
G1 X46.757 Y86.085 E18.18132
G1 X46.757 Y87.022 E18.20763
G1 X55.783 Y77.996 E18.56630
G1 X55.783 Y78.933 E18.59262
G1 X46.757 Y87.958 E18.95129
G1 X46.757 Y88.894 E18.97760
G1 X55.783 Y79.869 E19.33628
G1 X55.783 Y80.805 E19.36259
G1 X46.757 Y89.831 E19.72126
G1 X46.757 Y90.767 E19.74758
G1 X55.783 Y81.742 E20.10625
G1 X55.783 Y82.678 E20.13256
G1 X46.757 Y91.703 E20.49124
G1 X46.757 Y92.640 E20.51755
G1 X55.783 Y83.615 E20.87622
G1 X55.783 Y84.551 E20.90254
G1 X46.757 Y93.576 E21.26121
G1 X46.757 Y94.513 E21.28752
G1 X55.783 Y85.487 E21.64620
G1 X55.783 Y86.424 E21.67251
G1 X46.757 Y95.449 E22.03118
G1 X46.757 Y96.385 E22.05750
G1 X55.783 Y87.360 E22.41617
G1 X55.783 Y88.296 E22.44248
G1 X46.757 Y97.322 E22.80115
G1 X46.757 Y98.258 E22.82747
G1 X55.783 Y89.233 E23.18614
G1 X55.783 Y90.169 E23.21245
G1 X46.757 Y99.194 E23.57113
G1 X46.757 Y100.131 E23.59744
G1 X55.783 Y91.106 E23.95611
G1 X55.783 Y92.042 E23.98243
G1 X46.757 Y101.067 E24.34110
G1 X46.757 Y102.004 E24.36741
G1 X55.783 Y92.978 E24.72609
G1 X55.783 Y93.915 E24.75240
G1 X46.757 Y102.940 E25.11107
G1 X46.757 Y103.876 E25.13739
G1 X55.783 Y94.851 E25.49606
G1 X55.783 Y95.787 E25.52237
G1 X46.757 Y104.813 E25.88105
G1 X46.757 Y105.749 E25.90736
G1 X55.783 Y96.724 E26.26603
G1 X55.783 Y97.660 E26.29235
G1 X46.757 Y106.685 E26.65102
G1 X46.757 Y107.622 E26.67733
G1 X55.783 Y98.597 E27.03601
G1 X55.783 Y99.533 E27.06232
G1 X46.757 Y108.558 E27.42099
G1 X46.757 Y109.495 E27.44731
G1 X55.783 Y100.469 E27.80598
G1 X55.783 Y101.406 E27.83229
G1 X46.757 Y110.431 E28.19097
G1 X46.757 Y111.367 E28.21728
G1 X55.783 Y102.342 E28.57595
G1 X55.783 Y103.278 E28.60227
G1 X46.757 Y112.304 E28.96094
G1 X46.757 Y113.240 E28.98725
G1 X55.783 Y104.215 E29.34593
G1 X55.783 Y105.151 E29.37224
G1 X46.757 Y114.176 E29.73091
G1 X47.038 Y114.833 E29.75096
G1 X55.783 Y106.088 E30.09850
G1 X55.783 Y107.024 E30.12481
G1 X47.974 Y114.833 E30.43514
G1 X48.910 Y114.833 E30.46145
G1 X55.783 Y107.960 E30.73456
G1 X55.783 Y108.897 E30.76088
G1 X49.847 Y114.833 E30.99677
G1 X50.783 Y114.833 E31.02309
G1 X55.783 Y109.833 E31.22177
G1 X55.783 Y110.769 E31.24809
G1 X51.719 Y114.833 E31.40956
G1 X52.656 Y114.833 E31.43588
G1 X55.783 Y111.706 E31.56014
G1 X55.783 Y112.642 E31.58645
G1 X53.592 Y114.833 E31.67350
G1 X54.529 Y114.833 E31.69981
G1 X55.783 Y113.579 E31.74965
G1 X55.783 Y114.515 E31.77597
G1 X55.465 Y114.833 E31.78859
G1 E29.78859 F600.00000
G92 E0
G1 Z1.150 F1800.000
G1 X64.663 Y115.785 F1800.000
G1 Z0.650 F1800.000
G1 E2.00000 F600.00000
G1 X57.460 Y115.785 E2.09020 F1200.000
G1 X64.302 Y115.732 E2.17588
G1 X64.355 Y115.477 E2.17914
G1 X64.355 Y93.533 E2.45394
G1 X65.625 Y92.952 F1800.000
G1 X65.625 Y87.048 E2.70802 F1200.000
G1 X64.355 Y86.467 F1800.000
G1 X64.355 Y64.523 E2.98282 F1200.000
G1 X64.302 Y64.268 E2.98608
G1 X64.047 Y64.215 E2.98934
G1 X57.152 Y64.215 E3.07568
G1 X45.388 Y115.785 F1800.000
G1 X38.602 Y115.785 E3.16066 F1200.000
G1 E1.16066 F600.00000
G92 E0
G1 Z1.150 F1800.000
G1 X56.825 Y115.395 F1800.000
G1 Z0.950 F1800.000
G1 E2.00000 F600.00000
G1 X56.825 Y64.605 E3.41084 F3600.000
G1 X63.965 Y64.605 E3.60917
G1 X63.965 Y115.395 E5.02001
G1 X56.900 Y115.395 E5.21626
G1 X57.370 Y114.850 F1800.000
G1 X57.370 Y65.150 E6.13513 F1800.000
G1 X63.420 Y65.150 E6.24698
G1 X63.420 Y114.850 E7.16585
G1 X57.445 Y114.850 E7.27632
G1 X56.870 Y114.850 F1800.000
G1 X45.715 Y115.395 F1800.000
G1 X38.575 Y115.395 E7.47465 F3600.000
G1 X38.575 Y64.605 E8.88549
G1 X45.715 Y64.605 E9.08383
G1 X45.715 Y115.320 E10.49258
G1 X45.170 Y114.850 F1800.000
G1 X39.120 Y114.850 E10.60443 F1800.000
G1 X39.120 Y65.150 E11.52330
G1 X45.170 Y65.150 E11.63516
G1 X45.170 Y114.775 E12.55264
G1 X45.170 Y115.350 F1800.000
G1 E10.55264 F600.00000
G92 E0
G1 Z1.450 F1800.000
G1 X66.330 Y94.120 F1800.000
G1 Z0.950 F1800.000
G1 E2.00000 F600.00000
G1 X64.620 Y92.410 E2.06721 F900.000
G1 X64.620 Y87.590 E2.20108
G1 X66.330 Y85.880 E2.26829
G1 X66.330 Y94.045 E2.49512
G1 E0.49512 F600.00000
G92 E0
G1 Z1.450 F1800.000
G1 X56.170 Y115.220 F1800.000
G1 Z0.950 F1800.000
G1 E2.00000 F600.00000
G1 X46.370 Y115.220 E2.27225 F3600.000
G1 X46.370 Y64.780 E3.67338
G1 X56.170 Y64.780 E3.94563
G1 X56.170 Y115.145 E5.34468
G1 X38.095 Y114.925 F1800.000
G1 X38.095 Y64.125 E6.75579 F3600.000
G1 X64.445 Y64.125 E7.48773
G1 X64.445 Y86.839 E8.11869
G1 X66.985 Y84.299 E8.21847
