; generated by Slic3r 1.2.6 on 2015-02-27 at 00:10:42

; external perimeters extrusion width = 0.50mm
; perimeters extrusion width = 0.72mm
; infill extrusion width = 0.72mm
; solid infill extrusion width = 0.72mm
; top infill extrusion width = 0.72mm

M107
M190 S110 ; set bed temperature
M104 S230 ; set temperature
G28 ; home all axes
G1 Z1 F100 ; lift nozzle
M203 X4000 Y4000 Z20 ; set feedrate limits
M109 S230 ; wait for temperature to be reached
G21 ; set units to millimeters
G90 ; use absolute coordinates
M82 ; use absolute distances for extrusion
G92 E0
G1 E-2.00000 F600.00000
G92 E0
G1 Z0.500 F1800.000
G1 X35.432 Y61.127 F1800.000
G1 Z0.350 F1800.000
G1 E2.00000 F600.00000
G1 X36.895 Y60.423 E2.05023 F1800.000
G1 X37.163 Y60.329 E2.05903
G1 X38.746 Y59.968 E2.10926
G1 X39.840 Y59.890 E2.14320
G1 X60.160 Y59.890 E2.77193
G1 X60.972 Y59.936 E2.79709
G1 X61.254 Y59.968 E2.80589 F1800.000
G1 X62.837 Y60.329 E2.85612
G1 X63.106 Y60.423 E2.86493
G1 X64.568 Y61.127 E2.91515
G1 X64.809 Y61.278 E2.92395
G1 X66.078 Y62.291 E2.97418
G1 X66.279 Y62.492 E2.98298
G1 X67.292 Y63.761 E3.03321
G1 X67.443 Y64.002 E3.04201
G1 X68.147 Y65.464 E3.09224
G1 X68.241 Y65.733 E3.10104
G1 X68.602 Y67.316 E3.15127
G1 X68.680 Y68.410 E3.18522
G1 X68.680 Y111.590 E4.52126
G1 X68.602 Y112.684 E4.55520
G1 X68.241 Y114.267 E4.60544
G1 X68.147 Y114.536 E4.61424
G1 X67.443 Y115.998 E4.66446
G1 X67.292 Y116.239 E4.67326
G1 X66.279 Y117.508 E4.72350
G1 X66.078 Y117.709 E4.73230
G1 X64.809 Y118.721 E4.78252
G1 X64.568 Y118.873 E4.79133
G1 X63.105 Y119.577 E4.84156
G1 X62.837 Y119.671 E4.85036
G1 X61.254 Y120.032 E4.90059
G1 X60.160 Y120.110 E4.93453
G1 X39.840 Y120.110 E5.56326
G1 X38.746 Y120.032 E5.59721
G1 X37.163 Y119.671 E5.64743
G1 X36.894 Y119.577 E5.65627
G1 X35.432 Y118.873 E5.70647
G1 X35.191 Y118.721 E5.71527
G1 X33.922 Y117.709 E5.76550
G1 X33.721 Y117.508 E5.77430
G1 X32.708 Y116.239 E5.82453
G1 X32.557 Y115.998 E5.83334
G1 X31.853 Y114.535 E5.88356
G1 X31.759 Y114.267 E5.89237
G1 X31.398 Y112.684 E5.94259
G1 X31.320 Y111.590 E5.97653
G1 X31.320 Y68.410 E7.31258
G1 X31.366 Y67.598 E7.33774
G1 X31.398 Y67.316 E7.34654
G1 X31.759 Y65.733 E7.39676
G1 X31.853 Y65.464 E7.40559
G1 X32.557 Y64.002 E7.45580
G1 X32.709 Y63.761 E7.46460
G1 X33.721 Y62.492 E7.51483
G1 X33.922 Y62.291 E7.52363
G1 X35.191 Y61.278 E7.57386
G1 X35.368 Y61.167 E7.58034
G1 X35.764 Y61.656 F1800.000
G1 X37.101 Y61.013 E7.62624 F1800.000
G1 X37.369 Y60.919 E7.63504
G1 X38.816 Y60.589 E7.68094
G1 X39.840 Y60.515 E7.71272
G1 X60.160 Y60.515 E8.34144
G1 X60.902 Y60.557 E8.36443
G1 X61.184 Y60.589 E8.37323 F1800.000
G1 X62.631 Y60.919 E8.41913
G1 X62.899 Y61.013 E8.42794
G1 X64.236 Y61.656 E8.47383
G1 X64.476 Y61.808 E8.48263
G1 X65.636 Y62.733 E8.52853
G1 X65.837 Y62.934 E8.53733
G1 X66.762 Y64.094 E8.58324
G1 X66.914 Y64.334 E8.59204
G1 X67.557 Y65.671 E8.63793
G1 X67.651 Y65.939 E8.64673
G1 X67.981 Y67.386 E8.69264
G1 X68.055 Y68.410 E8.72441
G1 X68.055 Y111.590 E10.06046
G1 X67.981 Y112.614 E10.09223
G1 X67.651 Y114.061 E10.13814
G1 X67.557 Y114.329 E10.14694
G1 X66.914 Y115.666 E10.19284
G1 X66.762 Y115.906 E10.20163
G1 X65.837 Y117.066 E10.24754
G1 X65.636 Y117.267 E10.25634
G1 X64.477 Y118.192 E10.30224
G1 X64.236 Y118.344 E10.31105
G1 X62.899 Y118.987 E10.35694
G1 X62.631 Y119.081 E10.36574
G1 X61.184 Y119.411 E10.41164
G1 X60.160 Y119.485 E10.44342
G1 X39.840 Y119.485 E11.07215
G1 X38.816 Y119.411 E11.10392
G1 X37.369 Y119.081 E11.14982
G1 X37.100 Y118.987 E11.15865
G1 X35.764 Y118.344 E11.20453
G1 X35.523 Y118.192 E11.21333
G1 X34.364 Y117.267 E11.25923
G1 X34.163 Y117.066 E11.26803
G1 X33.238 Y115.906 E11.31393
G1 X33.086 Y115.666 E11.32273
G1 X32.443 Y114.329 E11.36863
G1 X32.349 Y114.060 E11.37743
G1 X32.019 Y112.614 E11.42333
G1 X31.945 Y111.590 E11.45511
G1 X31.945 Y68.410 E12.79115
G1 X31.987 Y67.668 E12.81414
G1 X32.019 Y67.385 E12.82294
G1 X32.349 Y65.939 E12.86884
G1 X32.443 Y65.670 E12.87766
G1 X33.086 Y64.334 E12.92354
G1 X33.238 Y64.093 E12.93234
G1 X34.163 Y62.934 E12.97824
G1 X34.364 Y62.733 E12.98704
G1 X35.524 Y61.808 E13.03294
G1 X35.701 Y61.696 E13.03942
G1 E11.03942 F600.00000
G92 E0
G1 Z0.850 F1800.000
G1 X59.830 Y111.260 F1800.000
G1 Z0.350 F1800.000
G1 E2.00000 F600.00000
G1 X40.170 Y111.260 E2.60832 F1800.000
G1 X40.170 Y68.740 E3.92396
G1 X59.830 Y68.740 E4.53228
G1 X59.830 Y111.185 E5.84560
G1 X60.420 Y111.715 F1800.000
G1 X60.386 Y111.770 E5.84760 F1800.000
G1 X60.291 Y111.847 E5.85139
G1 X60.105 Y111.885 E5.85724
G1 X39.895 Y111.885 E6.48258
G1 X39.715 Y111.850 E6.48826
G1 X39.660 Y111.816 E6.49026
G1 X39.580 Y111.715 E6.49424
G1 X39.545 Y111.535 E6.49991
G1 X39.545 Y68.465 E7.83257
G1 X39.580 Y68.285 E7.83825
G1 X39.614 Y68.230 E7.84025
G1 X39.715 Y68.150 E7.84423
G1 X39.898 Y68.115 E7.85002
G1 X60.105 Y68.115 E8.47524
G1 X60.288 Y68.152 E8.48102
G1 X60.386 Y68.230 E8.48489
G1 X60.420 Y68.285 E8.48689
G1 X60.455 Y68.465 E8.49257
G1 X60.443 Y111.644 E9.82859
G1 X61.010 Y111.922 F1800.000
G1 X60.878 Y112.162 E9.83709 F1800.000
G1 X60.732 Y112.308 E9.84345
G1 X60.565 Y112.412 E9.84955
G1 X60.363 Y112.485 E9.85620
G1 X60.140 Y112.510 E9.86313
G1 X39.860 Y112.510 E10.49064
G1 X39.636 Y112.485 E10.49761
G1 X39.442 Y112.417 E10.50397
G1 X39.268 Y112.308 E10.51033
G1 X39.122 Y112.162 E10.51669
G1 X39.013 Y111.988 E10.52305
G1 X38.945 Y111.794 E10.52941
G1 X38.920 Y111.570 E10.53638
G1 X38.920 Y68.430 E11.87121
G1 X38.945 Y68.206 E11.87818
G1 X39.013 Y68.012 E11.88454
G1 X39.122 Y67.838 E11.89090
G1 X39.268 Y67.692 E11.89726
G1 X39.442 Y67.583 E11.90362
G1 X39.628 Y67.518 E11.90971
G1 X39.861 Y67.490 E11.91698
G1 X60.140 Y67.490 E12.54445
G1 X60.356 Y67.514 E12.55116
G1 X60.559 Y67.584 E12.55781 F1800.000
G1 X60.732 Y67.692 E12.56413
G1 X60.878 Y67.838 E12.57049
G1 X60.987 Y68.012 E12.57685
G1 X61.055 Y68.206 E12.58321
G1 X61.080 Y68.430 E12.59018
G1 X61.080 Y111.570 E13.92501
G1 X61.035 Y111.851 E13.93380
G1 X60.738 Y111.955 F1800.000
G1 X40.537 Y110.588 F1800.000
G1 X40.842 Y110.893 E13.94716 F1800.000
G1 X41.726 Y110.893 E13.97451
G1 X40.537 Y109.704 E14.02654
G1 X40.537 Y108.820 E14.05389
G1 X42.610 Y110.893 E14.14460
G1 X43.494 Y110.893 E14.17195
G1 X40.537 Y107.936 E14.30134
G1 X40.537 Y107.052 E14.32869
G1 X44.378 Y110.893 E14.49677
G1 X45.261 Y110.893 E14.52412
G1 X40.537 Y106.169 E14.73087
G1 X40.537 Y105.285 E14.75822
G1 X46.145 Y110.893 E15.00365
G1 X47.029 Y110.893 E15.03100
G1 X40.537 Y104.401 E15.31511
G1 X40.537 Y103.517 E15.34247
G1 X47.913 Y110.893 E15.66526
G1 X48.797 Y110.893 E15.69261
G1 X40.537 Y102.633 E16.05408
G1 X40.537 Y101.749 E16.08143
G1 X49.681 Y110.893 E16.48159
G1 X50.564 Y110.893 E16.50894
G1 X40.537 Y100.866 E16.94777
G1 X40.537 Y99.982 E16.97512
G1 X51.448 Y110.893 E17.45263
G1 X52.332 Y110.893 E17.47998
G1 X40.537 Y99.098 E17.99618
G1 X40.537 Y98.214 E18.02353
G1 X53.216 Y110.893 E18.57840
G1 X54.100 Y110.893 E18.60575
G1 X40.537 Y97.330 E19.19930
G1 X40.537 Y96.446 E19.22666
G1 X54.984 Y110.893 E19.85889
G1 X55.868 Y110.893 E19.88624
G1 X40.537 Y95.562 E20.55715
G1 X40.537 Y94.679 E20.58450
G1 X56.751 Y110.893 E21.29410
G1 X57.635 Y110.893 E21.32145
G1 X40.537 Y93.795 E22.06972
G1 X40.537 Y92.911 E22.09707
G1 X58.519 Y110.893 E22.88403
G1 X59.403 Y110.893 E22.91138
G1 X40.537 Y92.027 E23.73701
G1 X40.537 Y91.143 E23.76436
G1 X59.463 Y110.069 E24.59262
G1 X59.463 Y109.185 E24.61997
G1 X40.537 Y90.259 E25.44823
G1 X40.537 Y89.376 E25.47558
G1 X59.463 Y108.301 E26.30384
G1 X59.463 Y107.418 E26.33119
G1 X40.537 Y88.492 E27.15945
G1 X40.537 Y87.608 E27.18680
G1 X59.463 Y106.534 E28.01506
G1 X59.463 Y105.650 E28.04241
G1 X40.537 Y86.724 E28.87067
G1 X40.537 Y85.840 E28.89802
G1 X59.463 Y104.766 E29.72628
G1 X59.463 Y103.882 E29.75364
G1 X40.537 Y84.956 E30.58190
G1 X40.537 Y84.072 E30.60925
G1 X59.463 Y102.998 E31.43751
G1 X59.463 Y102.114 E31.46486
G1 X40.537 Y83.189 E32.29312
G1 X40.537 Y82.305 E32.32047
G1 X59.463 Y101.231 E33.14873
G1 X59.463 Y100.347 E33.17608
G1 X40.537 Y81.421 E34.00434
G1 X40.537 Y80.537 E34.03169
G1 X59.463 Y99.463 E34.85995
G1 X59.463 Y98.579 E34.88730
G1 X40.537 Y79.653 E35.71556
G1 X40.537 Y78.769 E35.74291
G1 X59.463 Y97.695 E36.57117
G1 X59.463 Y96.811 E36.59852
G1 X40.537 Y77.886 E37.42678
G1 X40.537 Y77.002 E37.45413
G1 X59.463 Y95.928 E38.28239
G1 X59.463 Y95.044 E38.30974
G1 X40.537 Y76.118 E39.13800
G1 X40.537 Y75.234 E39.16535
G1 X59.463 Y94.160 E39.99361
G1 X59.463 Y93.276 E40.02096
G1 X40.537 Y74.350 E40.84922
G1 X40.537 Y73.466 E40.87657
G1 X59.463 Y92.392 E41.70483
G1 X59.463 Y91.508 E41.73218
G1 X40.537 Y72.583 E42.56044
G1 X40.537 Y71.699 E42.58779
G1 X59.463 Y90.624 E43.41605
G1 X59.463 Y89.741 E43.44340
G1 X40.537 Y70.815 E44.27166
G1 X40.537 Y69.931 E44.29901
G1 X59.463 Y88.857 E45.12727
G1 X59.463 Y87.973 E45.15463
G1 X40.597 Y69.107 E45.98026
G1 X41.481 Y69.107 E46.00761
G1 X59.463 Y87.089 E46.79457
G1 X59.463 Y86.205 E46.82192
G1 X42.365 Y69.107 E47.57019
G1 X43.249 Y69.107 E47.59754
G1 X59.463 Y85.321 E48.30714
G1 X59.463 Y84.438 E48.33449
G1 X44.132 Y69.107 E49.00540
G1 X45.016 Y69.107 E49.03276
G1 X59.463 Y83.554 E49.66499
G1 X59.463 Y82.670 E49.69234
G1 X45.900 Y69.107 E50.28590
G1 X46.784 Y69.107 E50.31325
G1 X59.463 Y81.786 E50.86812
G1 X59.463 Y80.902 E50.89547
G1 X47.668 Y69.107 E51.41167
G1 X48.552 Y69.107 E51.43902
G1 X59.463 Y80.018 E51.91653
G1 X59.463 Y79.134 E51.94388
G1 X49.435 Y69.107 E52.38272
G1 X50.319 Y69.107 E52.41007
G1 X59.463 Y78.251 E52.81022
G1 X59.463 Y77.367 E52.83757
G1 X51.203 Y69.107 E53.19905
G1 X52.087 Y69.107 E53.22640
G1 X59.463 Y76.483 E53.54919
G1 X59.463 Y75.599 E53.57654
G1 X52.971 Y69.107 E53.86066
G1 X53.855 Y69.107 E53.88801
G1 X59.463 Y74.715 E54.13344
G1 X59.463 Y73.831 E54.16079
G1 X54.739 Y69.107 E54.36755
G1 X55.622 Y69.107 E54.39490
G1 X59.463 Y72.948 E54.56297
G1 X59.463 Y72.064 E54.59032
G1 X56.506 Y69.107 E54.71972
G1 X57.390 Y69.107 E54.74707
G1 X59.463 Y71.180 E54.83778
G1 X59.463 Y70.296 E54.86513
G1 X58.274 Y69.107 E54.91716
G1 X59.158 Y69.107 E54.94452
G1 X59.463 Y69.412 E54.95787
G1 E52.95787 F600.00000
G92 E0
G1 Z0.850 F1800.000
G1 X59.980 Y111.410 F1800.000
G1 Z0.650 F1800.000
G1 E2.00000 F600.00000
G1 X40.020 Y111.410 E2.55447 F3600.000
G1 X40.020 Y68.590 E3.74394
G1 X59.980 Y68.590 E4.29841
G1 X59.980 Y111.335 E5.48579
G1 X39.417 Y68.206 F1800.000
G1 X39.547 Y68.043 E5.49160 F3600.000
G1 X39.636 Y67.987 E5.49452
G1 X39.893 Y67.935 E5.50179
G1 X60.115 Y67.935 E6.06354
G1 X60.245 Y67.950 E6.06715
G1 X60.371 Y67.991 E6.07083
G1 X60.527 Y68.117 E6.07642
G1 X60.583 Y68.206 E6.07934
G1 X60.618 Y68.305 E6.08227
G1 X60.635 Y68.455 E6.08644
G1 X60.635 Y111.545 E7.28340
G1 X60.618 Y111.695 E7.28757
G1 X60.583 Y111.794 E7.29050
G1 X60.527 Y111.883 E7.29342
G1 X60.381 Y112.003 E7.29868
G1 X60.257 Y112.049 E7.30236
G1 X60.115 Y112.065 E7.30631
G1 X39.885 Y112.065 E7.86827
G1 X39.735 Y112.048 E7.87244
G1 X39.636 Y112.013 E7.87537
G1 X39.547 Y111.957 E7.87829
G1 X39.417 Y111.794 E7.88410
G1 X39.382 Y111.695 E7.88702
G1 X39.365 Y111.545 E7.89119
G1 X39.365 Y68.455 E9.08816
G1 X39.392 Y68.277 E9.09315
G1 X38.902 Y68.026 F1800.000
G1 X39.044 Y67.775 E9.09848 F1800.000
G1 X39.205 Y67.614 E9.10269
G1 X39.398 Y67.492 E9.10691
G1 X39.589 Y67.426 E9.11066
G1 X39.857 Y67.390 E9.11564
G1 X60.146 Y67.390 E9.49076
G1 X60.361 Y67.414 E9.49476
G1 X60.604 Y67.494 E9.49948 F1800.000
G1 X60.795 Y67.614 E9.50365
G1 X60.956 Y67.775 E9.50787
G1 X61.078 Y67.968 E9.51209
G1 X61.153 Y68.183 E9.51630
G1 X61.180 Y68.424 E9.52078
G1 X61.180 Y111.576 E10.31858
G1 X61.153 Y111.817 E10.32306
G1 X61.078 Y112.032 E10.32728
G1 X60.956 Y112.225 E10.33149
G1 X60.795 Y112.386 E10.33571
G1 X60.623 Y112.494 E10.33946
G1 X60.384 Y112.583 E10.34418
G1 X60.146 Y112.610 E10.34861
G1 X39.854 Y112.610 E10.72377
G1 X39.613 Y112.583 E10.72825
G1 X39.398 Y112.508 E10.73246
G1 X39.205 Y112.386 E10.73668
G1 X39.044 Y112.225 E10.74090
G1 X38.922 Y112.032 E10.74511
G1 X38.847 Y111.817 E10.74933
G1 X38.820 Y111.576 E10.75381
G1 X38.820 Y68.424 E11.55161
G1 X38.847 Y68.183 E11.55609
G1 X38.877 Y68.097 E11.55778
G1 X39.190 Y68.006 F1800.000
G1 X40.407 Y69.295 F1800.000
G1 X40.725 Y68.977 E11.57035 F1200.000
G1 X41.657 Y68.977 E11.59643
G1 X40.407 Y70.227 E11.64588
G1 X40.407 Y71.159 E11.67196
G1 X42.589 Y68.977 E11.75830
G1 X43.522 Y68.977 E11.78438
G1 X40.407 Y72.092 E11.90760
G1 X40.407 Y73.024 E11.93368
G1 X44.454 Y68.977 E12.09379
G1 X45.386 Y68.977 E12.11987
G1 X40.407 Y73.956 E12.31685
G1 X40.407 Y74.888 E12.34294
G1 X46.318 Y68.977 E12.57681
G1 X47.251 Y68.977 E12.60289
G1 X40.407 Y75.821 E12.87364
G1 X40.407 Y76.753 E12.89973
G1 X48.183 Y68.977 E13.20737
G1 X49.115 Y68.977 E13.23345
G1 X40.407 Y77.685 E13.57797
G1 X40.407 Y78.617 E13.60405
G1 X50.047 Y68.977 E13.98546
G1 X50.980 Y68.977 E14.01154
G1 X40.407 Y79.550 E14.42983
G1 X40.407 Y80.482 E14.45591
G1 X51.912 Y68.977 E14.91109
G1 X52.844 Y68.977 E14.93717
G1 X40.407 Y81.414 E15.42923
G1 X40.407 Y82.346 E15.45531
G1 X53.776 Y68.977 E15.98426
G1 X54.709 Y68.977 E16.01034
G1 X40.407 Y83.279 E16.57617
G1 X40.407 Y84.211 E16.60225
G1 X55.641 Y68.977 E17.20496
G1 X56.573 Y68.977 E17.23104
G1 X40.407 Y85.143 E17.87064
G1 X40.407 Y86.075 E17.89672
G1 X57.505 Y68.977 E18.57320
G1 X58.437 Y68.977 E18.59928
G1 X40.407 Y87.007 E19.31265
G1 X40.407 Y87.940 E19.33873
G1 X59.370 Y68.977 E20.08898
G1 X59.593 Y69.687 E20.10978
G1 X40.407 Y88.872 E20.86885
G1 X40.407 Y89.804 E20.89493
G1 X59.593 Y70.619 E21.65400
G1 X59.593 Y71.551 E21.68008
G1 X40.407 Y90.736 E22.43915
G1 X40.407 Y91.669 E22.46523
G1 X59.593 Y72.483 E23.22430
G1 X59.593 Y73.416 E23.25038
G1 X40.407 Y92.601 E24.00945
G1 X40.407 Y93.533 E24.03554
G1 X59.593 Y74.348 E24.79461
G1 X59.593 Y75.280 E24.82069
G1 X40.407 Y94.465 E25.57976
G1 X40.407 Y95.398 E25.60584
G1 X59.593 Y76.212 E26.36491
G1 X59.593 Y77.145 E26.39099
G1 X40.407 Y96.330 E27.15006
G1 X40.407 Y97.262 E27.17614
G1 X59.593 Y78.077 E27.93521
G1 X59.593 Y79.009 E27.96129
G1 X40.407 Y98.194 E28.72036
G1 X40.407 Y99.126 E28.74644
G1 X59.593 Y79.941 E29.50551
G1 X59.593 Y80.873 E29.53159
G1 X40.407 Y100.059 E30.29066
G1 X40.407 Y100.991 E30.31675
G1 X59.593 Y81.806 E31.07582
G1 X59.593 Y82.738 E31.10190
G1 X40.407 Y101.923 E31.86097
G1 X40.407 Y102.855 E31.88705
G1 X59.593 Y83.670 E32.64612
G1 X59.593 Y84.602 E32.67220
G1 X40.407 Y103.788 E33.43127
G1 X40.407 Y104.720 E33.45735
G1 X59.593 Y85.535 E34.21642
G1 X59.593 Y86.467 E34.24250
G1 X40.407 Y105.652 E35.00157
G1 X40.407 Y106.584 E35.02765
G1 X59.593 Y87.399 E35.78672
G1 X59.593 Y88.331 E35.81281
G1 X40.407 Y107.517 E36.57188
G1 X40.407 Y108.449 E36.59796
G1 X59.593 Y89.264 E37.35703
G1 X59.593 Y90.196 E37.38311
G1 X40.407 Y109.381 E38.14218
G1 X40.407 Y110.313 E38.16826
G1 X59.593 Y91.128 E38.92733
G1 X59.593 Y92.060 E38.95341
G1 X40.630 Y111.023 E39.70366
G1 X41.563 Y111.023 E39.72974
G1 X59.593 Y92.993 E40.44311
G1 X59.593 Y93.925 E40.46919
G1 X42.495 Y111.023 E41.14567
G1 X43.427 Y111.023 E41.17175
G1 X59.593 Y94.857 E41.81135
G1 X59.593 Y95.789 E41.83743
G1 X44.359 Y111.023 E42.44015
G1 X45.291 Y111.023 E42.46623
G1 X59.593 Y96.721 E43.03206
G1 X59.593 Y97.654 E43.05814
G1 X46.224 Y111.023 E43.58709
G1 X47.156 Y111.023 E43.61317
G1 X59.593 Y98.586 E44.10523
G1 X59.593 Y99.518 E44.13131
G1 X48.088 Y111.023 E44.58649
G1 X49.020 Y111.023 E44.61257
G1 X59.593 Y100.450 E45.03086
G1 X59.593 Y101.383 E45.05694
G1 X49.953 Y111.023 E45.43835
G1 X50.885 Y111.023 E45.46444
G1 X59.593 Y102.315 E45.80896
G1 X59.593 Y103.247 E45.83504
G1 X51.817 Y111.023 E46.14268
G1 X52.749 Y111.023 E46.16877
G1 X59.593 Y104.179 E46.43952
G1 X59.593 Y105.112 E46.46560
G1 X53.682 Y111.023 E46.69948
G1 X54.614 Y111.023 E46.72556
G1 X59.593 Y106.044 E46.92255
G1 X59.593 Y106.976 E46.94863
G1 X55.546 Y111.023 E47.10873
G1 X56.478 Y111.023 E47.13482
G1 X59.593 Y107.908 E47.25804
G1 X59.593 Y108.840 E47.28412
G1 X57.410 Y111.023 E47.37046
G1 X58.343 Y111.023 E47.39654
G1 X59.593 Y109.773 E47.44599
G1 X59.593 Y110.705 E47.47207
G1 X59.275 Y111.023 E47.48464
G1 E45.48464 F600.00000
G92 E0
G1 Z1.150 F1800.000
G1 X40.020 Y68.590 F1800.000
G1 Z0.950 F1800.000
