; generated by Slic3r 1.2.6 on 2015-02-24 at 18:31:05

; external perimeters extrusion width = 0.50mm
; perimeters extrusion width = 0.72mm
; infill extrusion width = 0.72mm
; solid infill extrusion width = 0.72mm
; top infill extrusion width = 0.72mm

M107
M190 S110 ; set bed temperature
M104 S230 ; set temperature
G28 ; home all axes
G1 Z1 F100 ; lift nozzle
M203 X4000 Y4000 Z20 ; set feedrate limits
M109 S230 ; wait for temperature to be reached
G21 ; set units to millimeters
G90 ; use absolute coordinates
M82 ; use absolute distances for extrusion
G92 E0
G1 E-2.00000 F600.00000
G92 E0
G1 Z0.500 F1800.000
G1 X21.603 Y76.449 F1800.000
G1 Z0.350 F1800.000
G1 E2.00000 F600.00000
G1 X23.330 Y76.240 E2.05382 F1800.000
G1 X76.670 Y76.240 E3.70423
G1 X79.037 Y76.637 E3.77849
G1 X81.144 Y77.786 E3.85275 F1800.000
G1 X82.761 Y79.559 E3.92701
G1 X83.711 Y81.763 E4.00126
G1 X83.920 Y83.490 E4.05509
G1 X83.920 Y116.510 E5.07677
G1 X83.523 Y118.877 E5.15103
G1 X82.374 Y120.984 E5.22528
G1 X80.601 Y122.601 E5.29954
G1 X78.397 Y123.551 E5.37380
G1 X76.670 Y123.760 E5.42762
G1 X23.330 Y123.760 E7.07803
G1 X20.963 Y123.363 E7.15229
G1 X18.856 Y122.214 E7.22655
G1 X17.239 Y120.441 E7.30081
G1 X16.289 Y118.237 E7.37506
G1 X16.080 Y116.510 E7.42889
G1 X16.080 Y83.490 E8.45057
G1 X16.477 Y81.123 E8.52483
G1 X17.626 Y79.016 E8.59908
G1 X19.399 Y77.399 E8.67334
G1 X21.534 Y76.479 E8.74528
G1 X21.838 Y77.086 F1800.000
G1 X22.150 Y76.971 E8.75558 F1800.000
G1 X23.330 Y76.865 E8.79223
G1 X76.670 Y76.865 E10.44264
G1 X78.929 Y77.262 E10.51360
G1 X80.917 Y78.405 E10.58457 F1800.000
G1 X82.396 Y80.158 E10.65553
G1 X83.189 Y82.310 E10.72649
G1 X83.295 Y83.490 E10.76314
G1 X83.295 Y116.510 E11.78482
G1 X82.898 Y118.769 E11.85579
G1 X81.755 Y120.757 E11.92675
G1 X80.002 Y122.236 E11.99771
G1 X77.850 Y123.029 E12.06867
G1 X76.670 Y123.135 E12.10532
G1 X23.330 Y123.135 E13.75573
G1 X21.071 Y122.738 E13.82670
G1 X19.083 Y121.595 E13.89766
G1 X17.604 Y119.842 E13.96862
G1 X16.811 Y117.690 E14.03958
G1 X16.705 Y116.510 E14.07623
G1 X16.705 Y83.490 E15.09792
G1 X17.102 Y81.231 E15.16888
G1 X18.245 Y79.243 E15.23984
G1 X19.998 Y77.764 E15.31080
G1 X21.767 Y77.112 E15.36914
G1 E13.36914 F600.00000
G92 E0
G1 Z0.850 F1800.000
G1 X24.425 Y110.335 F1800.000
G1 Z0.350 F1800.000
G1 E2.00000 F600.00000
G1 X24.425 Y103.460 E2.21272 F1800.000
G1 X75.575 Y103.460 E3.79537
G1 X75.575 Y110.335 E4.00809
G1 X24.500 Y110.335 E5.58842
G1 X23.925 Y110.335 F1800.000
G1 X24.425 Y91.460 F1800.000
G1 X24.425 Y84.585 E5.80114 F1800.000
G1 X75.575 Y84.585 E7.38379
G1 X75.575 Y91.460 E7.59651
G1 X24.500 Y91.460 E9.17684
G1 X23.925 Y91.460 F1800.000
G1 X24.930 Y92.710 F1800.000
G1 X75.070 Y92.710 E10.72825 F1800.000
G1 X75.070 Y102.210 E11.02221
G1 X24.930 Y102.210 E12.57362
G1 X24.930 Y92.785 E12.86525
G1 X24.305 Y92.085 F1800.000
G1 X75.695 Y92.085 E14.45533 F1800.000
G1 X75.695 Y102.835 E14.78796
G1 X24.305 Y102.835 E16.37804
G1 X24.305 Y92.160 E16.70835
G1 E14.70835 F600.00000
G92 E0
G1 Z0.850 F1800.000
G1 X75.105 Y114.945 F1800.000
G1 Z0.350 F1800.000
G1 E2.00000 F600.00000
G1 X75.105 Y110.960 E2.12330 F1800.000
G1 X75.695 Y110.960 E2.14156
G1 X75.695 Y115.535 E2.28313
G1 X24.305 Y115.535 E3.87321
G1 X24.305 Y114.945 E3.89147
G1 X75.030 Y114.945 E5.46097
G1 X74.480 Y114.320 F1800.000
G1 X74.480 Y111.080 E5.56122 F1800.000
G1 X23.680 Y111.080 E7.13304
G1 X23.680 Y83.840 E7.97588
G1 X76.320 Y83.840 E9.60463
G1 X76.320 Y116.160 E10.60465
G1 X23.680 Y116.160 E12.23340
G1 X23.680 Y114.320 E12.29034
G1 X74.405 Y114.320 E13.85983
G1 X74.980 Y114.320 F1800.000
G1 E11.85983 F600.00000
G92 E0
G1 Z0.850 F1800.000
G1 X74.703 Y93.382 F1800.000
G1 Z0.350 F1800.000
G1 E2.00000 F600.00000
G1 X74.398 Y93.077 E2.01338 F1800.000
G1 X73.512 Y93.077 E2.04084
G1 X74.703 Y94.268 E2.09305
G1 X74.703 Y95.153 E2.12050
G1 X72.627 Y93.077 E2.21154
G1 X71.741 Y93.077 E2.23900
G1 X74.703 Y96.039 E2.36887
G1 X74.703 Y96.924 E2.39633
G1 X70.856 Y93.077 E2.56503
G1 X69.970 Y93.077 E2.59249
G1 X74.703 Y97.810 E2.80002
G1 X74.703 Y98.696 E2.82747
G1 X69.084 Y93.077 E3.07384
G1 X68.199 Y93.077 E3.10129
G1 X74.703 Y99.581 E3.38648
G1 X74.703 Y100.467 E3.41394
G1 X67.313 Y93.077 E3.73796
G1 X66.428 Y93.077 E3.76542
G1 X74.703 Y101.352 E4.12827
G1 X74.308 Y101.843 E4.14780
G1 X65.542 Y93.077 E4.53217
G1 X64.657 Y93.077 E4.55963
G1 X73.422 Y101.843 E4.94400
G1 X72.537 Y101.843 E4.97145
G1 X63.771 Y93.077 E5.35582
G1 X62.886 Y93.077 E5.38328
G1 X71.651 Y101.843 E5.76765
G1 X70.766 Y101.843 E5.79510
G1 X62.000 Y93.077 E6.17947
G1 X61.114 Y93.077 E6.20693
G1 X69.880 Y101.843 E6.59130
G1 X68.995 Y101.843 E6.61875
G1 X60.229 Y93.077 E7.00312
G1 X59.343 Y93.077 E7.03058
G1 X68.109 Y101.843 E7.41495
G1 X67.224 Y101.843 E7.44240
G1 X58.458 Y93.077 E7.82677
G1 X57.572 Y93.077 E7.85423
G1 X66.338 Y101.843 E8.23860
G1 X65.452 Y101.843 E8.26605
G1 X56.687 Y93.077 E8.65042
G1 X55.801 Y93.077 E8.67788
G1 X64.567 Y101.843 E9.06225
G1 X63.681 Y101.843 E9.08970
G1 X54.915 Y93.077 E9.47407
G1 X54.030 Y93.077 E9.50153
G1 X62.796 Y101.843 E9.88590
G1 X61.910 Y101.843 E9.91335
G1 X53.144 Y93.077 E10.29772
G1 X52.259 Y93.077 E10.32518
G1 X61.025 Y101.843 E10.70955
G1 X60.139 Y101.843 E10.73700
G1 X51.373 Y93.077 E11.12137
G1 X50.488 Y93.077 E11.14883
G1 X59.253 Y101.843 E11.53320
G1 X58.368 Y101.843 E11.56065
G1 X49.602 Y93.077 E11.94502
G1 X48.717 Y93.077 E11.97248
G1 X57.482 Y101.843 E12.35684
G1 X56.597 Y101.843 E12.38430
G1 X47.831 Y93.077 E12.76867
G1 X46.945 Y93.077 E12.79613
G1 X55.711 Y101.843 E13.18049
G1 X54.826 Y101.843 E13.20795
G1 X46.060 Y93.077 E13.59232
G1 X45.174 Y93.077 E13.61978
G1 X53.940 Y101.843 E14.00414
G1 X53.055 Y101.843 E14.03160
G1 X44.289 Y93.077 E14.41597
G1 X43.403 Y93.077 E14.44343
G1 X52.169 Y101.843 E14.82779
G1 X51.283 Y101.843 E14.85525
G1 X42.518 Y93.077 E15.23962
G1 X41.632 Y93.077 E15.26708
G1 X50.398 Y101.843 E15.65144
G1 X49.512 Y101.843 E15.67890
G1 X40.746 Y93.077 E16.06327
G1 X39.861 Y93.077 E16.09073
G1 X48.627 Y101.843 E16.47509
G1 X47.741 Y101.843 E16.50255
G1 X38.975 Y93.077 E16.88692
G1 X38.090 Y93.077 E16.91438
G1 X46.856 Y101.843 E17.29874
G1 X45.970 Y101.843 E17.32620
G1 X37.204 Y93.077 E17.71057
G1 X36.319 Y93.077 E17.73803
G1 X45.085 Y101.843 E18.12239
G1 X44.199 Y101.843 E18.14985
G1 X35.433 Y93.077 E18.53422
G1 X34.548 Y93.077 E18.56168
G1 X43.313 Y101.843 E18.94604
G1 X42.428 Y101.843 E18.97350
G1 X33.662 Y93.077 E19.35787
G1 X32.776 Y93.077 E19.38533
G1 X41.542 Y101.843 E19.76969
G1 X40.657 Y101.843 E19.79715
G1 X31.891 Y93.077 E20.18152
G1 X31.005 Y93.077 E20.20898
G1 X39.771 Y101.843 E20.59334
G1 X38.886 Y101.843 E20.62080
G1 X30.120 Y93.077 E21.00517
G1 X29.234 Y93.077 E21.03263
G1 X38.000 Y101.843 E21.41699
G1 X37.114 Y101.843 E21.44445
G1 X28.349 Y93.077 E21.82882
G1 X27.463 Y93.077 E21.85628
G1 X36.229 Y101.843 E22.24064
G1 X35.343 Y101.843 E22.26810
G1 X26.578 Y93.077 E22.65247
G1 X25.692 Y93.077 E22.67993
G1 X34.458 Y101.843 E23.06429
G1 X33.572 Y101.843 E23.09175
G1 X25.297 Y93.568 E23.45460
G1 X25.297 Y94.453 E23.48206
G1 X32.687 Y101.843 E23.80608
G1 X31.801 Y101.843 E23.83354
G1 X25.297 Y95.339 E24.11873
G1 X25.297 Y96.224 E24.14618
G1 X30.916 Y101.843 E24.39254
G1 X30.030 Y101.843 E24.42000
G1 X25.297 Y97.110 E24.62753
G1 X25.297 Y97.996 E24.65499
G1 X29.144 Y101.843 E24.82369
G1 X28.259 Y101.843 E24.85115
G1 X25.297 Y98.881 E24.98101
G1 X25.297 Y99.767 E25.00847
G1 X27.373 Y101.843 E25.09951
G1 X26.488 Y101.843 E25.12697
G1 X25.297 Y100.652 E25.17918
G1 X25.297 Y101.538 E25.20663
G1 X25.602 Y101.843 E25.22001
G1 E23.22001 F600.00000
G92 E0
G1 Z0.850 F1800.000
G1 X75.150 Y109.910 F1800.000
G1 Z0.650 F1800.000
G1 E2.00000 F600.00000
G1 X24.850 Y109.910 E2.92996 F1800.000
G1 X24.850 Y103.560 E3.04736
G1 X75.150 Y103.560 E3.97732
G1 X75.150 Y109.835 E4.09333
G1 X75.150 Y110.410 F1800.000
G1 E2.09333 F600.00000
G92 E0
G1 Z1.150 F1800.000
G1 X75.150 Y91.360 F1800.000
G1 Z0.650 F1800.000
G1 E2.00000 F600.00000
G1 X24.850 Y91.360 E2.92996 F1800.000
G1 X24.850 Y85.010 E3.04736
G1 X75.150 Y85.010 E3.97732
G1 X75.150 Y91.285 E4.09333
G1 X75.150 Y91.860 F1800.000
G1 X75.220 Y92.560 F1800.000
G1 X75.220 Y102.360 E4.36558 F3600.000
G1 X24.780 Y102.360 E5.76672
G1 X24.780 Y92.560 E6.03896
G1 X75.145 Y92.560 E7.43802
G1 X75.875 Y91.905 F1800.000
G1 X75.875 Y103.015 E7.74662 F3600.000
G1 X24.125 Y103.015 E9.18412
G1 X24.125 Y91.905 E9.49273
G1 X75.800 Y91.905 E10.92814
G1 E8.92814 F600.00000
G92 E0
G1 Z1.150 F1800.000
G1 X74.925 Y114.765 F1800.000
G1 Z0.650 F1800.000
G1 E2.00000 F600.00000
G1 X74.925 Y110.455 E2.11972 F3600.000
G1 X75.875 Y110.455 E2.14611
G1 X75.875 Y115.715 E2.29222
G1 X24.125 Y115.715 E3.72971
G1 X24.125 Y114.765 E3.75610
G1 X74.850 Y114.765 E5.16513
G1 X74.380 Y114.220 F1800.000
G1 X74.380 Y111.180 E5.22133 F1800.000
G1 X23.580 Y111.180 E6.16053
G1 X23.580 Y83.740 E6.66785
G1 X76.420 Y83.740 E7.64477
G1 X76.420 Y116.260 E8.24601
G1 X23.580 Y116.260 E9.22293
G1 X23.580 Y114.220 E9.26065
G1 X74.305 Y114.220 E10.19846
G1 X74.880 Y114.220 F1800.000
G1 X74.598 Y110.545 F1800.000
G1 X24.523 Y110.545 E10.82554 F1200.000
G1 X24.268 Y110.492 E10.82880
G1 X24.215 Y110.237 E10.83206
G1 X24.215 Y103.342 E10.91840
G1 X25.485 Y92.947 F1800.000
G1 X25.167 Y93.265 E10.93103 F1200.000
G1 X25.167 Y94.201 E10.95734
G1 X26.421 Y92.947 E11.00717
G1 X27.358 Y92.947 E11.03349
G1 X25.167 Y95.138 E11.12054
G1 X25.167 Y96.074 E11.14685
G1 X28.294 Y92.947 E11.27111
G1 X29.230 Y92.947 E11.29742
G1 X25.167 Y97.011 E11.45890
G1 X25.167 Y97.947 E11.48521
G1 X30.167 Y92.947 E11.68389
G1 X31.103 Y92.947 E11.71021
G1 X25.167 Y98.883 E11.94611
G1 X25.167 Y99.820 E11.97242
G1 X32.040 Y92.947 E12.24553
G1 X32.976 Y92.947 E12.27184
G1 X25.167 Y100.756 E12.58216
G1 X25.167 Y101.692 E12.60848
G1 X33.912 Y92.947 E12.95601
G1 X34.849 Y92.947 E12.98233
G1 X25.823 Y101.973 E13.34100
G1 X26.760 Y101.973 E13.36731
G1 X35.785 Y92.947 E13.72599
G1 X36.721 Y92.947 E13.75230
G1 X27.696 Y101.973 E14.11097
G1 X28.633 Y101.973 E14.13729
G1 X37.658 Y92.947 E14.49596
G1 X38.594 Y92.947 E14.52227
G1 X29.569 Y101.973 E14.88095
G1 X30.505 Y101.973 E14.90726
G1 X39.531 Y92.947 E15.26593
G1 X40.467 Y92.947 E15.29225
G1 X31.442 Y101.973 E15.65092
G1 X32.378 Y101.973 E15.67723
G1 X41.403 Y92.947 E16.03591
G1 X42.340 Y92.947 E16.06222
G1 X33.314 Y101.973 E16.42089
G1 X34.251 Y101.973 E16.44720
G1 X43.276 Y92.947 E16.80588
G1 X44.212 Y92.947 E16.83219
G1 X35.187 Y101.973 E17.19086
G1 X36.124 Y101.973 E17.21718
G1 X45.149 Y92.947 E17.57585
G1 X46.085 Y92.947 E17.60216
G1 X37.060 Y101.973 E17.96084
G1 X37.996 Y101.973 E17.98715
G1 X47.022 Y92.947 E18.34582
G1 X47.958 Y92.947 E18.37214
G1 X38.933 Y101.973 E18.73081
G1 X39.869 Y101.973 E18.75712
G1 X48.894 Y92.947 E19.11580
G1 X49.831 Y92.947 E19.14211
G1 X40.805 Y101.973 E19.50078
G1 X41.742 Y101.973 E19.52710
G1 X50.767 Y92.947 E19.88577
G1 X51.703 Y92.947 E19.91208
G1 X42.678 Y101.973 E20.27076
G1 X43.615 Y101.973 E20.29707
G1 X52.640 Y92.947 E20.65574
G1 X53.576 Y92.947 E20.68206
G1 X44.551 Y101.973 E21.04073
G1 X45.487 Y101.973 E21.06704
G1 X54.513 Y92.947 E21.42572
G1 X55.449 Y92.947 E21.45203
G1 X46.424 Y101.973 E21.81070
G1 X47.360 Y101.973 E21.83701
G1 X56.385 Y92.947 E22.19569
G1 X57.322 Y92.947 E22.22200
G1 X48.296 Y101.973 E22.58067
G1 X49.233 Y101.973 E22.60699
G1 X58.258 Y92.947 E22.96566
G1 X59.194 Y92.947 E22.99197
G1 X50.169 Y101.973 E23.35065
G1 X51.106 Y101.973 E23.37696
G1 X60.131 Y92.947 E23.73563
G1 X61.067 Y92.947 E23.76195
G1 X52.042 Y101.973 E24.12062
G1 X52.978 Y101.973 E24.14693
G1 X62.004 Y92.947 E24.50561
G1 X62.940 Y92.947 E24.53192
G1 X53.915 Y101.973 E24.89059
G1 X54.851 Y101.973 E24.91691
G1 X63.876 Y92.947 E25.27558
G1 X64.813 Y92.947 E25.30189
G1 X55.787 Y101.973 E25.66057
G1 X56.724 Y101.973 E25.68688
G1 X65.749 Y92.947 E26.04555
G1 X66.685 Y92.947 E26.07187
G1 X57.660 Y101.973 E26.43054
G1 X58.597 Y101.973 E26.45685
G1 X67.622 Y92.947 E26.81553
G1 X68.558 Y92.947 E26.84184
G1 X59.533 Y101.973 E27.20051
G1 X60.469 Y101.973 E27.22683
G1 X69.495 Y92.947 E27.58550
G1 X70.431 Y92.947 E27.61181
G1 X61.406 Y101.973 E27.97048
G1 X62.342 Y101.973 E27.99680
G1 X71.367 Y92.947 E28.35547
G1 X72.304 Y92.947 E28.38178
G1 X63.278 Y101.973 E28.74046
G1 X64.215 Y101.973 E28.76677
G1 X73.240 Y92.947 E29.12544
G1 X74.176 Y92.947 E29.15176
G1 X65.151 Y101.973 E29.51043
G1 X66.088 Y101.973 E29.53674
G1 X74.833 Y93.228 E29.88428
G1 X74.833 Y94.164 E29.91059
G1 X67.024 Y101.973 E30.22092
G1 X67.960 Y101.973 E30.24723
G1 X74.833 Y95.100 E30.52034
G1 X74.833 Y96.037 E30.54666
G1 X68.897 Y101.973 E30.78256
G1 X69.833 Y101.973 E30.80887
G1 X74.833 Y96.973 E31.00756
G1 X74.833 Y97.909 E31.03387
G1 X70.769 Y101.973 E31.19534
G1 X71.706 Y101.973 E31.22166
G1 X74.833 Y98.846 E31.34592
G1 X74.833 Y99.782 E31.37223
G1 X72.642 Y101.973 E31.45928
G1 X73.579 Y101.973 E31.48560
G1 X74.833 Y100.719 E31.53543
G1 X74.833 Y101.655 E31.56175
G1 X74.515 Y101.973 E31.57437
G1 X75.785 Y103.342 F1800.000
G1 X75.785 Y110.128 E31.65935 F1200.000
G1 X75.785 Y91.578 F1800.000
G1 X75.785 Y84.683 E31.74569 F1200.000
G1 X75.732 Y84.428 E31.74895
G1 X75.477 Y84.375 E31.75221
G1 X24.523 Y84.375 E32.39030
G1 X24.268 Y84.428 E32.39356
G1 X24.215 Y84.683 E32.39682
G1 X24.215 Y91.578 E32.48316
G1 E30.48316 F600.00000
G92 E0
G1 Z1.150 F1800.000
G1 X75.395 Y110.155 F1800.000
G1 Z0.950 F1800.000
G1 E2.00000 F600.00000
G1 X24.605 Y110.155 E3.41084 F3600.000
G1 X24.605 Y103.015 E3.60917
G1 X75.395 Y103.015 E5.02001
G1 X75.395 Y110.080 E5.21626
G1 X74.850 Y109.610 F1800.000
G1 X25.150 Y109.610 E6.13513 F1800.000
G1 X25.150 Y103.560 E6.24698
G1 X74.850 Y103.560 E7.16585
G1 X74.850 Y109.535 E7.27632
G1 X74.850 Y110.110 F1800.000
G1 E5.27632 F600.00000
G92 E0
G1 Z1.450 F1800.000
G1 X75.395 Y91.905 F1800.000
G1 Z0.950 F1800.000
G1 E2.00000 F600.00000
G1 X24.605 Y91.905 E3.41084 F3600.000
G1 X24.605 Y84.765 E3.60917
G1 X75.395 Y84.765 E5.02001
G1 X75.395 Y91.830 E5.21626
G1 X74.850 Y91.360 F1800.000
G1 X25.150 Y91.360 E6.13513 F1800.000
G1 X25.150 Y85.310 E6.24698
G1 X74.850 Y85.310 E7.16585
G1 X74.850 Y91.285 E7.27632
G1 X74.850 Y91.860 F1800.000
G1 X75.220 Y92.560 F1800.000
G1 X75.220 Y102.360 E7.54856 F3600.000
G1 X24.780 Y102.360 E8.94970
G1 X24.780 Y92.560 E9.22195
G1 X75.145 Y92.560 E10.62100
G1 X74.925 Y110.635 F1800.000
G1 X24.125 Y110.635 E12.03211 F3600.000
G1 X24.125 Y84.285 E12.76405
G1 X75.875 Y84.285 E14.20155
G1 X75.875 Y115.715 E15.07460
G1 X24.125 Y115.715 E16.51210
G1 X24.125 Y114.765 E16.53848
G1 X74.925 Y114.765 E17.94959
G1 X74.925 Y110.710 E18.06224
G1 X74.380 Y111.180 F1800.000
G1 X23.580 Y111.180 E19.00144 F1800.000
G1 X23.580 Y83.740 E19.50876
G1 X76.420 Y83.740 E20.48568
G1 X76.420 Y116.260 E21.08692
G1 X23.580 Y116.260 E22.06384
G1 X23.580 Y114.220 E22.10155
G1 X74.380 Y114.220 E23.04076
G1 X74.380 Y111.255 E23.09557
G1 X74.380 Y110.680 F1800.000
G1 E21.09557 F600.00000
G92 E0
G1 Z1.450 F1800.000
G1 X74.833 Y93.265 F1800.000
G1 Z0.950 F1800.000
G1 E2.00000 F600.00000
G1 X74.515 Y92.947 E2.01262 F1200.000
G1 X73.579 Y92.947 E2.03894
G1 X74.833 Y94.201 E2.08878
G1 X74.833 Y95.138 E2.11509
G1 X72.642 Y92.947 E2.20214
G1 X71.706 Y92.947 E2.22845
G1 X74.833 Y96.074 E2.35271
G1 X74.833 Y97.011 E2.37903
G1 X70.769 Y92.947 E2.54050
G1 X69.833 Y92.947 E2.56682
G1 X74.833 Y97.947 E2.76550
G1 X74.833 Y98.883 E2.79182
G1 X68.897 Y92.947 E3.02772
G1 X67.960 Y92.947 E3.05403
G1 X74.833 Y99.820 E3.32714
G1 X74.833 Y100.756 E3.35345
G1 X67.024 Y92.947 E3.66378
G1 X66.088 Y92.947 E3.69009
G1 X74.833 Y101.692 E4.03763
G1 X74.176 Y101.973 E4.05768
G1 X65.151 Y92.947 E4.41635
G1 X64.215 Y92.947 E4.44266
G1 X73.240 Y101.973 E4.80134
G1 X72.304 Y101.973 E4.82765
G1 X63.278 Y92.947 E5.18632
G1 X62.342 Y92.947 E5.21264
G1 X71.367 Y101.973 E5.57131
G1 X70.431 Y101.973 E5.59762
G1 X61.406 Y92.947 E5.95630
G1 X60.469 Y92.947 E5.98261
G1 X69.495 Y101.973 E6.34128
G1 X68.558 Y101.973 E6.36760
G1 X59.533 Y92.947 E6.72627
G1 X58.597 Y92.947 E6.75258
G1 X67.622 Y101.973 E7.11126
G1 X66.685 Y101.973 E7.13757
G1 X57.660 Y92.947 E7.49624
G1 X56.724 Y92.947 E7.52256
