; generated by Slic3r 1.2.6 on 2015-03-30 at 13:13:12

; external perimeters extrusion width = 0.50mm
; perimeters extrusion width = 0.72mm
; infill extrusion width = 0.72mm
; solid infill extrusion width = 0.72mm
; top infill extrusion width = 0.72mm
; support material extrusion width = 0.50mm

M107
M190 S110 ; set bed temperature
M104 S230 ; set temperature
G28 ; home all axes
G1 Z1 F100 ; lift nozzle
M203 X4000 Y4000 Z20 ; set feedrate limits
M109 S230 ; wait for temperature to be reached
G21 ; set units to millimeters
G90 ; use absolute coordinates
M82 ; use absolute distances for extrusion
G92 E0
G1 E-2.00000 F600.00000
G92 E0
G1 Z0.500 F3600.000
G1 X20.333 Y57.559 F3600.000
G1 Z0.350 F3600.000
G1 E2.00000 F600.00000
G1 X22.060 Y57.350 E2.05382 F1800.000
G1 X77.940 Y57.350 E3.78282
G1 X80.307 Y57.747 E3.85708
G1 X82.414 Y58.896 E3.93134 F1800.000
G1 X84.031 Y60.669 E4.00560
G1 X84.981 Y62.873 E4.07985
G1 X85.190 Y64.600 E4.13368
G1 X85.190 Y115.400 E5.70550
G1 X84.793 Y117.767 E5.77975
G1 X83.644 Y119.874 E5.85401
G1 X81.871 Y121.491 E5.92827
G1 X79.667 Y122.441 E6.00253
G1 X77.940 Y122.650 E6.05635
G1 X22.060 Y122.650 E7.78535
G1 X19.693 Y122.253 E7.85961
G1 X17.586 Y121.104 E7.93387
G1 X15.969 Y119.331 E8.00812
G1 X15.019 Y117.127 E8.08238
G1 X14.810 Y115.400 E8.13620
G1 X14.810 Y64.600 E9.70802
G1 X15.207 Y62.233 E9.78228
G1 X16.356 Y60.126 E9.85654
G1 X18.129 Y58.509 E9.93080
G1 X20.264 Y57.589 E10.00273
G1 X20.568 Y58.196 F3600.000
G1 X20.880 Y58.081 E10.01304 F1800.000
G1 X22.060 Y57.975 E10.04969
G1 X77.940 Y57.975 E11.77869
G1 X80.199 Y58.372 E11.84965
G1 X82.187 Y59.515 E11.92061 F1800.000
G1 X83.666 Y61.268 E11.99157
G1 X84.459 Y63.420 E12.06254
G1 X84.565 Y64.600 E12.09919
G1 X84.565 Y115.400 E13.67101
G1 X84.168 Y117.659 E13.74197
G1 X83.025 Y119.647 E13.81293
G1 X81.272 Y121.126 E13.88389
G1 X79.120 Y121.919 E13.95486
G1 X77.940 Y122.025 E13.99151
G1 X22.060 Y122.025 E15.72051
G1 X19.801 Y121.628 E15.79147
G1 X17.813 Y120.485 E15.86243
G1 X16.334 Y118.732 E15.93339
G1 X15.541 Y116.580 E16.00436
G1 X15.435 Y115.400 E16.04101
G1 X15.435 Y64.600 E17.61283
G1 X15.832 Y62.341 E17.68379
G1 X16.975 Y60.353 E17.75475
G1 X18.728 Y58.874 E17.82571
G1 X20.497 Y58.222 E17.88405
G1 E15.88405 F600.00000
G92 E0
G1 Z0.850 F3600.000
G1 X23.660 Y113.800 F3600.000
G1 Z0.350 F3600.000
G1 E2.00000 F600.00000
G1 X23.660 Y66.200 E3.47282 F1800.000
G1 X76.340 Y66.200 E5.10282
G1 X76.340 Y113.800 E6.57564
G1 X23.735 Y113.800 E8.20332
G1 X23.035 Y114.425 F3600.000
G1 X23.035 Y65.575 E9.71481 F1800.000
G1 X76.965 Y65.575 E11.38349
G1 X76.965 Y114.425 E12.89498
G1 X23.110 Y114.425 E14.56133
G1 X22.410 Y115.050 F3600.000
G1 X22.410 Y64.950 E16.11149 F1800.000
G1 X77.590 Y64.950 E17.81883
G1 X77.590 Y115.050 E19.36899
G1 X22.485 Y115.050 E21.07401
G1 X22.660 Y114.617 F3600.000
G1 X24.332 Y113.433 F3600.000
G1 X24.027 Y113.128 E21.08737 F1800.000
G1 X24.027 Y112.243 E21.11478
G1 X25.217 Y113.433 E21.16690
G1 X26.102 Y113.433 E21.19430
G1 X24.027 Y111.358 E21.28517
G1 X24.027 Y110.474 E21.31258
G1 X26.986 Y113.433 E21.44220
G1 X27.871 Y113.433 E21.46961
G1 X24.027 Y109.589 E21.63799
G1 X24.027 Y108.704 E21.66539
G1 X28.756 Y113.433 E21.87253
G1 X29.640 Y113.433 E21.89994
G1 X24.027 Y107.820 E22.14583
G1 X24.027 Y106.935 E22.17323
G1 X30.525 Y113.433 E22.45788
G1 X31.410 Y113.433 E22.48528
G1 X24.027 Y106.050 E22.80868
G1 X24.027 Y105.166 E22.83609
G1 X32.294 Y113.433 E23.19824
G1 X33.179 Y113.433 E23.22565
G1 X24.027 Y104.281 E23.62656
G1 X24.027 Y103.396 E23.65396
G1 X34.064 Y113.433 E24.09363
G1 X34.949 Y113.433 E24.12103
G1 X24.027 Y102.511 E24.59945
G1 X24.027 Y101.627 E24.62686
G1 X35.833 Y113.433 E25.14403
G1 X36.718 Y113.433 E25.17144
G1 X24.027 Y100.742 E25.72737
G1 X24.027 Y99.857 E25.75477
G1 X37.603 Y113.433 E26.34946
G1 X38.487 Y113.433 E26.37686
G1 X24.027 Y98.973 E27.01030
G1 X24.027 Y98.088 E27.03771
G1 X39.372 Y113.433 E27.70990
G1 X40.257 Y113.433 E27.73730
G1 X24.027 Y97.203 E28.44825
G1 X24.027 Y96.319 E28.47566
G1 X41.141 Y113.433 E29.22536
G1 X42.026 Y113.433 E29.25277
G1 X24.027 Y95.434 E30.04123
G1 X24.027 Y94.549 E30.06863
G1 X42.911 Y113.433 E30.89584
G1 X43.795 Y113.433 E30.92325
G1 X24.027 Y93.664 E31.78922
G1 X24.027 Y92.780 E31.81662
G1 X44.680 Y113.433 E32.72135
G1 X45.565 Y113.433 E32.74875
G1 X24.027 Y91.895 E33.69223
G1 X24.027 Y91.010 E33.71963
G1 X46.450 Y113.433 E34.70187
G1 X47.334 Y113.433 E34.72927
G1 X24.027 Y90.126 E35.75026
G1 X24.027 Y89.241 E35.77766
G1 X48.219 Y113.433 E36.83740
G1 X49.104 Y113.433 E36.86481
G1 X24.027 Y88.356 E37.96331
G1 X24.027 Y87.472 E37.99071
G1 X49.988 Y113.433 E39.12796
G1 X50.873 Y113.433 E39.15537
G1 X24.027 Y86.587 E40.33137
G1 X24.027 Y85.702 E40.35878
G1 X51.758 Y113.433 E41.57354
G1 X52.642 Y113.433 E41.60095
G1 X24.027 Y84.818 E42.85446
G1 X24.027 Y83.933 E42.88187
G1 X53.527 Y113.433 E44.17414
G1 X54.412 Y113.433 E44.20154
G1 X24.027 Y83.048 E45.53257
G1 X24.027 Y82.163 E45.55997
G1 X55.297 Y113.433 E46.92975
G1 X56.181 Y113.433 E46.95716
G1 X24.027 Y81.279 E48.36570
G1 X24.027 Y80.394 E48.39310
G1 X57.066 Y113.433 E49.84039
G1 X57.951 Y113.433 E49.86779
G1 X24.027 Y79.509 E51.35384
G1 X24.027 Y78.625 E51.38124
G1 X58.835 Y113.433 E52.90605
G1 X59.720 Y113.433 E52.93345
G1 X24.027 Y77.740 E54.49700
G1 X24.027 Y76.855 E54.52441
G1 X60.605 Y113.433 E56.12672
G1 X61.489 Y113.433 E56.15412
G1 X24.027 Y75.971 E57.79519
G1 X24.027 Y75.086 E57.82259
G1 X62.374 Y113.433 E59.50241
G1 X63.259 Y113.433 E59.52982
G1 X24.027 Y74.201 E61.24839
G1 X24.027 Y73.316 E61.27580
G1 X64.144 Y113.433 E63.03312
G1 X65.028 Y113.433 E63.06053
G1 X24.027 Y72.432 E64.85661
G1 X24.027 Y71.547 E64.88402
G1 X65.913 Y113.433 E66.71886
G1 X66.798 Y113.433 E66.74626
G1 X24.027 Y70.662 E68.61985
G1 X24.027 Y69.778 E68.64726
G1 X67.682 Y113.433 E70.55961
G1 X68.567 Y113.433 E70.58701
G1 X24.027 Y68.893 E72.53812
G1 X24.027 Y68.008 E72.56552
G1 X69.452 Y113.433 E74.55538
G1 X70.336 Y113.433 E74.58278
G1 X24.027 Y67.124 E76.61140
G1 X24.355 Y66.567 E76.63141
G1 X71.221 Y113.433 E78.68440
G1 X72.106 Y113.433 E78.71180
G1 X25.240 Y66.567 E80.76479
G1 X26.125 Y66.567 E80.79220
G1 X72.991 Y113.433 E82.84519
G1 X73.875 Y113.433 E82.87259
G1 X27.009 Y66.567 E84.92558
G1 X27.894 Y66.567 E84.95298
G1 X74.760 Y113.433 E87.00597
G1 X75.645 Y113.433 E87.03338
G1 X28.779 Y66.567 E89.08637
G1 X29.663 Y66.567 E89.11377
G1 X75.973 Y112.876 E91.14239
G1 X75.973 Y111.992 E91.16979
G1 X30.548 Y66.567 E93.15965
G1 X31.433 Y66.567 E93.18706
G1 X75.973 Y111.107 E95.13816
G1 X75.973 Y110.222 E95.16557
G1 X32.318 Y66.567 E97.07792
G1 X33.202 Y66.567 E97.10532
G1 X75.973 Y109.338 E98.97892
G1 X75.973 Y108.453 E99.00632
G1 X34.087 Y66.567 E100.84117
G1 X34.972 Y66.567 E100.86857
G1 X75.973 Y107.568 E102.66466
G1 X75.973 Y106.684 E102.69206
G1 X35.856 Y66.567 E104.44939
G1 X36.741 Y66.567 E104.47680
G1 X75.973 Y105.799 E106.19537
G1 X75.973 Y104.914 E106.22278
G1 X37.626 Y66.567 E107.90260
G1 X38.510 Y66.567 E107.93001
G1 X75.973 Y104.030 E109.57107
G1 X75.973 Y103.145 E109.59848
G1 X39.395 Y66.567 E111.20079
G1 X40.280 Y66.567 E111.22819
G1 X75.973 Y102.260 E112.79175
G1 X75.973 Y101.375 E112.81916
G1 X41.165 Y66.567 E114.34396
G1 X42.049 Y66.567 E114.37136
G1 X75.973 Y100.491 E115.85741
G1 X75.973 Y99.606 E115.88482
G1 X42.934 Y66.567 E117.33211
G1 X43.819 Y66.567 E117.35951
G1 X75.973 Y98.721 E118.76805
G1 X75.973 Y97.837 E118.79546
G1 X44.703 Y66.567 E120.16524
G1 X45.588 Y66.567 E120.19265
G1 X75.973 Y96.952 E121.52368
G1 X75.973 Y96.067 E121.55108
G1 X46.473 Y66.567 E122.84335
G1 X47.357 Y66.567 E122.87076
G1 X75.973 Y95.183 E124.12428
G1 X75.973 Y94.298 E124.15168
G1 X48.242 Y66.567 E125.36645
G1 X49.127 Y66.567 E125.39385
G1 X75.973 Y93.413 E126.56986
G1 X75.973 Y92.528 E126.59726
G1 X50.012 Y66.567 E127.73452
G1 X50.896 Y66.567 E127.76192
G1 X75.973 Y91.644 E128.86042
G1 X75.973 Y90.759 E128.88783
G1 X51.781 Y66.567 E129.94757
G1 X52.666 Y66.567 E129.97498
G1 X75.973 Y89.874 E130.99597
G1 X75.973 Y88.990 E131.02337
G1 X53.550 Y66.567 E132.00561
G1 X54.435 Y66.567 E132.03301
G1 X75.973 Y88.105 E132.97649
G1 X75.973 Y87.220 E133.00390
G1 X55.320 Y66.567 E133.90863
G1 X56.204 Y66.567 E133.93603
G1 X75.973 Y86.336 E134.80200
G1 X75.973 Y85.451 E134.82940
G1 X57.089 Y66.567 E135.65662
G1 X57.974 Y66.567 E135.68403
G1 X75.973 Y84.566 E136.47249
G1 X75.973 Y83.681 E136.49989
G1 X58.859 Y66.567 E137.24960
G1 X59.743 Y66.567 E137.27700
G1 X75.973 Y82.797 E137.98796
G1 X75.973 Y81.912 E138.01536
G1 X60.628 Y66.567 E138.68756
G1 X61.513 Y66.567 E138.71496
G1 X75.973 Y81.027 E139.34840
G1 X75.973 Y80.143 E139.37581
G1 X62.397 Y66.567 E139.97050
G1 X63.282 Y66.567 E139.99790
G1 X75.973 Y79.258 E140.55383
G1 X75.973 Y78.373 E140.58124
G1 X64.167 Y66.567 E141.09841
G1 X65.051 Y66.567 E141.12582
G1 X75.973 Y77.489 E141.60424
G1 X75.973 Y76.604 E141.63165
G1 X65.936 Y66.567 E142.07132
G1 X66.821 Y66.567 E142.09872
G1 X75.973 Y75.719 E142.49963
G1 X75.973 Y74.834 E142.52704
G1 X67.706 Y66.567 E142.88920
G1 X68.590 Y66.567 E142.91660
G1 X75.973 Y73.950 E143.24000
G1 X75.973 Y73.065 E143.26741
G1 X69.475 Y66.567 E143.55206
G1 X70.360 Y66.567 E143.57946
G1 X75.973 Y72.180 E143.82536
G1 X75.973 Y71.296 E143.85276
G1 X71.244 Y66.567 E144.05990
G1 X72.129 Y66.567 E144.08730
G1 X75.973 Y70.411 E144.25569
G1 X75.973 Y69.526 E144.28309
G1 X73.014 Y66.567 E144.41272
G1 X73.898 Y66.567 E144.44013
G1 X75.973 Y68.642 E144.53100
G1 X75.973 Y67.757 E144.55841
G1 X74.783 Y66.567 E144.61053
G1 X75.668 Y66.567 E144.63793
G1 X75.973 Y66.872 E144.65130
G1 E142.65130 F600.00000
G92 E0
G1 Z0.850 F3600.000
G1 X23.510 Y113.950 F3600.000
G1 Z0.650 F3600.000
G1 E2.00000 F600.00000
G1 X23.510 Y66.050 E3.33058 F3600.000
G1 X76.490 Y66.050 E4.80227
G1 X76.490 Y113.950 E6.13285
G1 X23.585 Y113.950 E7.60246
G1 X22.855 Y114.605 F3600.000
G1 X22.855 Y65.395 E8.96940 F3600.000
G1 X77.145 Y65.395 E10.47745
G1 X77.145 Y114.605 E11.84439
G1 X22.930 Y114.605 E13.35036
G1 X22.310 Y115.150 F3600.000
G1 X22.310 Y64.850 E14.28032 F1800.000
G1 X77.690 Y64.850 E15.30420
G1 X77.690 Y115.150 E16.23416
G1 X22.385 Y115.150 E17.25666
G1 X22.560 Y114.717 F3600.000
G1 X24.215 Y66.437 F3600.000
G1 X23.897 Y66.755 E17.26921 F2400.000
G1 X23.897 Y67.686 E17.29522
G1 X25.146 Y66.437 E17.34457
G1 X26.077 Y66.437 E17.37059
G1 X23.897 Y68.617 E17.45672
G1 X23.897 Y69.548 E17.48274
G1 X27.008 Y66.437 E17.60567
G1 X27.939 Y66.437 E17.63169
G1 X23.897 Y70.479 E17.79141
G1 X23.897 Y71.410 E17.81743
G1 X28.870 Y66.437 E18.01395
G1 X29.802 Y66.437 E18.03997
G1 X23.897 Y72.341 E18.27328
G1 X23.897 Y73.273 E18.29929
G1 X30.733 Y66.437 E18.56940
G1 X31.664 Y66.437 E18.59542
G1 X23.897 Y74.204 E18.90231
G1 X23.897 Y75.135 E18.92833
G1 X32.595 Y66.437 E19.27202
G1 X33.526 Y66.437 E19.29804
G1 X23.897 Y76.066 E19.67852
G1 X23.897 Y76.997 E19.70454
G1 X34.457 Y66.437 E20.12182
G1 X35.388 Y66.437 E20.14784
G1 X23.897 Y77.928 E20.60191
G1 X23.897 Y78.859 E20.62792
G1 X36.319 Y66.437 E21.11879
G1 X37.250 Y66.437 E21.14481
G1 X23.897 Y79.790 E21.67247
G1 X23.897 Y80.721 E21.69848
G1 X38.181 Y66.437 E22.26293
G1 X39.112 Y66.437 E22.28895
G1 X23.897 Y81.652 E22.89020
G1 X23.897 Y82.583 E22.91621
G1 X40.043 Y66.437 E23.55425
G1 X40.975 Y66.437 E23.58027
G1 X23.897 Y83.515 E24.25510
G1 X23.897 Y84.446 E24.28112
G1 X41.906 Y66.437 E24.99274
G1 X42.837 Y66.437 E25.01876
G1 X23.897 Y85.377 E25.76718
G1 X23.897 Y86.308 E25.79320
G1 X43.768 Y66.437 E26.57841
G1 X44.699 Y66.437 E26.60443
G1 X23.897 Y87.239 E27.42643
G1 X23.897 Y88.170 E27.45245
G1 X45.630 Y66.437 E28.31125
G1 X46.561 Y66.437 E28.33726
G1 X23.897 Y89.101 E29.23286
G1 X23.897 Y90.032 E29.25887
G1 X47.492 Y66.437 E30.19126
G1 X48.423 Y66.437 E30.21728
G1 X23.897 Y90.963 E31.18646
G1 X23.897 Y91.894 E31.21247
G1 X49.354 Y66.437 E32.21845
G1 X50.285 Y66.437 E32.24446
G1 X23.897 Y92.825 E33.28723
G1 X23.897 Y93.757 E33.31324
G1 X51.217 Y66.437 E34.39280
G1 X52.148 Y66.437 E34.41882
G1 X23.897 Y94.688 E35.53517
G1 X23.897 Y95.619 E35.56119
G1 X53.079 Y66.437 E36.71434
G1 X54.010 Y66.437 E36.74035
G1 X23.897 Y96.550 E37.93029
G1 X23.897 Y97.481 E37.95631
G1 X54.941 Y66.437 E39.18304
G1 X55.872 Y66.437 E39.20906
G1 X23.897 Y98.412 E40.47259
G1 X23.897 Y99.343 E40.49860
G1 X56.803 Y66.437 E41.79892
G1 X57.734 Y66.437 E41.82494
G1 X23.897 Y100.274 E43.16205
G1 X23.897 Y101.205 E43.18807
G1 X58.665 Y66.437 E44.56198
G1 X59.596 Y66.437 E44.58799
G1 X23.897 Y102.136 E45.99869
G1 X23.897 Y103.067 E46.02471
G1 X60.527 Y66.437 E47.47220
G1 X61.458 Y66.437 E47.49822
G1 X23.897 Y103.998 E48.98251
G1 X23.897 Y104.930 E49.00852
G1 X62.390 Y66.437 E50.52960
G1 X63.321 Y66.437 E50.55562
G1 X23.897 Y105.861 E52.11349
G1 X23.897 Y106.792 E52.13951
G1 X64.252 Y66.437 E53.73418
G1 X65.183 Y66.437 E53.76019
G1 X23.897 Y107.723 E55.39165
G1 X23.897 Y108.654 E55.41767
G1 X66.114 Y66.437 E57.08592
G1 X67.045 Y66.437 E57.11194
G1 X23.897 Y109.585 E58.81699
G1 X23.897 Y110.516 E58.84300
G1 X67.976 Y66.437 E60.58485
G1 X68.907 Y66.437 E60.61086
G1 X23.897 Y111.447 E62.38950
G1 X23.897 Y112.378 E62.41551
G1 X69.838 Y66.437 E64.23094
G1 X70.769 Y66.437 E64.25696
G1 X23.897 Y113.309 E66.10918
G1 X24.575 Y113.563 E66.12940
G1 X71.700 Y66.437 E67.99163
G1 X72.632 Y66.437 E68.01764
G1 X25.506 Y113.563 E69.87987
G1 X26.437 Y113.563 E69.90589
G1 X73.563 Y66.437 E71.76812
G1 X74.494 Y66.437 E71.79414
G1 X27.368 Y113.563 E73.65637
G1 X28.299 Y113.563 E73.68238
G1 X75.425 Y66.437 E75.54461
G1 X76.103 Y66.691 E75.56483
G1 X29.231 Y113.563 E77.41706
G1 X30.162 Y113.563 E77.44307
G1 X76.103 Y67.622 E79.25850
G1 X76.103 Y68.553 E79.28452
G1 X31.093 Y113.563 E81.06316
G1 X32.024 Y113.563 E81.08917
G1 X76.103 Y69.484 E82.83102
G1 X76.103 Y70.415 E82.85703
G1 X32.955 Y113.563 E84.56208
G1 X33.886 Y113.563 E84.58810
G1 X76.103 Y71.346 E86.25636
G1 X76.103 Y72.277 E86.28237
G1 X34.817 Y113.563 E87.91383
G1 X35.748 Y113.563 E87.93985
G1 X76.103 Y73.208 E89.53452
G1 X76.103 Y74.139 E89.56054
G1 X36.679 Y113.563 E91.11841
G1 X37.610 Y113.563 E91.14443
G1 X76.103 Y75.070 E92.66551
G1 X76.103 Y76.001 E92.69153
G1 X38.541 Y113.563 E94.17582
G1 X39.473 Y113.563 E94.20184
G1 X76.103 Y76.933 E95.64933
G1 X76.103 Y77.864 E95.67535
G1 X40.404 Y113.563 E97.08605
G1 X41.335 Y113.563 E97.11207
G1 X76.103 Y78.795 E98.48598
G1 X76.103 Y79.726 E98.51199
G1 X42.266 Y113.563 E99.84911
G1 X43.197 Y113.563 E99.87513
G1 X76.103 Y80.657 E101.17545
G1 X76.103 Y81.588 E101.20147
G1 X44.128 Y113.563 E102.46500
G1 X45.059 Y113.563 E102.49101
G1 X76.103 Y82.519 E103.71775
G1 X76.103 Y83.450 E103.74377
G1 X45.990 Y113.563 E104.93371
G1 X46.921 Y113.563 E104.95972
G1 X76.103 Y84.381 E106.11287
G1 X76.103 Y85.312 E106.13889
G1 X47.852 Y113.563 E107.25525
G1 X48.783 Y113.563 E107.28126
G1 X76.103 Y86.243 E108.36082
G1 X76.103 Y87.175 E108.38684
G1 X49.714 Y113.563 E109.42961
G1 X50.646 Y113.563 E109.45563
G1 X76.103 Y88.106 E110.46160
G1 X76.103 Y89.037 E110.48762
G1 X51.577 Y113.563 E111.45680
G1 X52.508 Y113.563 E111.48282
G1 X76.103 Y89.968 E112.41521
G1 X76.103 Y90.899 E112.44122
G1 X53.439 Y113.563 E113.33682
G1 X54.370 Y113.563 E113.36284
G1 X76.103 Y91.830 E114.22164
G1 X76.103 Y92.761 E114.24765
G1 X55.301 Y113.563 E115.06966
G1 X56.232 Y113.563 E115.09568
G1 X76.103 Y93.692 E115.88089
G1 X76.103 Y94.623 E115.90691
G1 X57.163 Y113.563 E116.65533
G1 X58.094 Y113.563 E116.68135
G1 X76.103 Y95.554 E117.39298
G1 X76.103 Y96.485 E117.41900
G1 X59.025 Y113.563 E118.09383
G1 X59.956 Y113.563 E118.11985
G1 X76.103 Y97.416 E118.75789
G1 X76.103 Y98.348 E118.78391
G1 X60.888 Y113.563 E119.38515
G1 X61.819 Y113.563 E119.41117
G1 X76.103 Y99.279 E119.97563
G1 X76.103 Y100.210 E120.00164
G1 X62.750 Y113.563 E120.52930
G1 X63.681 Y113.563 E120.55532
G1 X76.103 Y101.141 E121.04619
G1 X76.103 Y102.072 E121.07220
G1 X64.612 Y113.563 E121.52628
G1 X65.543 Y113.563 E121.55230
G1 X76.103 Y103.003 E121.96958
G1 X76.103 Y103.934 E121.99559
G1 X66.474 Y113.563 E122.37608
G1 X67.405 Y113.563 E122.40210
G1 X76.103 Y104.865 E122.74579
G1 X76.103 Y105.796 E122.77181
G1 X68.336 Y113.563 E123.07871
