; generated by Slic3r 1.2.6 on 2015-03-04 at 21:48:13

; external perimeters extrusion width = 0.50mm
; perimeters extrusion width = 0.72mm
; infill extrusion width = 0.72mm
; solid infill extrusion width = 0.72mm
; top infill extrusion width = 0.72mm
; support material extrusion width = 0.50mm

M107
M190 S110 ; set bed temperature
M104 S230 ; set temperature
G28 ; home all axes
G1 Z1 F100 ; lift nozzle
M203 X4000 Y4000 Z20 ; set feedrate limits
M109 S230 ; wait for temperature to be reached
G21 ; set units to millimeters
G90 ; use absolute coordinates
M82 ; use absolute distances for extrusion
G92 E0
G1 E-2.00000 F600.00000
G92 E0
G1 Z0.500 F3600.000
G1 X19.698 Y57.559 F3600.000
G1 Z0.350 F3600.000
G1 E2.00000 F600.00000
G1 X21.425 Y57.350 E2.05382 F1800.000
G1 X78.575 Y57.350 E3.82212
G1 X80.942 Y57.747 E3.89638
G1 X83.049 Y58.896 E3.97063 F1800.000
G1 X84.666 Y60.669 E4.04489
G1 X85.616 Y62.873 E4.11915
G1 X85.825 Y64.600 E4.17297
G1 X85.825 Y115.400 E5.74479
G1 X85.428 Y117.767 E5.81905
G1 X84.279 Y119.874 E5.89331
G1 X82.506 Y121.491 E5.96757
G1 X80.302 Y122.441 E6.04182
G1 X78.575 Y122.650 E6.09565
G1 X21.425 Y122.650 E7.86394
G1 X19.058 Y122.253 E7.93820
G1 X16.951 Y121.104 E8.01246
G1 X15.334 Y119.331 E8.08672
G1 X14.384 Y117.127 E8.16097
G1 X14.175 Y115.400 E8.21480
G1 X14.175 Y64.600 E9.78661
G1 X14.572 Y62.233 E9.86087
G1 X15.721 Y60.126 E9.93513
G1 X17.494 Y58.509 E10.00939
G1 X19.629 Y57.589 E10.08133
G1 X19.933 Y58.196 F3600.000
G1 X20.245 Y58.081 E10.09163 F1800.000
G1 X21.425 Y57.975 E10.12828
G1 X78.575 Y57.975 E11.89657
G1 X80.834 Y58.372 E11.96754
G1 X82.822 Y59.515 E12.03850 F1800.000
G1 X84.301 Y61.268 E12.10946
G1 X85.094 Y63.420 E12.18042
G1 X85.200 Y64.600 E12.21707
G1 X85.200 Y115.400 E13.78889
G1 X84.803 Y117.659 E13.85985
G1 X83.660 Y119.647 E13.93082
G1 X81.907 Y121.126 E14.00178
G1 X79.755 Y121.919 E14.07274
G1 X78.575 Y122.025 E14.10939
G1 X21.425 Y122.025 E15.87769
G1 X19.166 Y121.628 E15.94865
G1 X17.178 Y120.485 E16.01961
G1 X15.699 Y118.732 E16.09058
G1 X14.906 Y116.580 E16.16154
G1 X14.800 Y115.400 E16.19819
G1 X14.800 Y64.600 E17.77001
G1 X15.197 Y62.341 E17.84097
G1 X16.340 Y60.353 E17.91193
G1 X18.093 Y58.874 E17.98290
G1 X19.862 Y58.222 E18.04124
G1 E16.04124 F600.00000
G92 E0
G1 Z0.850 F3600.000
G1 X72.520 Y113.835 F3600.000
G1 Z0.350 F3600.000
G1 E2.00000 F600.00000
G1 X72.520 Y66.165 E3.47497 F1800.000
G1 X77.010 Y66.165 E3.61389
G1 X77.010 Y113.835 E5.08885
G1 X72.595 Y113.835 E5.22545
G1 X73.145 Y113.210 F3600.000
G1 X73.145 Y66.790 E6.66175 F1800.000
G1 X76.385 Y66.790 E6.76200
G1 X76.385 Y113.210 E8.19829
G1 X73.220 Y113.210 E8.29622
G1 X72.645 Y113.210 F3600.000
G1 X59.855 Y106.840 F3600.000
G1 X49.035 Y106.840 E8.63099 F1800.000
G1 X49.035 Y97.290 E8.92647
G1 X59.855 Y97.290 E9.26124
G1 X59.855 Y106.765 E9.55439
G1 X59.230 Y106.215 F3600.000
G1 X49.660 Y106.215 E9.85050 F1800.000
G1 X49.660 Y97.915 E10.10730
G1 X59.230 Y97.915 E10.40340
G1 X59.230 Y106.140 E10.65789
G1 X58.605 Y105.590 F3600.000
G1 X50.285 Y105.590 E10.91532 F1800.000
G1 X50.285 Y98.540 E11.13346
G1 X58.605 Y98.540 E11.39089
G1 X58.605 Y105.515 E11.60670
G1 X58.605 Y106.090 F3600.000
G1 E9.60670 F600.00000
G92 E0
G1 Z0.850 F3600.000
G1 X45.885 Y96.680 F3600.000
G1 Z0.350 F3600.000
G1 E2.00000 F600.00000
G1 X32.525 Y96.680 E2.41336 F1800.000
G1 X32.525 Y90.458 E2.60587
G1 X32.336 Y90.311 E2.61330
G1 X31.535 Y89.540 E2.64769
G1 X30.795 Y88.649 E2.68353
G1 X30.208 Y87.777 E2.71604
G1 X29.689 Y86.799 E2.75030
G1 X29.276 Y85.772 E2.78455
G1 X28.974 Y84.707 E2.81880
G1 X28.786 Y83.616 E2.85305
G1 X28.714 Y82.512 E2.88728
G1 X28.757 Y81.412 E2.92135
G1 X28.919 Y80.310 E2.95581
G1 X29.194 Y79.241 E2.98997
G1 X29.567 Y78.229 E3.02333
G1 X30.075 Y77.210 E3.05856
G1 X30.671 Y76.277 E3.09282
G1 X31.361 Y75.412 E3.12707
G1 X32.139 Y74.624 E3.16132
G1 X32.995 Y73.923 E3.19557
G1 X33.921 Y73.316 E3.22982
G1 X34.905 Y72.809 E3.26407
G1 X35.938 Y72.410 E3.29832
G1 X37.006 Y72.121 E3.33258
G1 X38.100 Y71.946 E3.36683
G1 X39.098 Y71.894 E3.39777
G1 X40.302 Y71.945 E3.43507
G1 X41.404 Y72.121 E3.46957
G1 X42.472 Y72.410 E3.50382
G1 X43.505 Y72.809 E3.53807
G1 X44.489 Y73.316 E3.57232
G1 X45.415 Y73.923 E3.60657
G1 X46.271 Y74.624 E3.64082
G1 X47.049 Y75.412 E3.67508
G1 X47.739 Y76.277 E3.70933
G1 X48.335 Y77.210 E3.74358
G1 X48.829 Y78.201 E3.77783
G1 X49.216 Y79.238 E3.81208
G1 X49.492 Y80.315 E3.84647
G1 X49.654 Y81.462 E3.88231
G1 X49.696 Y82.512 E3.91483
G1 X49.624 Y83.615 E3.94904
G1 X49.440 Y84.692 E3.98285
G1 X49.134 Y85.772 E4.01758
G1 X48.721 Y86.799 E4.05184
G1 X48.202 Y87.777 E4.08609
G1 X47.584 Y88.695 E4.12034
G1 X46.872 Y89.543 E4.15459
G1 X46.074 Y90.311 E4.18884
G1 X45.885 Y90.458 E4.19627
G1 X45.885 Y96.605 E4.38646
G1 X45.260 Y96.055 F3600.000
G1 X33.150 Y96.055 E4.76115 F1800.000
G1 X33.150 Y90.152 E4.94378
G1 X32.745 Y89.838 E4.95964
G1 X31.994 Y89.114 E4.99193
G1 X31.296 Y88.273 E5.02573
G1 X30.744 Y87.455 E5.05626
G1 X30.257 Y86.536 E5.08847
G1 X29.869 Y85.570 E5.12068
G1 X29.584 Y84.568 E5.15289
G1 X29.407 Y83.543 E5.18509
G1 X29.340 Y82.504 E5.21729
G1 X29.380 Y81.470 E5.24931
G1 X29.533 Y80.434 E5.28172
G1 X29.791 Y79.427 E5.31388
G1 X30.142 Y78.477 E5.34520
G1 X30.620 Y77.519 E5.37835
G1 X31.180 Y76.641 E5.41056
G1 X31.829 Y75.827 E5.44277
G1 X32.560 Y75.087 E5.47498
G1 X33.366 Y74.427 E5.50719
G1 X34.236 Y73.856 E5.53940
G1 X35.162 Y73.380 E5.57160
G1 X36.133 Y73.004 E5.60381
G1 X37.138 Y72.733 E5.63602
G1 X38.165 Y72.569 E5.66823
G1 X39.101 Y72.519 E5.69722
G1 X40.240 Y72.568 E5.73248
G1 X41.272 Y72.733 E5.76484
G1 X42.277 Y73.004 E5.79705
G1 X43.248 Y73.380 E5.82926
G1 X44.174 Y73.856 E5.86147
G1 X45.044 Y74.427 E5.89368
G1 X45.850 Y75.087 E5.92588
G1 X46.581 Y75.827 E5.95809
G1 X47.230 Y76.641 E5.99030
G1 X47.790 Y77.519 E6.02251
G1 X48.255 Y78.450 E6.05472
G1 X48.618 Y79.425 E6.08693
G1 X48.878 Y80.436 E6.11922
G1 X49.031 Y81.518 E6.15302
G1 X49.070 Y82.504 E6.18355
G1 X49.003 Y83.542 E6.21573
G1 X48.830 Y84.554 E6.24750
G1 X48.541 Y85.570 E6.28017
G1 X48.153 Y86.536 E6.31238
G1 X47.666 Y87.455 E6.34459
G1 X47.084 Y88.319 E6.37680
G1 X46.414 Y89.116 E6.40901
G1 X45.665 Y89.838 E6.44122
G1 X45.260 Y90.152 E6.45708
G1 X45.260 Y95.980 E6.63739
G1 X44.635 Y95.430 F3600.000
G1 X33.775 Y95.430 E6.97341 F1800.000
G1 X33.775 Y89.847 E7.14616
G1 X33.155 Y89.365 E7.17046
G1 X32.452 Y88.688 E7.20066
G1 X31.796 Y87.898 E7.23241
G1 X31.281 Y87.133 E7.26095
G1 X30.824 Y86.272 E7.29112
G1 X30.461 Y85.367 E7.32128
G1 X30.195 Y84.430 E7.35145
G1 X30.029 Y83.469 E7.38161
G1 X29.965 Y82.496 E7.41178
G1 X30.004 Y81.528 E7.44175
G1 X30.146 Y80.557 E7.47211
G1 X30.388 Y79.613 E7.50226
G1 X30.716 Y78.726 E7.53154
G1 X31.164 Y77.827 E7.56261
G1 X31.689 Y77.005 E7.59278
G1 X32.297 Y76.243 E7.62295
G1 X32.982 Y75.549 E7.65311
G1 X33.736 Y74.932 E7.68328
G1 X34.551 Y74.397 E7.71344
G1 X35.418 Y73.951 E7.74361
G1 X36.327 Y73.599 E7.77378
G1 X37.269 Y73.345 E7.80394
G1 X38.231 Y73.191 E7.83411
G1 X39.104 Y73.145 E7.86115
G1 X40.177 Y73.191 E7.89437
G1 X41.141 Y73.345 E7.92459
G1 X42.083 Y73.599 E7.95475
G1 X42.992 Y73.951 E7.98492
G1 X43.859 Y74.397 E8.01509
G1 X44.674 Y74.932 E8.04525
G1 X45.428 Y75.549 E8.07542
G1 X46.113 Y76.243 E8.10558
G1 X46.721 Y77.005 E8.13575
G1 X47.246 Y77.827 E8.16592
G1 X47.681 Y78.699 E8.19608
G1 X48.021 Y79.613 E8.22625
G1 X48.264 Y80.558 E8.25644
G1 X48.408 Y81.574 E8.28820
G1 X48.445 Y82.496 E8.31674
G1 X48.381 Y83.468 E8.34689
G1 X48.219 Y84.415 E8.37662
G1 X47.949 Y85.367 E8.40724
G1 X47.586 Y86.272 E8.43740
G1 X47.129 Y87.133 E8.46757
G1 X46.584 Y87.942 E8.49773
G1 X45.957 Y88.688 E8.52790
G1 X45.255 Y89.365 E8.55807
G1 X44.635 Y89.847 E8.58236
G1 X44.635 Y95.355 E8.75279
G1 X44.635 Y95.930 F3600.000
G1 X28.105 Y113.800 F3600.000
G1 X28.105 Y66.200 E10.22561 F1800.000
G1 X71.895 Y66.200 E11.58055
G1 X71.895 Y113.800 E13.05337
G1 X28.180 Y113.800 E14.40598
G1 X27.480 Y113.835 F3600.000
G1 X22.990 Y113.835 E14.54490 F1800.000
G1 X22.990 Y66.165 E16.01987
G1 X27.480 Y66.165 E16.15879
G1 X27.480 Y113.760 E17.63143
G1 X26.855 Y113.210 F3600.000
G1 X23.615 Y113.210 E17.73168 F1800.000
G1 X23.615 Y66.790 E19.16798
G1 X26.855 Y66.790 E19.26823
G1 X26.855 Y113.135 E20.70220
G1 X26.855 Y113.710 F3600.000
G1 X22.400 Y114.425 F3600.000
G1 X22.400 Y65.575 E22.21369 F1800.000
G1 X77.600 Y65.575 E23.92166
G1 X77.600 Y114.425 E25.43315
G1 X22.475 Y114.425 E27.13880
G1 X21.775 Y115.050 F3600.000
G1 X21.775 Y64.950 E28.68896 F1800.000
G1 X78.225 Y64.950 E30.43559
G1 X78.225 Y115.050 E31.98575
G1 X21.850 Y115.050 E33.73007
G1 X22.025 Y114.617 F3600.000
G1 E31.73007 F600.00000
G92 E0
G1 Z0.850 F3600.000
G1 X28.822 Y86.566 F3600.000
G1 Z0.350 F3600.000
G1 E2.00000 F600.00000
G1 X28.704 Y85.952 E2.00852 F1800.000
G1 X28.568 Y84.973 E2.02197
G1 X28.570 Y79.797 F3600.000
G1 X28.664 Y79.062 E2.03205 F1800.000
G1 X28.817 Y78.202 E2.04394
G1 X28.472 Y76.873 F3600.000
G1 X29.414 Y77.815 E2.08518 F1800.000
G1 X29.708 Y77.224 E2.10559
G1 X28.472 Y75.988 E2.15971
G1 X28.472 Y75.104 E2.18709
G1 X30.042 Y76.674 E2.25581
G1 X30.386 Y76.134 E2.27563
G1 X28.472 Y74.220 E2.35944
G1 X28.472 Y73.336 E2.38682
G1 X30.777 Y75.641 E2.48774
G1 X31.176 Y75.155 E2.50720
G1 X28.472 Y72.451 E2.62557
G1 X28.472 Y71.567 E2.65295
G1 X31.615 Y74.710 E2.79057
G1 X32.067 Y74.278 E2.80993
G1 X28.472 Y70.683 E2.96734
G1 X28.472 Y69.799 E2.99472
G1 X32.553 Y73.880 E3.17342
G1 X33.060 Y73.502 E3.19298
G1 X28.472 Y68.914 E3.39386
G1 X28.472 Y68.030 E3.42124
G1 X33.594 Y73.152 E3.64550
G1 X34.159 Y72.832 E3.66559
G1 X28.472 Y67.146 E3.91457
G1 X28.778 Y66.567 E3.93483
G1 X34.743 Y72.532 E4.19599
G1 X35.372 Y72.277 E4.21701
G1 X29.662 Y66.567 E4.46700
G1 X30.546 Y66.567 E4.49438
G1 X36.018 Y72.039 E4.73395
G1 X36.714 Y71.851 E4.75628
G1 X31.431 Y66.567 E4.98761
G1 X32.315 Y66.567 E5.01499
G1 X37.446 Y71.698 E5.23965
G1 X38.211 Y71.579 E5.26364
G1 X33.199 Y66.567 E5.48310
G1 X34.083 Y66.567 E5.51048
G1 X39.051 Y71.535 E5.72800
G1 X39.957 Y71.557 E5.75606
G1 X34.968 Y66.567 E5.97454
G1 X35.852 Y66.567 E6.00192
G1 X40.936 Y71.652 E6.22454
G1 X42.041 Y71.872 E6.25942
G1 X36.736 Y66.567 E6.49171
G1 X37.620 Y66.567 E6.51908
G1 X43.347 Y72.294 E6.76982
G1 X45.106 Y73.168 F3600.000
G1 X38.505 Y66.567 E7.05883 F1800.000
G1 X39.389 Y66.567 E7.08621
G1 X71.528 Y98.706 E8.49340
G1 X71.528 Y97.822 E8.52078
G1 X40.273 Y66.567 E9.88925
G1 X41.158 Y66.567 E9.91663
G1 X71.528 Y96.937 E11.24638
G1 X71.528 Y96.053 E11.27376
G1 X42.042 Y66.567 E12.56480
G1 X42.926 Y66.567 E12.59217
G1 X71.528 Y95.169 E13.84449
G1 X71.528 Y94.285 E13.87187
G1 X43.810 Y66.567 E15.08547
G1 X44.695 Y66.567 E15.11285
G1 X71.528 Y93.400 E16.28773
G1 X71.528 Y92.516 E16.31511
G1 X45.579 Y66.567 E17.45128
G1 X46.463 Y66.567 E17.47866
G1 X71.528 Y91.632 E18.57611
G1 X71.528 Y90.748 E18.60348
G1 X47.347 Y66.567 E19.66221
G1 X48.232 Y66.567 E19.68959
G1 X71.528 Y89.863 E20.70961
G1 X71.528 Y88.979 E20.73698
G1 X49.116 Y66.567 E21.71828
G1 X50.000 Y66.567 E21.74566
G1 X71.528 Y88.095 E22.68824
G1 X71.528 Y87.210 E22.71562
G1 X50.885 Y66.567 E23.61948
G1 X51.769 Y66.567 E23.64685
G1 X71.528 Y86.326 E24.51200
G1 X71.528 Y85.442 E24.53938
G1 X52.653 Y66.567 E25.36580
G1 X53.537 Y66.567 E25.39318
G1 X71.528 Y84.558 E26.18089
G1 X71.528 Y83.673 E26.20827
G1 X54.422 Y66.567 E26.95726
G1 X55.306 Y66.567 E26.98464
G1 X71.528 Y82.789 E27.69491
G1 X71.528 Y81.905 E27.72229
G1 X56.190 Y66.567 E28.39385
G1 X57.074 Y66.567 E28.42122
G1 X71.528 Y81.021 E29.05406
G1 X71.528 Y80.136 E29.08144
G1 X57.959 Y66.567 E29.67556
G1 X58.843 Y66.567 E29.70294
G1 X71.528 Y79.252 E30.25835
G1 X71.528 Y78.368 E30.28572
G1 X59.727 Y66.567 E30.80241
G1 X60.612 Y66.567 E30.82979
G1 X71.528 Y77.483 E31.30776
G1 X71.528 Y76.599 E31.33513
G1 X61.496 Y66.567 E31.77439
G1 X62.380 Y66.567 E31.80176
G1 X71.528 Y75.715 E32.20230
G1 X71.528 Y74.831 E32.22968
G1 X63.264 Y66.567 E32.59149
G1 X64.149 Y66.567 E32.61887
G1 X71.528 Y73.946 E32.94197
G1 X71.528 Y73.062 E32.96935
G1 X65.033 Y66.567 E33.25373
G1 X65.917 Y66.567 E33.28111
G1 X71.528 Y72.178 E33.52677
G1 X71.528 Y71.294 E33.55415
G1 X66.801 Y66.567 E33.76109
G1 X67.686 Y66.567 E33.78847
G1 X71.528 Y70.409 E33.95670
G1 X71.528 Y69.525 E33.98408
G1 X68.570 Y66.567 E34.11359
G1 X69.454 Y66.567 E34.14097
G1 X71.528 Y68.641 E34.23176
G1 X71.528 Y67.756 E34.25914
G1 X70.339 Y66.567 E34.31122
G1 X71.223 Y66.567 E34.33860
G1 X71.528 Y66.872 E34.35195
G1 X49.294 Y78.241 F3600.000
G1 X71.528 Y100.475 E35.32546 F1800.000
G1 X71.528 Y101.359 E35.35284
G1 X49.711 Y79.542 E36.30808
G1 X49.930 Y80.645 E36.34288
G1 X71.528 Y102.243 E37.28856
G1 X71.528 Y103.127 E37.31593
G1 X50.034 Y81.633 E38.25704
G1 X50.054 Y82.538 E38.28505
G1 X71.528 Y104.012 E39.22527
G1 X71.528 Y104.896 E39.25265
G1 X50.000 Y83.368 E40.19525
G1 X49.886 Y84.139 E40.21937
G1 X71.528 Y105.780 E41.16693
G1 X71.528 Y106.664 E41.19431
G1 X49.738 Y84.874 E42.14839
G1 X48.407 Y76.470 F3600.000
G1 X71.528 Y99.590 E43.16071 F1800.000
G1 X56.190 Y113.433 F3600.000
G1 X49.964 Y107.207 E43.43330 F1800.000
G1 X50.848 Y107.207 E43.46068
G1 X57.074 Y113.433 E43.73328
G1 X57.958 Y113.433 E43.76065
G1 X51.732 Y107.207 E44.03325
G1 X52.617 Y107.207 E44.06063
G1 X58.842 Y113.433 E44.33322
G1 X59.727 Y113.433 E44.36060
G1 X53.501 Y107.207 E44.63319
G1 X54.385 Y107.207 E44.66057
G1 X60.611 Y113.433 E44.93317
G1 X61.495 Y113.433 E44.96054
G1 X55.269 Y107.207 E45.23314
G1 X56.154 Y107.207 E45.26052
G1 X62.379 Y113.433 E45.53311
G1 X63.264 Y113.433 E45.56049
G1 X57.038 Y107.207 E45.83309
G1 X57.922 Y107.207 E45.86046
G1 X64.148 Y113.433 E46.13306
G1 X65.032 Y113.433 E46.16044
G1 X58.806 Y107.207 E46.43303
G1 X59.691 Y107.207 E46.46041
G1 X65.917 Y113.433 E46.73300
G1 X66.801 Y113.433 E46.76038
G1 X60.222 Y106.854 E47.04843
G1 X60.222 Y105.970 E47.07581
G1 X67.685 Y113.433 E47.40257
G1 X68.569 Y113.433 E47.42995
G1 X60.222 Y105.086 E47.79543
G1 X60.222 Y104.201 E47.82281
G1 X69.454 Y113.433 E48.22701
G1 X70.338 Y113.433 E48.25439
G1 X60.222 Y103.317 E48.69731
G1 X60.222 Y102.433 E48.72468
G1 X71.222 Y113.433 E49.20632
G1 X71.528 Y112.854 E49.22658
G1 X60.222 Y101.549 E49.72160
G1 X60.222 Y100.664 E49.74898
G1 X71.528 Y111.970 E50.24400
G1 X71.528 Y111.086 E50.27138
G1 X60.222 Y99.780 E50.76640
G1 X60.222 Y98.896 E50.79378
G1 X71.528 Y110.202 E51.28880
G1 X71.528 Y109.317 E51.31617
G1 X60.222 Y98.011 E51.81120
G1 X60.222 Y97.127 E51.83857
G1 X71.528 Y108.433 E52.33359
G1 X71.528 Y107.549 E52.36097
G1 X49.542 Y85.563 E53.32360
G1 X49.309 Y86.214 E53.34501
G1 X60.018 Y96.923 E53.81390
G1 X59.134 Y96.923 E53.84128
G1 X49.055 Y86.845 E54.28254
G1 X48.752 Y87.425 E54.30283
G1 X58.249 Y96.923 E54.71867
G1 X57.365 Y96.923 E54.74605
G1 X48.437 Y87.995 E55.13697
G1 X48.081 Y88.523 E55.15669
G1 X56.481 Y96.923 E55.52449
G1 X55.596 Y96.923 E55.55186
G1 X47.708 Y89.034 E55.89727
G1 X47.304 Y89.515 E55.91670
G1 X54.712 Y96.923 E56.24106
G1 X53.828 Y96.923 E56.26844
G1 X46.877 Y89.972 E56.57280
G1 X46.426 Y90.405 E56.59216
G1 X52.944 Y96.923 E56.87752
G1 X52.059 Y96.923 E56.90490
G1 X46.252 Y91.116 E57.15917
G1 X46.252 Y92.000 E57.18655
G1 X51.175 Y96.923 E57.40210
G1 X50.291 Y96.923 E57.42948
G1 X46.252 Y92.884 E57.60632
G1 X46.252 Y93.768 E57.63369
G1 X49.407 Y96.923 E57.77181
G1 X48.668 Y97.069 E57.79512
G1 X46.252 Y94.653 E57.90090
G1 X46.252 Y95.537 E57.92827
G1 X48.668 Y97.953 E58.03405
G1 X48.668 Y98.837 E58.06143
G1 X46.252 Y96.421 E58.16720
G1 X45.994 Y97.047 F3600.000
G1 X48.668 Y99.721 E58.28429 F1800.000
G1 X48.668 Y100.606 E58.31167
G1 X45.109 Y97.047 E58.46748
G1 X44.225 Y97.047 E58.49486
G1 X48.668 Y101.490 E58.68938
G1 X48.668 Y102.374 E58.71676
G1 X43.341 Y97.047 E58.95000
G1 X42.457 Y97.047 E58.97738
G1 X48.668 Y103.258 E59.24934
G1 X48.668 Y104.143 E59.27672
G1 X41.572 Y97.047 E59.58740
G1 X40.688 Y97.047 E59.61478
G1 X48.668 Y105.027 E59.96417
G1 X48.668 Y105.911 E59.99155
G1 X39.804 Y97.047 E60.37966
G1 X38.919 Y97.047 E60.40704
G1 X48.668 Y106.796 E60.83387
G1 X49.079 Y107.207 F3600.000
G1 X55.305 Y113.433 E61.10647 F1800.000
G1 X54.421 Y113.433 E61.13385
G1 X38.035 Y97.047 E61.85129
G1 X37.151 Y97.047 E61.87867
