; generated by Slic3r 1.2.6 on 2015-03-04 at 16:55:32

; external perimeters extrusion width = 0.50mm
; perimeters extrusion width = 0.72mm
; infill extrusion width = 0.72mm
; solid infill extrusion width = 0.72mm
; top infill extrusion width = 0.72mm
; support material extrusion width = 0.50mm

M107
M190 S110 ; set bed temperature
M104 S230 ; set temperature
G28 ; home all axes
G1 Z1 F100 ; lift nozzle
M203 X4000 Y4000 Z20 ; set feedrate limits
M109 S230 ; wait for temperature to be reached
G21 ; set units to millimeters
G90 ; use absolute coordinates
M82 ; use absolute distances for extrusion
G92 E0
G1 E-2.00000 F600.00000
G92 E0
G1 Z0.500 F3600.000
G1 X19.698 Y57.559 F3600.000
G1 Z0.350 F3600.000
G1 E2.00000 F600.00000
G1 X21.425 Y57.350 E2.05382 F1800.000
G1 X78.575 Y57.350 E3.82212
G1 X80.942 Y57.747 E3.89638
G1 X83.049 Y58.896 E3.97063 F1800.000
G1 X84.666 Y60.669 E4.04489
G1 X85.616 Y62.873 E4.11915
G1 X85.825 Y64.600 E4.17297
G1 X85.825 Y115.400 E5.74479
G1 X85.428 Y117.767 E5.81905
G1 X84.279 Y119.874 E5.89331
G1 X82.506 Y121.491 E5.96757
G1 X80.302 Y122.441 E6.04182
G1 X78.575 Y122.650 E6.09565
G1 X21.425 Y122.650 E7.86394
G1 X19.058 Y122.253 E7.93820
G1 X16.951 Y121.104 E8.01246
G1 X15.334 Y119.331 E8.08672
G1 X14.384 Y117.127 E8.16097
G1 X14.175 Y115.400 E8.21480
G1 X14.175 Y64.600 E9.78661
G1 X14.572 Y62.233 E9.86087
G1 X15.721 Y60.126 E9.93513
G1 X17.494 Y58.509 E10.00939
G1 X19.629 Y57.589 E10.08133
G1 X19.933 Y58.196 F3600.000
G1 X20.245 Y58.081 E10.09163 F1800.000
G1 X21.425 Y57.975 E10.12828
G1 X78.575 Y57.975 E11.89657
G1 X80.834 Y58.372 E11.96754
G1 X82.822 Y59.515 E12.03850 F1800.000
G1 X84.301 Y61.268 E12.10946
G1 X85.094 Y63.420 E12.18042
G1 X85.200 Y64.600 E12.21707
G1 X85.200 Y115.400 E13.78889
G1 X84.803 Y117.659 E13.85985
G1 X83.660 Y119.647 E13.93082
G1 X81.907 Y121.126 E14.00178
G1 X79.755 Y121.919 E14.07274
G1 X78.575 Y122.025 E14.10939
G1 X21.425 Y122.025 E15.87769
G1 X19.166 Y121.628 E15.94865
G1 X17.178 Y120.485 E16.01961
G1 X15.699 Y118.732 E16.09058
G1 X14.906 Y116.580 E16.16154
G1 X14.800 Y115.400 E16.19819
G1 X14.800 Y64.600 E17.77001
G1 X15.197 Y62.341 E17.84097
G1 X16.340 Y60.353 E17.91193
G1 X18.093 Y58.874 E17.98290
G1 X19.862 Y58.222 E18.04124
G1 E16.04124 F600.00000
G92 E0
G1 Z0.850 F3600.000
G1 X72.520 Y113.835 F3600.000
G1 Z0.350 F3600.000
G1 E2.00000 F600.00000
G1 X72.520 Y66.165 E3.47497 F1800.000
G1 X77.010 Y66.165 E3.61389
G1 X77.010 Y113.835 E5.08885
G1 X72.595 Y113.835 E5.22545
G1 X73.145 Y113.210 F3600.000
G1 X73.145 Y66.790 E6.66175 F1800.000
G1 X76.385 Y66.790 E6.76200
G1 X76.385 Y113.210 E8.19829
G1 X73.220 Y113.210 E8.29622
G1 X72.645 Y113.210 F3600.000
G1 X59.855 Y110.015 F3600.000
G1 X49.035 Y110.015 E8.63099 F1800.000
G1 X49.035 Y100.465 E8.92647
G1 X59.855 Y100.465 E9.26124
G1 X59.855 Y109.940 E9.55439
G1 X59.230 Y109.390 F3600.000
G1 X49.660 Y109.390 E9.85050 F1800.000
G1 X49.660 Y101.090 E10.10730
G1 X59.230 Y101.090 E10.40340
G1 X59.230 Y109.315 E10.65789
G1 X58.605 Y108.765 F3600.000
G1 X50.285 Y108.765 E10.91532 F1800.000
G1 X50.285 Y101.715 E11.13346
G1 X58.605 Y101.715 E11.39089
G1 X58.605 Y108.690 E11.60670
G1 X58.605 Y109.265 F3600.000
G1 E9.60670 F600.00000
G92 E0
G1 Z0.850 F3600.000
G1 X45.885 Y96.680 F3600.000
G1 Z0.350 F3600.000
G1 E2.00000 F600.00000
G1 X32.525 Y96.680 E2.41336 F1800.000
G1 X32.525 Y90.458 E2.60587
G1 X32.336 Y90.311 E2.61330
G1 X31.538 Y89.543 E2.64755
G1 X30.826 Y88.695 E2.68180
G1 X30.205 Y87.774 E2.71619
G1 X29.668 Y86.747 E2.75203
G1 X29.276 Y85.772 E2.78455
G1 X28.974 Y84.707 E2.81880
G1 X28.786 Y83.616 E2.85305
G1 X28.714 Y82.512 E2.88728
G1 X28.757 Y81.412 E2.92135
G1 X28.919 Y80.310 E2.95581
G1 X29.194 Y79.238 E2.99006
G1 X29.581 Y78.201 E3.02431
G1 X30.075 Y77.210 E3.05856
G1 X30.671 Y76.277 E3.09281
G1 X31.361 Y75.412 E3.12706
G1 X32.139 Y74.624 E3.16131
G1 X32.995 Y73.923 E3.19557
G1 X33.921 Y73.316 E3.22982
G1 X34.905 Y72.809 E3.26407
G1 X35.938 Y72.410 E3.29832
G1 X37.006 Y72.121 E3.33257
G1 X38.100 Y71.946 E3.36682
G1 X39.149 Y71.891 E3.39934
G1 X40.306 Y71.946 E3.43518
G1 X41.404 Y72.121 E3.46957
G1 X42.472 Y72.410 E3.50382
G1 X43.505 Y72.809 E3.53807
G1 X44.489 Y73.316 E3.57232
G1 X45.415 Y73.923 E3.60657
G1 X46.271 Y74.624 E3.64083
G1 X47.052 Y75.415 E3.67521
G1 X47.770 Y76.324 E3.71106
G1 X48.335 Y77.210 E3.74357
G1 X48.829 Y78.201 E3.77782
G1 X49.216 Y79.238 E3.81208
G1 X49.491 Y80.310 E3.84633
G1 X49.652 Y81.410 E3.88071
G1 X49.693 Y82.568 E3.91656
G1 X49.624 Y83.616 E3.94907
G1 X49.436 Y84.707 E3.98332
G1 X49.134 Y85.772 E4.01758
G1 X48.721 Y86.799 E4.05183
G1 X48.202 Y87.777 E4.08608
G1 X47.581 Y88.699 E4.12047
G1 X46.831 Y89.582 E4.15631
G1 X46.074 Y90.311 E4.18882
G1 X45.885 Y90.458 E4.19625
G1 X45.885 Y96.605 E4.38644
G1 X45.260 Y96.055 F3600.000
G1 X33.150 Y96.055 E4.76113 F1800.000
G1 X33.150 Y90.152 E4.94376
G1 X32.745 Y89.838 E4.95962
G1 X31.996 Y89.116 E4.99183
G1 X31.326 Y88.319 E5.02404
G1 X30.743 Y87.453 E5.05633
G1 X30.236 Y86.485 E5.09013
G1 X29.869 Y85.570 E5.12066
G1 X29.584 Y84.568 E5.15287
G1 X29.407 Y83.543 E5.18508
G1 X29.340 Y82.504 E5.21727
G1 X29.380 Y81.470 E5.24930
G1 X29.533 Y80.434 E5.28170
G1 X29.792 Y79.425 E5.31391
G1 X30.155 Y78.450 E5.34612
G1 X30.620 Y77.519 E5.37833
G1 X31.180 Y76.641 E5.41054
G1 X31.829 Y75.827 E5.44275
G1 X32.560 Y75.087 E5.47496
G1 X33.366 Y74.427 E5.50716
G1 X34.236 Y73.856 E5.53937
G1 X35.162 Y73.380 E5.57158
G1 X36.133 Y73.004 E5.60379
G1 X37.138 Y72.733 E5.63600
G1 X38.165 Y72.569 E5.66821
G1 X39.151 Y72.517 E5.69873
G1 X40.242 Y72.568 E5.73253
G1 X41.272 Y72.733 E5.76483
G1 X42.277 Y73.004 E5.79703
G1 X43.248 Y73.380 E5.82924
G1 X44.174 Y73.856 E5.86145
G1 X45.044 Y74.427 E5.89366
G1 X45.850 Y75.087 E5.92587
G1 X46.583 Y75.829 E5.95816
G1 X47.260 Y76.687 E5.99196
G1 X47.790 Y77.519 E6.02249
G1 X48.255 Y78.450 E6.05469
G1 X48.618 Y79.425 E6.08690
G1 X48.877 Y80.434 E6.11911
G1 X49.029 Y81.466 E6.15140
G1 X49.067 Y82.558 E6.18520
G1 X49.003 Y83.543 E6.21573
G1 X48.826 Y84.568 E6.24794
G1 X48.541 Y85.570 E6.28015
G1 X48.153 Y86.536 E6.31236
G1 X47.666 Y87.455 E6.34456
G1 X47.082 Y88.321 E6.37686
G1 X46.375 Y89.153 E6.41066
G1 X45.665 Y89.838 E6.44118
G1 X45.260 Y90.152 E6.45704
G1 X45.260 Y95.980 E6.63735
G1 X44.635 Y95.430 F3600.000
G1 X33.775 Y95.430 E6.97338 F1800.000
G1 X33.775 Y89.847 E7.14613
G1 X33.155 Y89.365 E7.17043
G1 X32.453 Y88.688 E7.20059
G1 X31.826 Y87.942 E7.23076
G1 X31.280 Y87.133 E7.26095
G1 X30.805 Y86.223 E7.29271
G1 X30.461 Y85.367 E7.32125
G1 X30.195 Y84.430 E7.35141
G1 X30.029 Y83.469 E7.38158
G1 X29.965 Y82.496 E7.41174
G1 X30.004 Y81.528 E7.44172
G1 X30.146 Y80.557 E7.47208
G1 X30.389 Y79.613 E7.50224
G1 X30.729 Y78.699 E7.53241
G1 X31.164 Y77.827 E7.56257
G1 X31.689 Y77.005 E7.59274
G1 X32.297 Y76.243 E7.62291
G1 X32.982 Y75.549 E7.65307
G1 X33.736 Y74.932 E7.68324
G1 X34.551 Y74.397 E7.71340
G1 X35.418 Y73.951 E7.74357
G1 X36.327 Y73.599 E7.77374
G1 X37.269 Y73.345 E7.80390
G1 X38.231 Y73.191 E7.83407
G1 X39.152 Y73.142 E7.86260
G1 X40.178 Y73.191 E7.89436
G1 X41.141 Y73.345 E7.92456
G1 X42.083 Y73.599 E7.95472
G1 X42.992 Y73.951 E7.98489
G1 X43.859 Y74.397 E8.01505
G1 X44.674 Y74.932 E8.04522
G1 X45.428 Y75.549 E8.07539
G1 X46.114 Y76.244 E8.10558
G1 X46.750 Y77.049 E8.13734
G1 X47.246 Y77.827 E8.16587
G1 X47.681 Y78.699 E8.19604
G1 X48.021 Y79.613 E8.22621
G1 X48.264 Y80.557 E8.25637
G1 X48.406 Y81.523 E8.28657
G1 X48.441 Y82.548 E8.31832
G1 X48.381 Y83.469 E8.34686
G1 X48.215 Y84.430 E8.37703
G1 X47.949 Y85.367 E8.40719
G1 X47.586 Y86.272 E8.43736
G1 X47.129 Y87.133 E8.46752
G1 X46.584 Y87.943 E8.49772
G1 X45.919 Y88.725 E8.52948
G1 X45.255 Y89.365 E8.55801
G1 X44.635 Y89.847 E8.58231
G1 X44.635 Y95.355 E8.75274
G1 X44.635 Y95.930 F3600.000
G1 X28.105 Y113.800 F3600.000
G1 X28.105 Y66.200 E10.22556 F1800.000
G1 X71.895 Y66.200 E11.58050
G1 X71.895 Y113.800 E13.05332
G1 X28.180 Y113.800 E14.40593
G1 X27.480 Y113.835 F3600.000
G1 X22.990 Y113.835 E14.54485 F1800.000
G1 X22.990 Y66.165 E16.01982
G1 X27.480 Y66.165 E16.15874
G1 X27.480 Y113.760 E17.63138
G1 X26.855 Y113.210 F3600.000
G1 X23.615 Y113.210 E17.73163 F1800.000
G1 X23.615 Y66.790 E19.16793
G1 X26.855 Y66.790 E19.26818
G1 X26.855 Y113.135 E20.70215
G1 X26.855 Y113.710 F3600.000
G1 X22.400 Y114.425 F3600.000
G1 X22.400 Y65.575 E22.21364 F1800.000
G1 X77.600 Y65.575 E23.92161
G1 X77.600 Y114.425 E25.43310
G1 X22.475 Y114.425 E27.13875
G1 X21.775 Y115.050 F3600.000
G1 X21.775 Y64.950 E28.68891 F1800.000
G1 X78.225 Y64.950 E30.43554
G1 X78.225 Y115.050 E31.98570
G1 X21.850 Y115.050 E33.73002
G1 X22.025 Y114.617 F3600.000
G1 E31.73002 F600.00000
G92 E0
G1 Z0.850 F3600.000
G1 X28.822 Y86.566 F3600.000
G1 Z0.350 F3600.000
G1 E2.00000 F600.00000
G1 X28.704 Y85.952 E2.00852 F1800.000
G1 X28.568 Y84.973 E2.02197
G1 X28.570 Y79.797 F3600.000
G1 X28.664 Y79.058 E2.03211 F1800.000
G1 X28.819 Y78.203 E2.04394
G1 X28.472 Y76.873 F3600.000
G1 X29.414 Y77.815 E2.08518 F1800.000
G1 X29.708 Y77.224 E2.10559
G1 X28.472 Y75.988 E2.15971
G1 X28.472 Y75.104 E2.18709
G1 X30.042 Y76.674 E2.25581
G1 X30.386 Y76.134 E2.27563
G1 X28.472 Y74.220 E2.35944
G1 X28.472 Y73.336 E2.38681
G1 X30.777 Y75.641 E2.48774
G1 X31.176 Y75.155 E2.50720
G1 X28.472 Y72.451 E2.62557
G1 X28.472 Y71.567 E2.65295
G1 X31.615 Y74.710 E2.79056
G1 X32.067 Y74.278 E2.80993
G1 X28.472 Y70.683 E2.96734
G1 X28.472 Y69.799 E2.99472
G1 X32.553 Y73.880 E3.17342
G1 X33.060 Y73.502 E3.19298
G1 X28.472 Y68.914 E3.39386
G1 X28.472 Y68.030 E3.42124
G1 X33.594 Y73.152 E3.64550
G1 X34.159 Y72.832 E3.66558
G1 X28.472 Y67.146 E3.91456
G1 X28.778 Y66.567 E3.93482
G1 X34.743 Y72.532 E4.19599
G1 X35.372 Y72.277 E4.21701
G1 X29.662 Y66.567 E4.46700
G1 X30.546 Y66.567 E4.49438
G1 X36.018 Y72.039 E4.73395
G1 X36.714 Y71.851 E4.75628
G1 X31.431 Y66.567 E4.98761
G1 X32.315 Y66.567 E5.01499
G1 X37.446 Y71.698 E5.23965
G1 X38.211 Y71.579 E5.26364
G1 X33.199 Y66.567 E5.48310
G1 X34.083 Y66.567 E5.51048
G1 X39.051 Y71.535 E5.72800
G1 X39.956 Y71.555 E5.75600
G1 X34.968 Y66.567 E5.97439
G1 X35.852 Y66.567 E6.00177
G1 X40.936 Y71.652 E6.22439
G1 X42.041 Y71.872 E6.25927
G1 X36.736 Y66.567 E6.49156
G1 X37.620 Y66.567 E6.51893
G1 X43.347 Y72.294 E6.76967
G1 X45.106 Y73.168 F3600.000
G1 X38.505 Y66.567 E7.05868 F1800.000
G1 X39.389 Y66.567 E7.08606
G1 X71.528 Y98.706 E8.49325
G1 X71.528 Y97.822 E8.52063
G1 X40.273 Y66.567 E9.88910
G1 X41.158 Y66.567 E9.91648
G1 X71.528 Y96.937 E11.24623
G1 X71.528 Y96.053 E11.27361
G1 X42.042 Y66.567 E12.56464
G1 X42.926 Y66.567 E12.59202
G1 X71.528 Y95.169 E13.84434
G1 X71.528 Y94.285 E13.87172
G1 X43.810 Y66.567 E15.08532
G1 X44.695 Y66.567 E15.11270
G1 X71.528 Y93.400 E16.28758
G1 X71.528 Y92.516 E16.31496
G1 X45.579 Y66.567 E17.45113
G1 X46.463 Y66.567 E17.47850
G1 X71.528 Y91.632 E18.57595
G1 X71.528 Y90.748 E18.60333
G1 X47.347 Y66.567 E19.66206
G1 X48.232 Y66.567 E19.68944
G1 X71.528 Y89.863 E20.70946
G1 X71.528 Y88.979 E20.73683
G1 X49.116 Y66.567 E21.71813
G1 X50.000 Y66.567 E21.74551
G1 X71.528 Y88.095 E22.68809
G1 X71.528 Y87.210 E22.71546
G1 X50.885 Y66.567 E23.61933
G1 X51.769 Y66.567 E23.64670
G1 X71.528 Y86.326 E24.51185
G1 X71.528 Y85.442 E24.53923
G1 X52.653 Y66.567 E25.36565
G1 X53.537 Y66.567 E25.39303
G1 X71.528 Y84.558 E26.18074
G1 X71.528 Y83.673 E26.20812
G1 X54.422 Y66.567 E26.95711
G1 X55.306 Y66.567 E26.98449
G1 X71.528 Y82.789 E27.69476
G1 X71.528 Y81.905 E27.72214
G1 X56.190 Y66.567 E28.39369
G1 X57.074 Y66.567 E28.42107
G1 X71.528 Y81.021 E29.05391
G1 X71.528 Y80.136 E29.08129
G1 X57.959 Y66.567 E29.67541
G1 X58.843 Y66.567 E29.70279
G1 X71.528 Y79.252 E30.25819
G1 X71.528 Y78.368 E30.28557
G1 X59.727 Y66.567 E30.80226
G1 X60.612 Y66.567 E30.82964
G1 X71.528 Y77.483 E31.30760
G1 X71.528 Y76.599 E31.33498
G1 X61.496 Y66.567 E31.77423
G1 X62.380 Y66.567 E31.80161
G1 X71.528 Y75.715 E32.20215
G1 X71.528 Y74.831 E32.22952
G1 X63.264 Y66.567 E32.59134
G1 X64.149 Y66.567 E32.61872
G1 X71.528 Y73.946 E32.94182
G1 X71.528 Y73.062 E32.96919
G1 X65.033 Y66.567 E33.25358
G1 X65.917 Y66.567 E33.28095
G1 X71.528 Y72.178 E33.52662
G1 X71.528 Y71.294 E33.55400
G1 X66.801 Y66.567 E33.76094
G1 X67.686 Y66.567 E33.78832
G1 X71.528 Y70.409 E33.95655
G1 X71.528 Y69.525 E33.98393
G1 X68.570 Y66.567 E34.11344
G1 X69.454 Y66.567 E34.14082
G1 X71.528 Y68.641 E34.23161
G1 X71.528 Y67.756 E34.25899
G1 X70.339 Y66.567 E34.31107
G1 X71.223 Y66.567 E34.33844
G1 X71.528 Y66.872 E34.35180
G1 X49.294 Y78.241 F3600.000
G1 X71.528 Y100.475 E35.32531 F1800.000
G1 X71.528 Y101.359 E35.35269
G1 X49.711 Y79.542 E36.30792
G1 X49.933 Y80.648 E36.34284
G1 X71.528 Y102.243 E37.28838
G1 X71.528 Y103.127 E37.31576
G1 X50.032 Y81.632 E38.25694
G1 X50.054 Y82.538 E38.28500
G1 X71.528 Y104.012 E39.22522
G1 X71.528 Y104.896 E39.25260
G1 X50.000 Y83.368 E40.19520
G1 X49.886 Y84.138 E40.21930
G1 X71.528 Y105.780 E41.16690
G1 X71.528 Y106.664 E41.19427
G1 X49.738 Y84.874 E42.14835
G1 X49.542 Y85.563 E42.17052
G1 X71.528 Y107.549 E43.13315
G1 X71.528 Y108.433 E43.16053
G1 X49.309 Y86.214 E44.13338
G1 X49.055 Y86.845 E44.15443
G1 X71.528 Y109.317 E45.13837
G1 X71.528 Y110.202 E45.16575
G1 X48.752 Y87.425 E46.16299
G1 X46.252 Y96.421 F3600.000
G1 X49.929 Y100.098 E46.32398 F1800.000
G1 X50.813 Y100.098 E46.35135
G1 X46.252 Y95.537 E46.55105
G1 X46.252 Y94.653 E46.57843
G1 X51.697 Y100.098 E46.81685
G1 X52.582 Y100.098 E46.84422
G1 X46.252 Y93.768 E47.12136
G1 X46.252 Y92.884 E47.14873
G1 X53.466 Y100.098 E47.46459
G1 X54.350 Y100.098 E47.49196
G1 X46.252 Y92.000 E47.84653
G1 X46.252 Y91.116 E47.87391
G1 X55.234 Y100.098 E48.26720
G1 X56.119 Y100.098 E48.29457
G1 X46.426 Y90.405 E48.71895
G1 X46.877 Y89.972 E48.73832
G1 X57.003 Y100.098 E49.18169
G1 X57.887 Y100.098 E49.20907
G1 X47.301 Y89.512 E49.67257
G1 X47.707 Y89.034 E49.69199
G1 X58.771 Y100.098 E50.17643
G1 X59.656 Y100.098 E50.20381
G1 X48.081 Y88.523 E50.71062
G1 X48.437 Y87.995 E50.73034
G1 X71.528 Y111.086 E51.74138
G1 X71.528 Y111.970 E51.76876
G1 X60.222 Y100.664 E52.26378
G1 X60.222 Y101.549 E52.29116
G1 X71.528 Y112.854 E52.78618
G1 X71.222 Y113.433 E52.80644
G1 X60.222 Y102.433 E53.28808
G1 X60.222 Y103.317 E53.31545
G1 X70.338 Y113.433 E53.75837
G1 X69.454 Y113.433 E53.78575
G1 X60.222 Y104.201 E54.18995
G1 X60.222 Y105.086 E54.21733
G1 X68.569 Y113.433 E54.58281
G1 X67.685 Y113.433 E54.61019
G1 X60.222 Y105.970 E54.93695
G1 X60.222 Y106.854 E54.96433
G1 X66.801 Y113.433 E55.25238
G1 X65.917 Y113.433 E55.27976
G1 X60.222 Y107.738 E55.52909
G1 X60.222 Y108.623 E55.55646
G1 X65.032 Y113.433 E55.76708
G1 X64.148 Y113.433 E55.79446
G1 X60.222 Y109.507 E55.96635
G1 X60.213 Y110.382 E55.99345
G1 X63.264 Y113.433 E56.12703
G1 X62.379 Y113.433 E56.15440
G1 X59.329 Y110.382 E56.28798
G1 X58.444 Y110.382 E56.31536
G1 X61.495 Y113.433 E56.44894
G1 X60.611 Y113.433 E56.47632
G1 X57.560 Y110.382 E56.60990
G1 X56.676 Y110.382 E56.63727
G1 X59.727 Y113.433 E56.77085
G1 X58.842 Y113.433 E56.79823
G1 X55.792 Y110.382 E56.93181
G1 X54.907 Y110.382 E56.95919
G1 X57.958 Y113.433 E57.09277
G1 X57.074 Y113.433 E57.12014
G1 X54.023 Y110.382 E57.25372
G1 X53.139 Y110.382 E57.28110
G1 X56.190 Y113.433 E57.41468
G1 X55.305 Y113.433 E57.44206
G1 X52.254 Y110.382 E57.57564
G1 X51.370 Y110.382 E57.60301
G1 X54.421 Y113.433 E57.73659
G1 X53.537 Y113.433 E57.76397
G1 X50.486 Y110.382 E57.89755
G1 X49.602 Y110.382 E57.92493
G1 X52.652 Y113.433 E58.05851
G1 X48.231 Y113.433 F3600.000
G1 X28.472 Y93.674 E58.92365 F1800.000
G1 X28.472 Y94.558 E58.95103
G1 X47.347 Y113.433 E59.77745
G1 X46.463 Y113.433 E59.80483
G1 X28.472 Y95.442 E60.59254
G1 X28.472 Y96.327 E60.61991
G1 X45.578 Y113.433 E61.36890
G1 X44.694 Y113.433 E61.39628
G1 X28.472 Y97.211 E62.10655
G1 X28.472 Y98.095 E62.13393
G1 X43.810 Y113.433 E62.80548
G1 X42.926 Y113.433 E62.83286
G1 X28.472 Y98.979 E63.46570
G1 X28.472 Y99.864 E63.49308
G1 X42.041 Y113.433 E64.08720
G1 X41.157 Y113.433 E64.11457
G1 X28.472 Y100.748 E64.66997
G1 X28.472 Y101.632 E64.69735
G1 X40.273 Y113.433 E65.21404
G1 X39.388 Y113.433 E65.24141
G1 X28.472 Y102.517 E65.71938
G1 X28.472 Y103.401 E65.74676
G1 X38.504 Y113.433 E66.18601
