; generated by Slic3r 1.2.6 on 2015-04-04 at 14:29:09

; external perimeters extrusion width = 0.50mm
; perimeters extrusion width = 0.72mm
; infill extrusion width = 0.72mm
; solid infill extrusion width = 0.72mm
; top infill extrusion width = 0.72mm
; support material extrusion width = 0.50mm

M107
M190 S110 ; set bed temperature
M104 S230 ; set temperature
G28 ; home all axes
G1 Z1 F100 ; lift nozzle
M203 X4000 Y4000 Z20 ; set feedrate limits
M109 S230 ; wait for temperature to be reached
G21 ; set units to millimeters
G90 ; use absolute coordinates
M82 ; use absolute distances for extrusion
G92 E0
G1 E-2.00000 F600.00000
G92 E0
G1 Z0.500 F3600.000
G1 X20.968 Y92.559 F3600.000
G1 Z0.350 F3600.000
G1 E2.00000 F600.00000
G1 X22.695 Y92.350 E2.05382 F1800.000
G1 X77.305 Y92.350 E3.74353
G1 X79.672 Y92.747 E3.81779
G1 X81.779 Y93.896 E3.89204 F1800.000
G1 X83.396 Y95.669 E3.96630
G1 X84.346 Y97.873 E4.04056
G1 X84.555 Y99.600 E4.09438
G1 X84.555 Y150.400 E5.66620
G1 X84.158 Y152.767 E5.74046
G1 X83.009 Y154.874 E5.81472
G1 X81.236 Y156.491 E5.88897
G1 X79.032 Y157.441 E5.96323
G1 X77.305 Y157.650 E6.01705
G1 X22.695 Y157.650 E7.70676
G1 X20.328 Y157.253 E7.78102
G1 X18.221 Y156.104 E7.85528
G1 X16.604 Y154.331 E7.92953
G1 X15.654 Y152.127 E8.00379
G1 X15.445 Y150.400 E8.05761
G1 X15.445 Y99.600 E9.62943
G1 X15.842 Y97.233 E9.70369
G1 X16.991 Y95.126 E9.77795
G1 X18.764 Y93.509 E9.85221
G1 X20.899 Y92.589 E9.92414
G1 X21.203 Y93.196 F3600.000
G1 X21.515 Y93.081 E9.93444 F1800.000
G1 X22.695 Y92.975 E9.97110
G1 X77.305 Y92.975 E11.66080
G1 X79.564 Y93.372 E11.73176
G1 X81.552 Y94.515 E11.80273 F1800.000
G1 X83.031 Y96.268 E11.87369
G1 X83.824 Y98.420 E11.94465
G1 X83.930 Y99.600 E11.98130
G1 X83.930 Y150.400 E13.55312
G1 X83.533 Y152.659 E13.62408
G1 X82.390 Y154.647 E13.69504
G1 X80.637 Y156.126 E13.76601
G1 X78.485 Y156.919 E13.83697
G1 X77.305 Y157.025 E13.87362
G1 X22.695 Y157.025 E15.56333
G1 X20.436 Y156.628 E15.63429
G1 X18.448 Y155.485 E15.70525
G1 X16.969 Y153.732 E15.77621
G1 X16.176 Y151.580 E15.84717
G1 X16.070 Y150.400 E15.88383
G1 X16.070 Y99.600 E17.45564
G1 X16.467 Y97.341 E17.52661
G1 X17.610 Y95.353 E17.59757
G1 X19.363 Y93.874 E17.66853
G1 X21.132 Y93.222 E17.72687
G1 E15.72687 F600.00000
G92 E0
G1 Z0.850 F3600.000
G1 X23.045 Y150.050 F3600.000
G1 Z0.350 F3600.000
G1 E2.00000 F600.00000
G1 X23.045 Y99.950 E3.55016 F1800.000
G1 X76.955 Y99.950 E5.21821
G1 X76.955 Y150.050 E6.76837
G1 X23.120 Y150.050 E8.43409
G1 X23.295 Y149.617 F3600.000
G1 X23.670 Y149.425 F3600.000
G1 X23.670 Y100.575 E9.94558 F1800.000
G1 X76.330 Y100.575 E11.57496
G1 X76.330 Y149.425 E13.08645
G1 X23.745 Y149.425 E14.71350
G1 X29.375 Y148.800 F3600.000
G1 X29.375 Y101.200 E16.18632 F1800.000
G1 X70.625 Y101.200 E17.46267
G1 X70.625 Y148.800 E18.93549
G1 X29.450 Y148.800 E20.20951
G1 X35.045 Y130.430 F3600.000
G1 X35.045 Y124.847 E20.38226 F1800.000
G1 X34.440 Y124.378 E20.40594
G1 X33.750 Y123.717 E20.43551
G1 X33.118 Y122.969 E20.46581
G1 X32.592 Y122.202 E20.49459
G1 X32.137 Y121.362 E20.52414
G1 X31.770 Y120.480 E20.55369
G1 X31.497 Y119.565 E20.58324
G1 X31.319 Y118.627 E20.61279
G1 X31.239 Y117.675 E20.64234
G1 X31.258 Y116.720 E20.67189
G1 X31.375 Y115.772 E20.70145
G1 X31.590 Y114.842 E20.73100
G1 X31.899 Y113.938 E20.76055
G1 X32.301 Y113.071 E20.79013
G1 X32.820 Y112.209 E20.82124
G1 X33.359 Y111.485 E20.84919
G1 X34.006 Y110.782 E20.87874
G1 X34.722 Y110.149 E20.90829
G1 X35.499 Y109.594 E20.93784
G1 X36.329 Y109.122 E20.96739
G1 X37.203 Y108.738 E20.99694
G1 X38.113 Y108.447 E21.02649
G1 X39.048 Y108.250 E21.05605
G1 X39.997 Y108.152 E21.08560
G1 X40.953 Y108.152 E21.11515
G1 X41.903 Y108.251 E21.14473
G1 X42.886 Y108.462 E21.17584
G1 X43.747 Y108.738 E21.20379
G1 X44.621 Y109.122 E21.23334
G1 X45.451 Y109.594 E21.26289
G1 X46.228 Y110.149 E21.29244
G1 X46.944 Y110.782 E21.32199
G1 X47.591 Y111.485 E21.35154
G1 X48.162 Y112.251 E21.38112
G1 X48.671 Y113.118 E21.41223
G1 X49.051 Y113.938 E21.44019
G1 X49.360 Y114.842 E21.46974
G1 X49.575 Y115.772 E21.49929
G1 X49.692 Y116.720 E21.52884
G1 X49.711 Y117.675 E21.55839
G1 X49.631 Y118.627 E21.58794
G1 X49.453 Y119.565 E21.61749
G1 X49.180 Y120.480 E21.64704
G1 X48.813 Y121.362 E21.67659
G1 X48.358 Y122.200 E21.70611
G1 X47.856 Y122.945 E21.73390
G1 X47.200 Y123.717 E21.76526
G1 X46.510 Y124.378 E21.79481
G1 X45.905 Y124.847 E21.81849
G1 X45.905 Y130.430 E21.99124
G1 X35.120 Y130.430 E22.32494
G1 X34.545 Y130.430 F3600.000
G1 X34.420 Y131.055 F3600.000
G1 X34.420 Y125.153 E22.50755 F1800.000
G1 X34.032 Y124.852 E22.52277
G1 X33.294 Y124.146 E22.55436
G1 X32.620 Y123.348 E22.58666
G1 X32.058 Y122.528 E22.61742
G1 X31.572 Y121.632 E22.64897
G1 X31.181 Y120.690 E22.68052
G1 X30.889 Y119.713 E22.71208
G1 X30.699 Y118.711 E22.74363
G1 X30.614 Y117.695 E22.77518
G1 X30.634 Y116.675 E22.80673
G1 X30.759 Y115.663 E22.83828
G1 X30.988 Y114.670 E22.86983
G1 X31.319 Y113.705 E22.90139
G1 X31.748 Y112.777 E22.93302
G1 X32.300 Y111.861 E22.96613
G1 X32.878 Y111.086 E22.99603
G1 X33.568 Y110.335 E23.02759
G1 X34.332 Y109.660 E23.05914
G1 X35.162 Y109.067 E23.09069
G1 X36.048 Y108.563 E23.12224
G1 X36.982 Y108.153 E23.15379
G1 X37.953 Y107.842 E23.18534
G1 X38.951 Y107.632 E23.21690
G1 X39.965 Y107.527 E23.24845
G1 X40.985 Y107.527 E23.28000
G1 X42.002 Y107.633 E23.31163
G1 X43.048 Y107.858 E23.34474
G1 X43.968 Y108.153 E23.37465
G1 X44.902 Y108.563 E23.40620
G1 X45.788 Y109.067 E23.43775
G1 X46.618 Y109.660 E23.46930
G1 X47.382 Y110.335 E23.50085
G1 X48.072 Y111.086 E23.53241
G1 X48.683 Y111.905 E23.56404
G1 X49.225 Y112.828 E23.59715
G1 X49.631 Y113.705 E23.62705
G1 X49.962 Y114.670 E23.65860
G1 X50.191 Y115.663 E23.69016
G1 X50.316 Y116.675 E23.72171
G1 X50.336 Y117.695 E23.75326
G1 X50.251 Y118.711 E23.78481
G1 X50.061 Y119.713 E23.81636
G1 X49.769 Y120.690 E23.84791
G1 X49.378 Y121.632 E23.87947
G1 X48.893 Y122.525 E23.91091
G1 X48.354 Y123.323 E23.94071
G1 X47.655 Y124.147 E23.97413
G1 X46.918 Y124.852 E24.00568
G1 X46.530 Y125.153 E24.02090
G1 X46.530 Y131.055 E24.20351
G1 X34.495 Y131.055 E24.57588
G1 X33.795 Y131.680 F3600.000
G1 X33.795 Y125.459 E24.76836 F1800.000
G1 X33.623 Y125.325 E24.77511
G1 X32.838 Y124.574 E24.80873
G1 X32.122 Y123.727 E24.84303
G1 X31.525 Y122.855 E24.87576
G1 X31.007 Y121.901 E24.90932
G1 X30.591 Y120.900 E24.94287
G1 X30.281 Y119.861 E24.97642
G1 X30.079 Y118.796 E25.00997
G1 X29.988 Y117.715 E25.04353
G1 X30.010 Y116.631 E25.07708
G1 X30.143 Y115.555 E25.11063
G1 X30.387 Y114.498 E25.14418
G1 X30.738 Y113.472 E25.17774
G1 X31.195 Y112.484 E25.21142
G1 X31.781 Y111.512 E25.24654
G1 X32.396 Y110.686 E25.27839
G1 X33.130 Y109.888 E25.31194
G1 X33.942 Y109.170 E25.34549
G1 X34.825 Y108.540 E25.37905
G1 X35.767 Y108.004 E25.41260
G1 X36.760 Y107.568 E25.44615
G1 X37.793 Y107.237 E25.47970
G1 X38.854 Y107.014 E25.51326
G1 X39.933 Y106.902 E25.54681
G1 X41.017 Y106.902 E25.58036
G1 X42.100 Y107.014 E25.61405
G1 X43.209 Y107.253 E25.64916
G1 X44.190 Y107.568 E25.68101
G1 X45.183 Y108.004 E25.71457
G1 X46.125 Y108.540 E25.74812
G1 X47.008 Y109.170 E25.78167
G1 X47.820 Y109.888 E25.81522
G1 X48.554 Y110.686 E25.84878
G1 X49.205 Y111.559 E25.88246
G1 X49.780 Y112.538 E25.91758
G1 X50.212 Y113.472 E25.94943
G1 X50.563 Y114.498 E25.98298
G1 X50.807 Y115.555 E26.01653
G1 X50.940 Y116.631 E26.05009
G1 X50.962 Y117.715 E26.08364
G1 X50.871 Y118.796 E26.11719
G1 X50.669 Y119.861 E26.15075
G1 X50.359 Y120.900 E26.18430
G1 X49.943 Y121.901 E26.21785
G1 X49.428 Y122.850 E26.25123
G1 X48.853 Y123.701 E26.28303
G1 X48.111 Y124.576 E26.31852
G1 X47.327 Y125.325 E26.35207
G1 X47.155 Y125.459 E26.35882
G1 X47.155 Y131.680 E26.55130
G1 X33.870 Y131.680 E26.96234
G1 X49.015 Y133.540 F3600.000
G1 X57.335 Y133.540 E27.21977 F1800.000
G1 X57.335 Y140.590 E27.43791
G1 X49.015 Y140.590 E27.69534
G1 X49.015 Y133.615 E27.91115
G1 X49.015 Y133.040 F3600.000
G1 X48.390 Y132.915 F3600.000
G1 X57.960 Y132.915 E28.20725 F1800.000
G1 X57.960 Y141.215 E28.46406
G1 X48.390 Y141.215 E28.76016
G1 X48.390 Y132.990 E29.01465
G1 X47.765 Y132.290 F3600.000
G1 X58.585 Y132.290 E29.34942 F1800.000
G1 X58.585 Y141.840 E29.64489
G1 X47.765 Y141.840 E29.97967
G1 X47.765 Y132.365 E30.27282
G1 X28.125 Y148.210 F3600.000
G1 X24.885 Y148.210 E30.37307 F1800.000
G1 X24.885 Y101.790 E31.80937
G1 X28.125 Y101.790 E31.90962
G1 X28.125 Y148.135 E33.34359
G1 X28.125 Y148.710 F3600.000
G1 X28.750 Y148.835 F3600.000
G1 X24.260 Y148.835 E33.48251 F1800.000
G1 X24.260 Y101.165 E34.95748
G1 X28.750 Y101.165 E35.09640
G1 X28.750 Y148.760 E36.56904
G1 X71.875 Y148.210 F3600.000
G1 X71.875 Y101.790 E38.00534 F1800.000
G1 X75.115 Y101.790 E38.10559
G1 X75.115 Y148.210 E39.54188
G1 X71.950 Y148.210 E39.63981
G1 X71.375 Y148.210 F3600.000
G1 X71.250 Y148.835 F3600.000
G1 X71.250 Y101.165 E41.11478 F1800.000
G1 X75.740 Y101.165 E41.25370
G1 X75.740 Y148.835 E42.72866
G1 X71.325 Y148.835 E42.86526
G1 X58.952 Y141.921 F3600.000
G1 X65.464 Y148.433 E43.15076 F1800.000
G1 X66.349 Y148.433 E43.17821
G1 X58.952 Y141.036 E43.50252
G1 X58.952 Y140.150 E43.52997
G1 X67.235 Y148.433 E43.89310
G1 X68.120 Y148.433 E43.92055
G1 X58.952 Y139.265 E44.32250
G1 X58.952 Y138.379 E44.34995
G1 X69.006 Y148.433 E44.79072
G1 X69.891 Y148.433 E44.81817
G1 X58.952 Y137.494 E45.29776
G1 X58.952 Y136.608 E45.32521
G1 X70.258 Y147.914 E45.82087
G1 X70.258 Y147.029 E45.84832
G1 X58.952 Y135.723 E46.34399
G1 X58.952 Y134.838 E46.37144
G1 X70.258 Y146.143 E46.86710
G1 X70.258 Y145.258 E46.89455
G1 X58.952 Y133.952 E47.39022
G1 X58.952 Y133.067 E47.41766
G1 X70.258 Y144.373 E47.91333
G1 X70.258 Y143.487 E47.94078
G1 X49.732 Y122.961 E48.84067
G1 X50.043 Y122.387 E48.86092
G1 X70.258 Y142.602 E49.74716
G1 X70.258 Y141.716 E49.77461
G1 X50.339 Y121.798 E50.64787
G1 X50.599 Y121.172 E50.66886
G1 X70.258 Y140.831 E51.53073
G1 X70.258 Y139.945 E51.55818
G1 X50.824 Y120.512 E52.41017
G1 X51.027 Y119.829 E52.43226
G1 X70.258 Y139.060 E53.27539
G1 X70.258 Y138.175 E53.30284
G1 X51.167 Y119.084 E54.13980
G1 X51.270 Y118.302 E54.16427
G1 X70.258 Y137.289 E54.99671
G1 X70.258 Y136.404 E55.02416
G1 X51.327 Y117.473 E55.85413
G1 X51.309 Y116.569 E55.88214
G1 X70.258 Y135.518 E56.71289
G1 X70.258 Y134.633 E56.74034
G1 X51.197 Y115.571 E57.57602
G1 X50.964 Y114.454 E57.61142
G1 X70.258 Y133.747 E58.45729
G1 X70.258 Y132.862 E58.48474
G1 X50.540 Y113.144 E59.34922
G1 X49.572 Y111.290 F3600.000
G1 X70.258 Y131.977 E60.25615 F1800.000
G1 X70.258 Y131.091 E60.28360
G1 X40.734 Y101.567 E61.57798
G1 X41.619 Y101.567 E61.60543
G1 X70.258 Y130.206 E62.86099
G1 X70.258 Y129.320 E62.88844
G1 X42.505 Y101.567 E64.10519
G1 X43.390 Y101.567 E64.13264
G1 X70.258 Y128.435 E65.31056
G1 X70.258 Y127.549 E65.33801
G1 X44.276 Y101.567 E66.47712
G1 X45.161 Y101.567 E66.50457
G1 X70.258 Y126.664 E67.60486
G1 X70.258 Y125.779 E67.63231
G1 X46.046 Y101.567 E68.69378
G1 X46.932 Y101.567 E68.72123
G1 X70.258 Y124.893 E69.74389
G1 X70.258 Y124.008 E69.77134
G1 X47.817 Y101.567 E70.75517
G1 X48.703 Y101.567 E70.78262
G1 X70.258 Y123.122 E71.72764
G1 X70.258 Y122.237 E71.75509
G1 X49.588 Y101.567 E72.66129
G1 X50.473 Y101.567 E72.68874
G1 X70.258 Y121.352 E73.55612
G1 X70.258 Y120.466 E73.58357
G1 X51.359 Y101.567 E74.41213
G1 X52.244 Y101.567 E74.43958
G1 X70.258 Y119.581 E75.22932
G1 X70.258 Y118.695 E75.25677
G1 X53.130 Y101.567 E76.00770
G1 X54.015 Y101.567 E76.03515
G1 X70.258 Y117.810 E76.74725
G1 X70.258 Y116.924 E76.77470
G1 X54.901 Y101.567 E77.44799
G1 X55.786 Y101.567 E77.47544
G1 X70.258 Y116.039 E78.10991
G1 X70.258 Y115.154 E78.13736
G1 X56.671 Y101.567 E78.73301
G1 X57.557 Y101.567 E78.76046
G1 X70.258 Y114.268 E79.31730
G1 X70.258 Y113.383 E79.34474
G1 X58.442 Y101.567 E79.86276
G1 X59.328 Y101.567 E79.89021
G1 X70.258 Y112.497 E80.36941
G1 X70.258 Y111.612 E80.39685
G1 X60.213 Y101.567 E80.83723
G1 X61.099 Y101.567 E80.86468
G1 X70.258 Y110.726 E81.26624
G1 X70.258 Y109.841 E81.29369
G1 X61.984 Y101.567 E81.65643
G1 X62.869 Y101.567 E81.68388
G1 X70.258 Y108.956 E82.00781
G1 X70.258 Y108.070 E82.03526
G1 X63.755 Y101.567 E82.32036
G1 X64.640 Y101.567 E82.34781
G1 X70.258 Y107.185 E82.59410
G1 X70.258 Y106.299 E82.62155
G1 X65.526 Y101.567 E82.82901
G1 X66.411 Y101.567 E82.85646
G1 X70.258 Y105.414 E83.02511
G1 X70.258 Y104.528 E83.05256
G1 X67.297 Y101.567 E83.18239
G1 X68.182 Y101.567 E83.20984
G1 X70.258 Y103.643 E83.30086
G1 X70.258 Y102.758 E83.32831
G1 X69.067 Y101.567 E83.38050
G1 X69.953 Y101.567 E83.40795
G1 X70.258 Y101.872 E83.42133
G1 X46.542 Y108.261 F3600.000
G1 X39.848 Y101.567 E83.71479 F1800.000
G1 X38.963 Y101.567 E83.74224
G1 X44.729 Y107.333 E83.99501
G1 X43.397 Y106.887 F3600.000
G1 X38.078 Y101.567 E84.22823 F1800.000
G1 X37.192 Y101.567 E84.25567
G1 X42.274 Y106.649 E84.47846
G1 X41.286 Y106.546 E84.50925
G1 X36.307 Y101.567 E84.72755
G1 X35.421 Y101.567 E84.75500
G1 X40.389 Y106.535 E84.97279
G1 X39.554 Y106.585 E84.99872
G1 X34.536 Y101.567 E85.21872
G1 X33.650 Y101.567 E85.24617
G1 X38.766 Y106.682 E85.47043
G1 X38.034 Y106.836 E85.49361
G1 X32.765 Y101.567 E85.72460
G1 X31.880 Y101.567 E85.75205
G1 X37.343 Y107.031 E85.99159
G1 X36.676 Y107.249 E86.01335
G1 X30.994 Y101.567 E86.26247
G1 X30.109 Y101.567 E86.28992
G1 X36.061 Y107.519 E86.55088
G1 X35.465 Y107.808 E86.57142
G1 X29.742 Y102.086 E86.82231
G1 X29.742 Y102.971 E86.84976
G1 X34.900 Y108.129 E87.07590
G1 X34.366 Y108.480 E87.09572
G1 X29.742 Y103.857 E87.29843
G1 X29.742 Y104.742 E87.32588
G1 X33.849 Y108.849 E87.50595
G1 X33.372 Y109.257 E87.52542
G1 X29.742 Y105.628 E87.68454
G1 X29.742 Y106.513 E87.71199
G1 X32.903 Y109.673 E87.85055
G1 X32.478 Y110.135 E87.86998
G1 X29.742 Y107.398 E87.98994
G1 X29.742 Y108.284 E88.01739
G1 X32.064 Y110.606 E88.11918
G1 X31.686 Y111.113 E88.13879
G1 X29.742 Y109.169 E88.22401
G1 X29.742 Y110.055 E88.25146
G1 X31.331 Y111.643 E88.32111
G1 X30.998 Y112.196 E88.34110
G1 X29.742 Y110.940 E88.39615
G1 X29.742 Y111.826 E88.42360
G1 X30.700 Y112.783 E88.46559
G1 X30.083 Y121.906 F3600.000
G1 X30.999 Y122.822 E88.50572 F1800.000
G1 X33.428 Y126.136 F3600.000
G1 X29.742 Y122.451 E88.66732 F1800.000
G1 X29.742 Y123.336 E88.69477
G1 X33.428 Y127.022 E88.85636
G1 X33.428 Y127.907 E88.88381
G1 X29.742 Y124.221 E89.04540
G1 X29.742 Y125.107 E89.07285
G1 X33.428 Y128.793 E89.23444
G1 X33.428 Y129.678 E89.26189
G1 X29.742 Y125.992 E89.42348
G1 X29.742 Y126.878 E89.45093
G1 X33.428 Y130.564 E89.61252
G1 X33.428 Y131.449 F3600.000
G1 X29.742 Y127.763 E89.77412 F1800.000
G1 X29.742 Y128.649 E89.80156
G1 X49.526 Y148.433 E90.66894
G1 X48.641 Y148.433 E90.69639
G1 X29.742 Y129.534 E91.52495
G1 X29.742 Y130.419 E91.55240
G1 X47.756 Y148.433 E92.34214
G1 X46.870 Y148.433 E92.36959
G1 X29.742 Y131.305 E93.12052
G1 X29.742 Y132.190 E93.14796
G1 X45.985 Y148.433 E93.86007
G1 X45.099 Y148.433 E93.88752
G1 X29.742 Y133.076 E94.56080
G1 X29.742 Y133.961 E94.58825
G1 X44.214 Y148.433 E95.22272
G1 X43.328 Y148.433 E95.25017
G1 X29.742 Y134.847 E95.84582
G1 X29.742 Y135.732 E95.87327
G1 X42.443 Y148.433 E96.43010
G1 X41.558 Y148.433 E96.45755
G1 X29.742 Y136.617 E96.97556
G1 X29.742 Y137.503 E97.00301
G1 X40.672 Y148.433 E97.48221
G1 X39.787 Y148.433 E97.50966
G1 X29.742 Y138.388 E97.95003
G1 X29.742 Y139.274 E97.97748
G1 X38.901 Y148.433 E98.37904
G1 X38.016 Y148.433 E98.40649
G1 X29.742 Y140.159 E98.76923
G1 X29.742 Y141.044 E98.79668
G1 X37.131 Y148.433 E99.12060
G1 X36.245 Y148.433 E99.14805
G1 X29.742 Y141.930 E99.43315
G1 X29.742 Y142.815 E99.46060
G1 X35.360 Y148.433 E99.70688
G1 X34.474 Y148.433 E99.73433
G1 X29.742 Y143.701 E99.94180
G1 X29.742 Y144.586 E99.96925
G1 X33.589 Y148.433 E100.13790
G1 X32.703 Y148.433 E100.16534
G1 X29.742 Y145.472 E100.29517
G1 X29.742 Y146.357 E100.32262
G1 X31.818 Y148.433 E100.41363
G1 X30.933 Y148.433 E100.44108
G1 X29.742 Y147.242 E100.49328
G1 X29.742 Y148.128 E100.52073
G1 X30.047 Y148.433 E100.53410
G1 X34.026 Y132.047 F3600.000
G1 X50.412 Y148.433 E101.25248 F1800.000
G1 X51.297 Y148.433 E101.27993
G1 X34.911 Y132.047 E101.99831
G1 X35.797 Y132.047 E102.02576
G1 X52.183 Y148.433 E102.74414
