; generated by Slic3r 1.2.6 on 2015-03-04 at 22:58:30

; external perimeters extrusion width = 0.50mm
; perimeters extrusion width = 0.72mm
; infill extrusion width = 0.72mm
; solid infill extrusion width = 0.72mm
; top infill extrusion width = 0.72mm
; support material extrusion width = 0.50mm

M107
M190 S110 ; set bed temperature
M104 S230 ; set temperature
G28 ; home all axes
G1 Z1 F100 ; lift nozzle
M203 X4000 Y4000 Z20 ; set feedrate limits
M109 S230 ; wait for temperature to be reached
G21 ; set units to millimeters
G90 ; use absolute coordinates
M82 ; use absolute distances for extrusion
G92 E0
G1 E-2.00000 F600.00000
G92 E0
G1 Z0.500 F3600.000
G1 X20.968 Y57.559 F3600.000
G1 Z0.350 F3600.000
G1 E2.00000 F600.00000
G1 X22.695 Y57.350 E2.05382 F1800.000
G1 X77.305 Y57.350 E3.74353
G1 X79.672 Y57.747 E3.81779
G1 X81.779 Y58.896 E3.89204 F1800.000
G1 X83.396 Y60.669 E3.96630
G1 X84.346 Y62.873 E4.04056
G1 X84.555 Y64.600 E4.09438
G1 X84.555 Y115.400 E5.66620
G1 X84.158 Y117.767 E5.74046
G1 X83.009 Y119.874 E5.81472
G1 X81.236 Y121.491 E5.88897
G1 X79.032 Y122.441 E5.96323
G1 X77.305 Y122.650 E6.01705
G1 X22.695 Y122.650 E7.70676
G1 X20.328 Y122.253 E7.78102
G1 X18.221 Y121.104 E7.85528
G1 X16.604 Y119.331 E7.92953
G1 X15.654 Y117.127 E8.00379
G1 X15.445 Y115.400 E8.05761
G1 X15.445 Y64.600 E9.62943
G1 X15.842 Y62.233 E9.70369
G1 X16.991 Y60.126 E9.77795
G1 X18.764 Y58.509 E9.85221
G1 X20.899 Y57.589 E9.92414
G1 X21.203 Y58.196 F3600.000
G1 X21.515 Y58.081 E9.93444 F1800.000
G1 X22.695 Y57.975 E9.97110
G1 X77.305 Y57.975 E11.66080
G1 X79.564 Y58.372 E11.73176
G1 X81.552 Y59.515 E11.80273 F1800.000
G1 X83.031 Y61.268 E11.87369
G1 X83.824 Y63.420 E11.94465
G1 X83.930 Y64.600 E11.98130
G1 X83.930 Y115.400 E13.55312
G1 X83.533 Y117.659 E13.62408
G1 X82.390 Y119.647 E13.69504
G1 X80.637 Y121.126 E13.76601
G1 X78.485 Y121.919 E13.83697
G1 X77.305 Y122.025 E13.87362
G1 X22.695 Y122.025 E15.56333
G1 X20.436 Y121.628 E15.63429
G1 X18.448 Y120.485 E15.70525
G1 X16.969 Y118.732 E15.77621
G1 X16.176 Y116.580 E15.84717
G1 X16.070 Y115.400 E15.88383
G1 X16.070 Y64.600 E17.45564
G1 X16.467 Y62.341 E17.52661
G1 X17.610 Y60.353 E17.59757
G1 X19.363 Y58.874 E17.66853
G1 X21.132 Y58.222 E17.72687
G1 E15.72687 F600.00000
G92 E0
G1 Z0.850 F3600.000
G1 X71.250 Y113.835 F3600.000
G1 Z0.350 F3600.000
G1 E2.00000 F600.00000
G1 X71.250 Y66.165 E3.47497 F1800.000
G1 X75.740 Y66.165 E3.61389
G1 X75.740 Y113.835 E5.08885
G1 X71.325 Y113.835 E5.22545
G1 X71.875 Y113.210 F3600.000
G1 X71.875 Y66.790 E6.66175 F1800.000
G1 X75.115 Y66.790 E6.76200
G1 X75.115 Y113.210 E8.19829
G1 X71.950 Y113.210 E8.29622
G1 X71.375 Y113.210 F3600.000
G1 X28.750 Y113.835 F3600.000
G1 X24.260 Y113.835 E8.43514 F1800.000
G1 X24.260 Y66.165 E9.91011
G1 X28.750 Y66.165 E10.04903
G1 X28.750 Y113.760 E11.52167
G1 X28.125 Y113.210 F3600.000
G1 X24.885 Y113.210 E11.62192 F1800.000
G1 X24.885 Y66.790 E13.05822
G1 X28.125 Y66.790 E13.15847
G1 X28.125 Y113.135 E14.59244
G1 X28.125 Y113.710 F3600.000
G1 X47.765 Y106.840 F3600.000
G1 X47.765 Y97.290 E14.88792 F1800.000
G1 X58.585 Y97.290 E15.22269
G1 X58.585 Y106.840 E15.51816
G1 X47.840 Y106.840 E15.85061
G1 X48.390 Y106.215 F3600.000
G1 X48.390 Y97.915 E16.10742 F1800.000
G1 X57.960 Y97.915 E16.40352
G1 X57.960 Y106.215 E16.66033
G1 X48.465 Y106.215 E16.95411
G1 X49.015 Y105.590 F3600.000
G1 X49.015 Y98.540 E17.17225 F1800.000
G1 X57.335 Y98.540 E17.42968
G1 X57.335 Y105.590 E17.64781
G1 X49.090 Y105.590 E17.90292
G1 X48.515 Y105.590 F3600.000
G1 X47.155 Y96.680 F3600.000
G1 X33.795 Y96.680 E18.31629 F1800.000
G1 X33.795 Y90.459 E18.50876
G1 X33.623 Y90.325 E18.51551
G1 X32.838 Y89.574 E18.54913
G1 X32.122 Y88.727 E18.58343
G1 X31.525 Y87.855 E18.61617
G1 X31.007 Y86.901 E18.64972
G1 X30.591 Y85.900 E18.68327
G1 X30.281 Y84.861 E18.71682
G1 X30.079 Y83.796 E18.75038
G1 X29.988 Y82.715 E18.78393
G1 X30.010 Y81.631 E18.81748
G1 X30.143 Y80.555 E18.85104
G1 X30.387 Y79.498 E18.88459
G1 X30.738 Y78.472 E18.91814
G1 X31.195 Y77.484 E18.95183
G1 X31.781 Y76.512 E18.98694
G1 X32.396 Y75.686 E19.01879
G1 X33.130 Y74.888 E19.05234
G1 X33.942 Y74.170 E19.08590
G1 X34.825 Y73.540 E19.11945
G1 X35.767 Y73.004 E19.15300
G1 X36.760 Y72.568 E19.18656
G1 X37.793 Y72.237 E19.22011
G1 X38.854 Y72.014 E19.25366
G1 X39.933 Y71.902 E19.28721
G1 X41.017 Y71.902 E19.32077
G1 X42.100 Y72.014 E19.35445
G1 X43.209 Y72.253 E19.38957
G1 X44.190 Y72.568 E19.42142
G1 X45.183 Y73.004 E19.45497
G1 X46.125 Y73.540 E19.48852
G1 X47.008 Y74.170 E19.52208
G1 X47.820 Y74.888 E19.55563
G1 X48.554 Y75.686 E19.58918
G1 X49.205 Y76.559 E19.62287
G1 X49.780 Y77.538 E19.65798
G1 X50.212 Y78.472 E19.68983
G1 X50.563 Y79.498 E19.72338
G1 X50.807 Y80.555 E19.75694
G1 X50.940 Y81.631 E19.79049
G1 X50.962 Y82.715 E19.82404
G1 X50.871 Y83.796 E19.85760
G1 X50.669 Y84.861 E19.89115
G1 X50.359 Y85.900 E19.92470
G1 X49.943 Y86.901 E19.95825
G1 X49.428 Y87.850 E19.99164
G1 X48.853 Y88.701 E20.02343
G1 X48.111 Y89.576 E20.05892
G1 X47.327 Y90.325 E20.09248
G1 X47.155 Y90.459 E20.09922
G1 X47.155 Y96.605 E20.28938
G1 X46.530 Y96.055 F3600.000
G1 X34.420 Y96.055 E20.66407 F1800.000
G1 X34.420 Y90.153 E20.84668
G1 X34.032 Y89.852 E20.86190
G1 X33.294 Y89.146 E20.89349
G1 X32.620 Y88.348 E20.92579
G1 X32.058 Y87.528 E20.95655
G1 X31.572 Y86.632 E20.98810
G1 X31.181 Y85.690 E21.01965
G1 X30.889 Y84.713 E21.05121
G1 X30.699 Y83.711 E21.08276
G1 X30.614 Y82.695 E21.11431
G1 X30.634 Y81.675 E21.14586
G1 X30.759 Y80.663 E21.17741
G1 X30.988 Y79.670 E21.20896
G1 X31.319 Y78.705 E21.24052
G1 X31.748 Y77.777 E21.27215
G1 X32.300 Y76.861 E21.30526
G1 X32.878 Y76.086 E21.33516
G1 X33.568 Y75.335 E21.36672
G1 X34.332 Y74.660 E21.39827
G1 X35.162 Y74.067 E21.42982
G1 X36.048 Y73.563 E21.46137
G1 X36.982 Y73.153 E21.49292
G1 X37.953 Y72.842 E21.52447
G1 X38.951 Y72.632 E21.55603
G1 X39.965 Y72.527 E21.58758
G1 X40.985 Y72.527 E21.61913
G1 X42.002 Y72.633 E21.65076
G1 X43.048 Y72.858 E21.68387
G1 X43.968 Y73.153 E21.71378
G1 X44.902 Y73.563 E21.74533
G1 X45.788 Y74.067 E21.77688
G1 X46.618 Y74.660 E21.80843
G1 X47.382 Y75.335 E21.83998
G1 X48.072 Y76.086 E21.87154
G1 X48.683 Y76.905 E21.90317
G1 X49.225 Y77.828 E21.93628
G1 X49.631 Y78.705 E21.96618
G1 X49.962 Y79.670 E21.99773
G1 X50.191 Y80.663 E22.02929
G1 X50.316 Y81.675 E22.06084
G1 X50.336 Y82.695 E22.09239
G1 X50.251 Y83.711 E22.12394
G1 X50.061 Y84.713 E22.15549
G1 X49.769 Y85.690 E22.18705
G1 X49.378 Y86.632 E22.21860
G1 X48.893 Y87.525 E22.25005
G1 X48.354 Y88.323 E22.27984
G1 X47.655 Y89.147 E22.31326
G1 X46.918 Y89.852 E22.34481
G1 X46.530 Y90.153 E22.36003
G1 X46.530 Y95.980 E22.54032
G1 X45.905 Y95.430 F3600.000
G1 X35.045 Y95.430 E22.87634 F1800.000
G1 X35.045 Y89.847 E23.04909
G1 X34.440 Y89.378 E23.07278
G1 X33.750 Y88.717 E23.10234
G1 X33.118 Y87.969 E23.13264
G1 X32.592 Y87.202 E23.16142
G1 X32.137 Y86.362 E23.19097
G1 X31.770 Y85.480 E23.22053
G1 X31.497 Y84.565 E23.25008
G1 X31.319 Y83.627 E23.27963
G1 X31.239 Y82.675 E23.30918
G1 X31.258 Y81.720 E23.33873
G1 X31.375 Y80.772 E23.36828
G1 X31.590 Y79.842 E23.39783
G1 X31.899 Y78.938 E23.42738
G1 X32.301 Y78.071 E23.45696
G1 X32.820 Y77.209 E23.48807
G1 X33.359 Y76.485 E23.51602
G1 X34.006 Y75.782 E23.54558
G1 X34.722 Y75.149 E23.57513
G1 X35.499 Y74.594 E23.60468
G1 X36.329 Y74.122 E23.63423
G1 X37.203 Y73.738 E23.66378
G1 X38.113 Y73.447 E23.69333
G1 X39.048 Y73.250 E23.72288
G1 X39.997 Y73.152 E23.75243
G1 X40.953 Y73.152 E23.78198
G1 X41.903 Y73.251 E23.81156
G1 X42.886 Y73.462 E23.84267
G1 X43.747 Y73.738 E23.87062
G1 X44.621 Y74.122 E23.90018
G1 X45.451 Y74.594 E23.92973
G1 X46.228 Y75.149 E23.95928
G1 X46.944 Y75.782 E23.98883
G1 X47.591 Y76.485 E24.01838
G1 X48.162 Y77.251 E24.04796
G1 X48.671 Y78.118 E24.07907
G1 X49.051 Y78.938 E24.10702
G1 X49.360 Y79.842 E24.13657
G1 X49.575 Y80.772 E24.16612
G1 X49.692 Y81.720 E24.19567
G1 X49.711 Y82.675 E24.22523
G1 X49.631 Y83.627 E24.25478
G1 X49.453 Y84.565 E24.28433
G1 X49.180 Y85.480 E24.31388
G1 X48.813 Y86.362 E24.34343
G1 X48.358 Y87.200 E24.37294
G1 X47.856 Y87.945 E24.40073
G1 X47.200 Y88.717 E24.43209
G1 X46.510 Y89.378 E24.46164
G1 X45.905 Y89.847 E24.48533
G1 X45.905 Y95.355 E24.65575
G1 X45.905 Y95.930 F3600.000
G1 X29.375 Y113.800 F3600.000
G1 X29.375 Y66.200 E26.12857 F1800.000
G1 X70.625 Y66.200 E27.40492
G1 X70.625 Y113.800 E28.87774
G1 X29.450 Y113.800 E30.15176
G1 X23.670 Y114.425 F3600.000
G1 X23.670 Y65.575 E31.66325 F1800.000
G1 X76.330 Y65.575 E33.29262
G1 X76.330 Y114.425 E34.80411
G1 X23.745 Y114.425 E36.43117
G1 X23.045 Y115.050 F3600.000
G1 X23.045 Y64.950 E37.98133 F1800.000
G1 X76.955 Y64.950 E39.64938
G1 X76.955 Y115.050 E41.19954
G1 X23.120 Y115.050 E42.86526
G1 X23.295 Y114.617 F3600.000
G1 E40.86526 F600.00000
G92 E0
G1 Z0.850 F3600.000
G1 X30.089 Y86.554 F3600.000
G1 Z0.350 F3600.000
G1 E2.00000 F600.00000
G1 X29.998 Y86.094 E2.00639 F1800.000
G1 X29.837 Y84.990 E2.02157
G1 X29.842 Y79.777 F3600.000
G1 X29.892 Y79.346 E2.02748 F1800.000
G1 X30.080 Y78.217 E2.04306
G1 X30.700 Y77.783 F3600.000
G1 X29.742 Y76.825 E2.08505 F1800.000
G1 X29.742 Y75.940 E2.11250
G1 X30.998 Y77.196 E2.16755
G1 X31.331 Y76.643 E2.18755
G1 X29.742 Y75.055 E2.25719
G1 X29.742 Y74.169 E2.28464
G1 X31.686 Y76.113 E2.36986
G1 X32.064 Y75.606 E2.38947
G1 X29.742 Y73.284 E2.49126
G1 X29.742 Y72.398 E2.51871
G1 X32.478 Y75.135 E2.63868
G1 X32.903 Y74.673 E2.65810
G1 X29.742 Y71.513 E2.79666
G1 X29.742 Y70.628 E2.82411
G1 X33.372 Y74.257 E2.98323
G1 X33.849 Y73.849 E3.00270
G1 X29.742 Y69.742 E3.18277
G1 X29.742 Y68.857 E3.21022
G1 X34.366 Y73.480 E3.41293
G1 X34.900 Y73.129 E3.43275
G1 X29.742 Y67.971 E3.65889
G1 X29.742 Y67.086 E3.68634
G1 X35.465 Y72.808 E3.93723
G1 X36.061 Y72.519 E3.95778
G1 X30.109 Y66.567 E4.21874
G1 X30.994 Y66.567 E4.24619
G1 X36.676 Y72.249 E4.49531
G1 X37.343 Y72.031 E4.51706
G1 X31.880 Y66.567 E4.75661
G1 X32.765 Y66.567 E4.78405
G1 X38.034 Y71.836 E5.01504
G1 X38.766 Y71.682 E5.03823
G1 X33.650 Y66.567 E5.26248
G1 X34.536 Y66.567 E5.28993
G1 X39.554 Y71.585 E5.50993
G1 X40.389 Y71.535 E5.53586
G1 X35.421 Y66.567 E5.75366
G1 X36.307 Y66.567 E5.78111
G1 X41.286 Y71.546 E5.99940
G1 X42.274 Y71.649 E6.03019
G1 X37.192 Y66.567 E6.25298
G1 X38.078 Y66.567 E6.28043
G1 X43.397 Y71.887 E6.51364
G1 X44.729 Y72.333 F3600.000
G1 X38.963 Y66.567 E6.76641 F1800.000
G1 X39.848 Y66.567 E6.79386
G1 X46.542 Y73.261 E7.08733
G1 X49.572 Y76.290 F3600.000
G1 X70.258 Y96.977 E7.99425 F1800.000
G1 X70.258 Y96.091 E8.02170
G1 X40.734 Y66.567 E9.31608
G1 X41.619 Y66.567 E9.34353
G1 X70.258 Y95.206 E10.59910
G1 X70.258 Y94.320 E10.62654
G1 X42.505 Y66.567 E11.84329
G1 X43.390 Y66.567 E11.87074
G1 X70.258 Y93.435 E13.04867
G1 X70.258 Y92.549 E13.07612
G1 X44.276 Y66.567 E14.21523
G1 X45.161 Y66.567 E14.24267
G1 X70.258 Y91.664 E15.34297
G1 X70.258 Y90.779 E15.37041
G1 X46.046 Y66.567 E16.43189
G1 X46.932 Y66.567 E16.45934
G1 X70.258 Y89.893 E17.48199
G1 X70.258 Y89.008 E17.50944
G1 X47.817 Y66.567 E18.49328
G1 X48.703 Y66.567 E18.52073
G1 X70.258 Y88.122 E19.46574
G1 X70.258 Y87.237 E19.49319
G1 X49.588 Y66.567 E20.39939
G1 X50.473 Y66.567 E20.42684
G1 X70.258 Y86.352 E21.29422
G1 X70.258 Y85.466 E21.32167
G1 X51.359 Y66.567 E22.15023
G1 X52.244 Y66.567 E22.17768
G1 X70.258 Y84.581 E22.96743
G1 X70.258 Y83.695 E22.99487
G1 X53.130 Y66.567 E23.74580
G1 X54.015 Y66.567 E23.77325
G1 X70.258 Y82.810 E24.48536
G1 X70.258 Y81.924 E24.51281
G1 X54.901 Y66.567 E25.18609
G1 X55.786 Y66.567 E25.21354
G1 X70.258 Y81.039 E25.84801
G1 X70.258 Y80.154 E25.87546
G1 X56.671 Y66.567 E26.47112
G1 X57.557 Y66.567 E26.49856
G1 X70.258 Y79.268 E27.05540
G1 X70.258 Y78.383 E27.08285
G1 X58.442 Y66.567 E27.60086
G1 X59.328 Y66.567 E27.62831
G1 X70.258 Y77.497 E28.10751
G1 X70.258 Y76.612 E28.13496
G1 X60.213 Y66.567 E28.57534
G1 X61.099 Y66.567 E28.60279
G1 X70.258 Y75.726 E29.00435
G1 X70.258 Y74.841 E29.03180
G1 X61.984 Y66.567 E29.39454
G1 X62.869 Y66.567 E29.42199
G1 X70.258 Y73.956 E29.74591
G1 X70.258 Y73.070 E29.77336
G1 X63.755 Y66.567 E30.05846
G1 X64.640 Y66.567 E30.08591
G1 X70.258 Y72.185 E30.33220
G1 X70.258 Y71.299 E30.35965
G1 X65.526 Y66.567 E30.56712
G1 X66.411 Y66.567 E30.59457
G1 X70.258 Y70.414 E30.76322
G1 X70.258 Y69.528 E30.79067
G1 X67.297 Y66.567 E30.92050
G1 X68.182 Y66.567 E30.94795
G1 X70.258 Y68.643 E31.03896
G1 X70.258 Y67.758 E31.06641
G1 X69.067 Y66.567 E31.11860
G1 X69.953 Y66.567 E31.14605
G1 X70.258 Y66.872 E31.15943
G1 X50.540 Y78.144 F3600.000
G1 X70.258 Y97.862 E32.02391 F1800.000
G1 X70.258 Y98.747 E32.05136
G1 X50.964 Y79.454 E32.89723
G1 X51.197 Y80.571 E32.93263
G1 X70.258 Y99.633 E33.76831
G1 X70.258 Y100.518 E33.79576
G1 X51.309 Y81.569 E34.62651
G1 X51.327 Y82.473 E34.65452
G1 X70.258 Y101.404 E35.48449
G1 X70.258 Y102.289 E35.51194
G1 X51.270 Y83.302 E36.34439
G1 X51.167 Y84.084 E36.36886
G1 X70.258 Y103.175 E37.20581
G1 X70.258 Y104.060 E37.23326
G1 X51.027 Y84.829 E38.07639
G1 X50.824 Y85.512 E38.09848
G1 X70.258 Y104.945 E38.95048
G1 X70.258 Y105.831 E38.97793
G1 X50.599 Y86.172 E39.83979
G1 X50.339 Y86.798 E39.86079
G1 X70.258 Y106.716 E40.73405
G1 X70.258 Y107.602 E40.76150
G1 X50.043 Y87.387 E41.64774
G1 X49.732 Y87.961 E41.66798
G1 X70.258 Y108.487 E42.56787
G1 X70.258 Y109.373 E42.59532
G1 X58.952 Y98.067 E43.09099
G1 X58.952 Y98.952 E43.11844
G1 X70.258 Y110.258 E43.61410
G1 X70.258 Y111.143 E43.64155
G1 X58.952 Y99.838 E44.13722
G1 X58.952 Y100.723 E44.16467
G1 X70.258 Y112.029 E44.66033
G1 X70.258 Y112.914 E44.68778
G1 X58.952 Y101.608 E45.18345
G1 X58.952 Y102.494 E45.21089
G1 X69.891 Y113.433 E45.69048
G1 X69.006 Y113.433 E45.71793
G1 X58.952 Y103.379 E46.15870
G1 X58.952 Y104.265 E46.18615
G1 X68.120 Y113.433 E46.58810
G1 X67.235 Y113.433 E46.61555
G1 X58.952 Y105.150 E46.97868
G1 X58.952 Y106.035 E47.00613
G1 X66.350 Y113.433 E47.33045
G1 X65.464 Y113.433 E47.35790
G1 X58.952 Y106.921 E47.64339
G1 X58.353 Y107.207 F3600.000
G1 X64.579 Y113.433 E47.91634 F1800.000
G1 X63.693 Y113.433 E47.94379
G1 X57.467 Y107.207 E48.21674
G1 X56.582 Y107.207 E48.24419
G1 X62.808 Y113.433 E48.51714
G1 X61.922 Y113.433 E48.54459
G1 X55.697 Y107.207 E48.81754
G1 X54.811 Y107.207 E48.84499
G1 X61.037 Y113.433 E49.11794
G1 X60.152 Y113.433 E49.14539
G1 X53.926 Y107.207 E49.41834
G1 X53.040 Y107.207 E49.44578
G1 X59.266 Y113.433 E49.71874
G1 X58.381 Y113.433 E49.74618
G1 X52.155 Y107.207 E50.01913
G1 X51.269 Y107.207 E50.04658
G1 X57.495 Y113.433 E50.31953
G1 X56.610 Y113.433 E50.34698
G1 X50.384 Y107.207 E50.61993
G1 X49.499 Y107.207 E50.64738
G1 X55.724 Y113.433 E50.92033
G1 X54.839 Y113.433 E50.94778
G1 X48.613 Y107.207 E51.22073
G1 X47.728 Y107.207 E51.24818
G1 X53.954 Y113.433 E51.52113
G1 X53.068 Y113.433 E51.54858
G1 X36.682 Y97.047 E52.26696
G1 X37.568 Y97.047 E52.29441
G1 X47.398 Y106.877 E52.72538
G1 X47.398 Y105.992 E52.75283
G1 X38.453 Y97.047 E53.14498
G1 X39.339 Y97.047 E53.17243
G1 X47.398 Y105.106 E53.52576
G1 X47.398 Y104.221 E53.55321
G1 X40.224 Y97.047 E53.86772
G1 X41.109 Y97.047 E53.89517
G1 X47.398 Y103.336 E54.17087
G1 X47.398 Y102.450 E54.19832
G1 X41.995 Y97.047 E54.43520
G1 X42.880 Y97.047 E54.46264
G1 X47.398 Y101.565 E54.66070
G1 X47.398 Y100.679 E54.68815
G1 X43.766 Y97.047 E54.84739
G1 X44.651 Y97.047 E54.87484
G1 X47.398 Y99.794 E54.99527
G1 X47.398 Y98.908 E55.02271
G1 X45.537 Y97.047 E55.10432
G1 X46.422 Y97.047 E55.13177
G1 X47.398 Y98.023 E55.17455
G1 X48.069 Y96.923 F3600.000
G1 X47.522 Y96.376 E55.19852 F1800.000
G1 X47.522 Y95.491 E55.22597
G1 X48.954 Y96.923 E55.28875
G1 X49.840 Y96.923 E55.31620
G1 X47.522 Y94.605 E55.41779
G1 X47.522 Y93.720 E55.44524
G1 X50.725 Y96.923 E55.58566
G1 X51.610 Y96.923 E55.61311
G1 X47.522 Y92.835 E55.79235
G1 X47.522 Y91.949 E55.81979
G1 X52.496 Y96.923 E56.03785
G1 X53.381 Y96.923 E56.06530
G1 X47.522 Y91.064 E56.32217
G1 X47.723 Y90.379 E56.34429
G1 X54.267 Y96.923 E56.63118
G1 X55.152 Y96.923 E56.65863
G1 X48.175 Y89.946 E56.96450
G1 X48.599 Y89.484 E56.98392
G1 X56.037 Y96.923 E57.31004
G1 X56.923 Y96.923 E57.33749
G1 X49.005 Y89.006 E57.68460
G1 X49.376 Y88.491 E57.70427
G1 X57.808 Y96.923 E58.07394
