; generated by Slic3r 1.2.6 on 2015-03-03 at 12:02:55

; external perimeters extrusion width = 0.50mm
; perimeters extrusion width = 0.72mm
; infill extrusion width = 0.72mm
; solid infill extrusion width = 0.72mm
; top infill extrusion width = 0.72mm
; support material extrusion width = 0.50mm

M107
M190 S110 ; set bed temperature
M104 S230 ; set temperature
G28 ; home all axes
G1 Z1 F100 ; lift nozzle
M203 X4000 Y4000 Z20 ; set feedrate limits
M109 S230 ; wait for temperature to be reached
G21 ; set units to millimeters
G90 ; use absolute coordinates
M82 ; use absolute distances for extrusion
G92 E0
G1 E-2.00000 F600.00000
G92 E0
G1 Z0.500 F1800.000
G1 X19.063 Y57.559 F1800.000
G1 Z0.350 F1800.000
G1 E2.00000 F600.00000
G1 X20.790 Y57.350 E2.05382 F1800.000
G1 X79.210 Y57.350 E3.86141
G1 X81.577 Y57.747 E3.93567
G1 X83.684 Y58.896 E4.00993 F1800.000
G1 X85.301 Y60.669 E4.08419
G1 X86.251 Y62.873 E4.15845
G1 X86.460 Y64.600 E4.21227
G1 X86.460 Y115.400 E5.78409
G1 X86.063 Y117.767 E5.85834
G1 X84.914 Y119.874 E5.93260
G1 X83.141 Y121.491 E6.00686
G1 X80.937 Y122.441 E6.08112
G1 X79.210 Y122.650 E6.13494
G1 X20.790 Y122.650 E7.94253
G1 X18.423 Y122.253 E8.01679
G1 X16.316 Y121.104 E8.09105
G1 X14.699 Y119.331 E8.16531
G1 X13.749 Y117.127 E8.23956
G1 X13.540 Y115.400 E8.29339
G1 X13.540 Y64.600 E9.86521
G1 X13.937 Y62.233 E9.93946
G1 X15.086 Y60.126 E10.01372
G1 X16.859 Y58.509 E10.08798
G1 X18.994 Y57.589 E10.15992
G1 X19.298 Y58.196 F1800.000
G1 X19.610 Y58.081 E10.17022 F1800.000
G1 X20.790 Y57.975 E10.20687
G1 X79.210 Y57.975 E12.01446
G1 X81.469 Y58.372 E12.08542
G1 X83.457 Y59.515 E12.15638 F1800.000
G1 X84.936 Y61.268 E12.22735
G1 X85.729 Y63.420 E12.29831
G1 X85.835 Y64.600 E12.33496
G1 X85.835 Y115.400 E13.90678
G1 X85.438 Y117.659 E13.97774
G1 X84.295 Y119.647 E14.04870
G1 X82.542 Y121.126 E14.11967
G1 X80.390 Y121.919 E14.19063
G1 X79.210 Y122.025 E14.22728
G1 X20.790 Y122.025 E16.03487
G1 X18.531 Y121.628 E16.10583
G1 X16.543 Y120.485 E16.17680
G1 X15.064 Y118.732 E16.24776
G1 X14.271 Y116.580 E16.31872
G1 X14.165 Y115.400 E16.35537
G1 X14.165 Y64.600 E17.92719
G1 X14.562 Y62.341 E17.99815
G1 X15.705 Y60.353 E18.06911
G1 X17.458 Y58.874 E18.14008
G1 X19.227 Y58.222 E18.19842
G1 E16.19842 F600.00000
G92 E0
G1 Z0.850 F1800.000
G1 X73.155 Y113.835 F1800.000
G1 Z0.350 F1800.000
G1 E2.00000 F600.00000
G1 X73.155 Y66.165 E3.47497 F1800.000
G1 X77.645 Y66.165 E3.61389
G1 X77.645 Y113.835 E5.08885
G1 X73.230 Y113.835 E5.22545
G1 X73.780 Y113.210 F1800.000
G1 X73.780 Y66.790 E6.66175 F1800.000
G1 X77.020 Y66.790 E6.76200
G1 X77.020 Y113.210 E8.19829
G1 X73.855 Y113.210 E8.29622
G1 X73.280 Y113.210 F1800.000
G1 X66.522 Y104.300 F1800.000
G1 X56.973 Y104.300 E8.59170 F1800.000
G1 X56.973 Y93.480 E8.92647
G1 X66.522 Y93.480 E9.22194
G1 X66.522 Y104.225 E9.55439
G1 X65.897 Y103.675 F1800.000
G1 X57.598 Y103.675 E9.81120 F1800.000
G1 X57.598 Y94.105 E10.10730
G1 X65.897 Y94.105 E10.36411
G1 X65.897 Y103.600 E10.65789
G1 X65.272 Y103.050 F1800.000
G1 X58.223 Y103.050 E10.87602 F1800.000
G1 X58.223 Y94.730 E11.13346
G1 X65.272 Y94.730 E11.35159
G1 X65.272 Y102.975 E11.60670
G1 X65.272 Y103.550 F1800.000
G1 X45.250 Y104.300 F1800.000
G1 X31.890 Y104.300 E12.02007 F1800.000
G1 X31.890 Y91.721 E12.40926
G1 X31.650 Y91.532 E12.41872
G1 X30.903 Y90.813 E12.45080
G1 X30.188 Y89.961 E12.48522
G1 X29.540 Y88.985 E12.52146
G1 X29.054 Y88.069 E12.55354
G1 X28.639 Y87.037 E12.58796
G1 X28.327 Y85.908 E12.62420
G1 X28.151 Y84.886 E12.65629
G1 X28.079 Y83.782 E12.69054
G1 X28.123 Y82.676 E12.72479
G1 X28.284 Y81.580 E12.75904
G1 X28.559 Y80.508 E12.79329
G1 X28.946 Y79.471 E12.82754
G1 X29.440 Y78.480 E12.86180
G1 X30.036 Y77.547 E12.89605
G1 X30.726 Y76.682 E12.93030
G1 X31.508 Y75.890 E12.96472
G1 X32.419 Y75.154 E13.00096
G1 X33.286 Y74.586 E13.03304
G1 X34.270 Y74.079 E13.06729
G1 X35.303 Y73.680 E13.10155
G1 X36.377 Y73.390 E13.13597
G1 X37.535 Y73.213 E13.17221
G1 X38.570 Y73.158 E13.20429
G1 X39.675 Y73.216 E13.23854
G1 X40.768 Y73.391 E13.27277
G1 X41.829 Y73.676 E13.30677
G1 X42.870 Y74.079 E13.34130
G1 X43.854 Y74.586 E13.37555
G1 X44.780 Y75.193 E13.40980
G1 X45.636 Y75.894 E13.44405
G1 X46.414 Y76.682 E13.47830
G1 X47.104 Y77.547 E13.51255
G1 X47.700 Y78.480 E13.54681
G1 X48.194 Y79.471 E13.58106
G1 X48.581 Y80.508 E13.61531
G1 X48.856 Y81.580 E13.64956
G1 X49.017 Y82.676 E13.68381
G1 X49.061 Y83.782 E13.71806
G1 X48.989 Y84.886 E13.75231
G1 X48.801 Y85.977 E13.78657
G1 X48.499 Y87.042 E13.82082
G1 X48.084 Y88.074 E13.85524
G1 X47.528 Y89.105 E13.89148
G1 X46.949 Y89.965 E13.92356
G1 X46.237 Y90.813 E13.95781
G1 X45.439 Y91.581 E13.99206
G1 X45.250 Y91.728 E13.99949
G1 X45.250 Y104.225 E14.38616
G1 X44.625 Y103.675 F1800.000
G1 X32.515 Y103.675 E14.76085 F1800.000
G1 X32.515 Y91.418 E15.14008
G1 X32.062 Y91.061 E15.15796
G1 X31.361 Y90.386 E15.18807
G1 X30.689 Y89.586 E15.22038
G1 X30.077 Y88.665 E15.25457
G1 X29.622 Y87.806 E15.28468
G1 X29.232 Y86.837 E15.31699
G1 X28.938 Y85.771 E15.35119
G1 X28.772 Y84.813 E15.38130
G1 X28.705 Y83.774 E15.41351
G1 X28.746 Y82.734 E15.44571
G1 X28.898 Y81.704 E15.47792
G1 X29.157 Y80.695 E15.51013
G1 X29.520 Y79.720 E15.54234
G1 X29.985 Y78.789 E15.57455
G1 X30.545 Y77.911 E15.60676
G1 X31.194 Y77.097 E15.63897
G1 X31.928 Y76.354 E15.67128
G1 X32.788 Y75.660 E15.70547
G1 X33.601 Y75.126 E15.73558
G1 X34.527 Y74.650 E15.76779
G1 X35.498 Y74.274 E15.80000
G1 X36.506 Y74.002 E15.83231
G1 X37.598 Y73.835 E15.86651
G1 X38.570 Y73.784 E15.89661
G1 X39.610 Y73.839 E15.92882
G1 X40.637 Y74.003 E15.96102
G1 X41.634 Y74.271 E15.99297
G1 X42.613 Y74.650 E16.02545
G1 X43.539 Y75.126 E16.05766
G1 X44.409 Y75.697 E16.08987
G1 X45.215 Y76.357 E16.12208
G1 X45.946 Y77.097 E16.15429
G1 X46.595 Y77.911 E16.18649
G1 X47.155 Y78.789 E16.21870
G1 X47.620 Y79.720 E16.25091
G1 X47.983 Y80.695 E16.28312
G1 X48.242 Y81.704 E16.31533
G1 X48.394 Y82.734 E16.34754
G1 X48.435 Y83.774 E16.37975
G1 X48.368 Y84.813 E16.41195
G1 X48.191 Y85.838 E16.44416
G1 X47.906 Y86.840 E16.47637
G1 X47.517 Y87.809 E16.50868
G1 X46.993 Y88.782 E16.54288
G1 X46.449 Y89.589 E16.57299
G1 X45.779 Y90.386 E16.60520
G1 X45.030 Y91.108 E16.63740
G1 X44.625 Y91.422 E16.65327
G1 X44.625 Y103.600 E17.03005
G1 X44.000 Y103.050 F1800.000
G1 X33.140 Y103.050 E17.36608 F1800.000
G1 X33.140 Y91.115 E17.73535
G1 X32.473 Y90.589 E17.76165
G1 X31.818 Y89.958 E17.78978
G1 X31.190 Y89.211 E17.81998
G1 X30.615 Y88.345 E17.85213
G1 X30.189 Y87.542 E17.88026
G1 X29.825 Y86.636 E17.91047
G1 X29.548 Y85.635 E17.94262
G1 X29.394 Y84.739 E17.97075
G1 X29.330 Y83.766 E18.00092
G1 X29.369 Y82.792 E18.03108
G1 X29.511 Y81.827 E18.06125
G1 X29.754 Y80.883 E18.09141
G1 X30.094 Y79.969 E18.12158
G1 X30.529 Y79.097 E18.15175
G1 X31.054 Y78.275 E18.18191
G1 X31.662 Y77.513 E18.21208
G1 X32.348 Y76.818 E18.24228
G1 X33.156 Y76.166 E18.27443
G1 X33.916 Y75.667 E18.30256
G1 X34.783 Y75.221 E18.33273
G1 X35.692 Y74.869 E18.36290
G1 X36.635 Y74.614 E18.39310
G1 X37.662 Y74.457 E18.42525
G1 X38.570 Y74.410 E18.45338
G1 X39.544 Y74.461 E18.48355
G1 X40.506 Y74.615 E18.51371
G1 X41.440 Y74.866 E18.54362
G1 X42.357 Y75.221 E18.57405
G1 X43.224 Y75.667 E18.60421
G1 X44.039 Y76.202 E18.63438
G1 X44.793 Y76.819 E18.66455
G1 X45.478 Y77.513 E18.69471
G1 X46.086 Y78.275 E18.72488
G1 X46.611 Y79.097 E18.75504
G1 X47.046 Y79.969 E18.78521
G1 X47.386 Y80.883 E18.81537
G1 X47.629 Y81.827 E18.84554
G1 X47.771 Y82.792 E18.87571
G1 X47.810 Y83.766 E18.90587
G1 X47.746 Y84.739 E18.93604
G1 X47.580 Y85.700 E18.96620
G1 X47.314 Y86.637 E18.99637
G1 X46.950 Y87.543 E19.02657
G1 X46.457 Y88.458 E19.05873
G1 X45.949 Y89.212 E19.08686
G1 X45.322 Y89.958 E19.11702
G1 X44.620 Y90.635 E19.14719
G1 X44.000 Y91.117 E19.17149
G1 X44.000 Y102.975 E19.53839
G1 X44.000 Y103.550 F1800.000
G1 X27.470 Y113.800 F1800.000
G1 X27.470 Y66.200 E21.01121 F1800.000
G1 X72.530 Y66.200 E22.40544
G1 X72.530 Y113.800 E23.87826
G1 X27.545 Y113.800 E25.27017
G1 X26.845 Y113.835 F1800.000
G1 X22.355 Y113.835 E25.40909 F1800.000
G1 X22.355 Y66.165 E26.88406
G1 X26.845 Y66.165 E27.02298
G1 X26.845 Y113.760 E28.49562
G1 X26.220 Y113.210 F1800.000
G1 X22.980 Y113.210 E28.59587 F1800.000
G1 X22.980 Y66.790 E30.03217
G1 X26.220 Y66.790 E30.13242
G1 X26.220 Y113.135 E31.56639
G1 X26.220 Y113.710 F1800.000
G1 X21.765 Y114.425 F1800.000
G1 X21.765 Y65.575 E33.07788 F1800.000
G1 X78.235 Y65.575 E34.82515
G1 X78.235 Y114.425 E36.33664
G1 X21.840 Y114.425 E38.08158
G1 X21.140 Y115.050 F1800.000
G1 X21.140 Y64.950 E39.63174 F1800.000
G1 X78.860 Y64.950 E41.41767
G1 X78.860 Y115.050 E42.96783
G1 X21.215 Y115.050 E44.75144
G1 X21.390 Y114.617 F1800.000
G1 E42.75144 F600.00000
G92 E0
G1 Z0.850 F1800.000
G1 X28.187 Y87.836 F1800.000
G1 Z0.350 F1800.000
G1 E2.00000 F600.00000
G1 X28.068 Y87.213 E2.00863 F1800.000
G1 X27.934 Y86.225 E2.02221
G1 X27.935 Y81.067 F1800.000
G1 X28.029 Y80.328 E2.03235 F1800.000
G1 X28.184 Y79.473 E2.04418
G1 X28.468 Y79.125 F1800.000
G1 X27.837 Y78.494 E2.07192 F1800.000
G1 X27.837 Y77.606 E2.09953
G1 X28.958 Y78.726 E2.14880
G1 X29.273 Y78.153 E2.16913
G1 X27.837 Y76.718 E2.23226
G1 X27.837 Y75.830 E2.25987
G1 X29.619 Y77.611 E2.33822
G1 X29.993 Y77.098 E2.35798
G1 X27.837 Y74.942 E2.45278
G1 X27.837 Y74.053 E2.48040
G1 X30.387 Y76.604 E2.59253
G1 X30.817 Y76.145 E2.61207
G1 X27.837 Y73.165 E2.74310
G1 X27.837 Y72.277 E2.77071
G1 X31.258 Y75.698 E2.92114
G1 X31.744 Y75.296 E2.94075
G1 X27.837 Y71.389 E3.11255
G1 X27.837 Y70.501 E3.14016
G1 X32.236 Y74.900 E3.33357
G1 X32.770 Y74.546 E3.35350
G1 X27.837 Y69.613 E3.57040
G1 X27.837 Y68.725 E3.59801
G1 X33.319 Y74.207 E3.83907
G1 X33.906 Y73.906 E3.85957
G1 X27.837 Y67.837 E4.12642
G1 X27.837 Y66.949 E4.15403
G1 X34.519 Y73.631 E4.44785
G1 X35.159 Y73.383 E4.46919
G1 X28.343 Y66.567 E4.76891
G1 X29.231 Y66.567 E4.79652
G1 X35.847 Y73.183 E5.08744
G1 X36.561 Y73.009 E5.11028
G1 X30.119 Y66.567 E5.39352
G1 X31.007 Y66.567 E5.42113
G1 X37.331 Y72.891 E5.69920
G1 X38.148 Y72.819 E5.72468
G1 X31.895 Y66.567 E5.99961
G1 X32.783 Y66.567 E6.02722
G1 X39.023 Y72.807 E6.30159
G1 X39.974 Y72.869 E6.33121
G1 X33.671 Y66.567 E6.60832
G1 X34.560 Y66.567 E6.63593
G1 X41.034 Y73.042 E6.92063
G1 X42.275 Y73.394 E6.96074
G1 X35.448 Y66.567 E7.26094
G1 X36.336 Y66.567 E7.28855
G1 X43.859 Y74.091 E7.61938
G1 X48.136 Y78.367 F1800.000
G1 X62.881 Y93.113 E8.26779 F1800.000
G1 X63.770 Y93.113 E8.29540
G1 X37.224 Y66.567 E9.46267
G1 X38.112 Y66.567 E9.49028
G1 X64.658 Y93.113 E10.65755
G1 X65.546 Y93.113 E10.68516
G1 X39.000 Y66.567 E11.85243
G1 X39.888 Y66.567 E11.88004
G1 X66.434 Y93.113 E13.04731
G1 X66.890 Y93.569 F1800.000
G1 X72.163 Y98.842 E13.27919 F1800.000
G1 X72.163 Y97.954 E13.30680
G1 X40.776 Y66.567 E14.68695
G1 X41.664 Y66.567 E14.71456
G1 X72.163 Y97.066 E16.05565
G1 X72.163 Y96.178 E16.08327
G1 X42.552 Y66.567 E17.38531
G1 X43.440 Y66.567 E17.41292
G1 X72.163 Y95.290 E18.67592
G1 X72.163 Y94.402 E18.70353
G1 X44.328 Y66.567 E19.92748
G1 X45.216 Y66.567 E19.95509
G1 X72.163 Y93.514 E21.13999
G1 X72.163 Y92.626 E21.16760
G1 X46.104 Y66.567 E22.31345
G1 X46.992 Y66.567 E22.34106
G1 X72.163 Y91.738 E23.44786
G1 X72.163 Y90.850 E23.47547
G1 X47.880 Y66.567 E24.54322
G1 X48.768 Y66.567 E24.57083
G1 X72.163 Y89.962 E25.59953
G1 X72.163 Y89.074 E25.62715
G1 X49.656 Y66.567 E26.61680
G1 X50.545 Y66.567 E26.64441
G1 X72.163 Y88.185 E27.59501
G1 X72.163 Y87.297 E27.62262
G1 X51.433 Y66.567 E28.53418
G1 X52.321 Y66.567 E28.56179
G1 X72.163 Y86.409 E29.43429
G1 X72.163 Y85.521 E29.46190
G1 X53.209 Y66.567 E30.29536
G1 X54.097 Y66.567 E30.32297
G1 X72.163 Y84.633 E31.11737
G1 X72.163 Y83.745 E31.14498
G1 X54.985 Y66.567 E31.90034
G1 X55.873 Y66.567 E31.92795
G1 X72.163 Y82.857 E32.64426
G1 X72.163 Y81.969 E32.67187
G1 X56.761 Y66.567 E33.34912
G1 X57.649 Y66.567 E33.37674
G1 X72.163 Y81.081 E34.01494
G1 X72.163 Y80.193 E34.04255
G1 X58.537 Y66.567 E34.64171
G1 X59.425 Y66.567 E34.66932
G1 X72.163 Y79.305 E35.22943
G1 X72.163 Y78.417 E35.25704
G1 X60.313 Y66.567 E35.77810
G1 X61.201 Y66.567 E35.80571
G1 X72.163 Y77.529 E36.28772
G1 X72.163 Y76.641 E36.31534
G1 X62.089 Y66.567 E36.75829
G1 X62.977 Y66.567 E36.78591
G1 X72.163 Y75.753 E37.18982
G1 X72.163 Y74.865 E37.21743
G1 X63.865 Y66.567 E37.58229
G1 X64.753 Y66.567 E37.60990
G1 X72.163 Y73.977 E37.93571
G1 X72.163 Y73.089 E37.96333
G1 X65.641 Y66.567 E38.25009
G1 X66.529 Y66.567 E38.27770
G1 X72.163 Y72.201 E38.52541
G1 X72.163 Y71.312 E38.55303
G1 X67.418 Y66.567 E38.76169
G1 X68.306 Y66.567 E38.78930
G1 X72.163 Y70.424 E38.95891
G1 X72.163 Y69.536 E38.98653
G1 X69.194 Y66.567 E39.11709
G1 X70.082 Y66.567 E39.14470
G1 X72.163 Y68.648 E39.23622
G1 X72.163 Y67.760 E39.26383
G1 X70.970 Y66.567 E39.31630
G1 X71.858 Y66.567 E39.34391
G1 X72.163 Y66.872 E39.35733
G1 X48.818 Y79.938 F1800.000
G1 X61.993 Y93.113 E39.93666 F1800.000
G1 X61.105 Y93.113 E39.96428
G1 X49.170 Y81.178 E40.48910
G1 X49.345 Y82.241 E40.52259
G1 X60.217 Y93.113 E41.00067
G1 X59.329 Y93.113 E41.02829
G1 X49.411 Y83.194 E41.46443
G1 X49.402 Y84.073 E41.49177
G1 X58.441 Y93.113 E41.88925
G1 X57.553 Y93.113 E41.91686
G1 X49.339 Y84.898 E42.27807
G1 X49.208 Y85.656 E42.30196
G1 X56.665 Y93.113 E42.62987
G1 X56.605 Y93.941 E42.65569
G1 X49.038 Y86.374 E42.98846
G1 X48.841 Y87.065 E43.01082
G1 X56.605 Y94.829 E43.35222
G1 X56.605 Y95.717 E43.37983
G1 X48.587 Y87.699 E43.73240
G1 X48.317 Y88.317 E43.75336
G1 X56.605 Y96.605 E44.11782
G1 X56.605 Y97.493 E44.14543
G1 X48.006 Y88.894 E44.52357
G1 X47.676 Y89.452 E44.54372
G1 X56.605 Y98.382 E44.93638
G1 X56.605 Y99.270 E44.96400
G1 X47.318 Y89.982 E45.37238
G1 X46.926 Y90.479 E45.39204
G1 X56.605 Y100.158 E45.81765
G1 X56.605 Y101.046 E45.84526
G1 X46.521 Y90.961 E46.28870
G1 X46.074 Y91.403 E46.30822
G1 X56.605 Y101.934 E46.77129
G1 X56.605 Y102.822 E46.79890
G1 X45.621 Y91.837 E47.28192
G1 X45.617 Y92.722 E47.30942
G1 X56.605 Y103.710 E47.79260
G1 X56.605 Y104.598 E47.82021
G1 X45.617 Y93.610 E48.30338
G1 X45.617 Y94.498 E48.33100
G1 X64.552 Y113.433 E49.16362
G1 X65.440 Y113.433 E49.19123
G1 X56.675 Y104.667 E49.57668
G1 X57.563 Y104.667 E49.60429
G1 X66.328 Y113.433 E49.98974
G1 X67.217 Y113.433 E50.01735
G1 X58.451 Y104.667 E50.40280
G1 X59.339 Y104.667 E50.43041
G1 X68.105 Y113.433 E50.81586
G1 X68.993 Y113.433 E50.84347
G1 X60.227 Y104.667 E51.22892
G1 X61.115 Y104.667 E51.25654
G1 X69.881 Y113.433 E51.64199
G1 X70.769 Y113.433 E51.66960
G1 X62.003 Y104.667 E52.05505
G1 X62.891 Y104.667 E52.08266
G1 X71.657 Y113.433 E52.46811
G1 X72.163 Y113.051 E52.48782
G1 X63.779 Y104.667 E52.85648
G1 X64.667 Y104.667 E52.88409
G1 X72.163 Y112.163 E53.21370
G1 X72.163 Y111.275 E53.24131
G1 X65.555 Y104.667 E53.53187
G1 X66.443 Y104.667 E53.55948
G1 X72.163 Y110.387 E53.81099
G1 X72.163 Y109.499 E53.83860
G1 X66.890 Y104.225 E54.07048
G1 X66.890 Y103.337 E54.09809
G1 X72.163 Y108.611 E54.32997
G1 X72.163 Y107.723 E54.35758
G1 X66.890 Y102.449 E54.58946
G1 X66.890 Y101.561 E54.61707
G1 X72.163 Y106.835 E54.84895
G1 X72.163 Y105.947 E54.87656
G1 X66.890 Y100.673 E55.10844
G1 X66.890 Y99.785 E55.13605
G1 X72.163 Y105.059 E55.36793
G1 X72.163 Y104.170 E55.39554
G1 X66.890 Y98.897 E55.62742
G1 X66.890 Y98.009 E55.65503
G1 X72.163 Y103.282 E55.88691
G1 X72.163 Y102.394 E55.91452
G1 X66.890 Y97.121 E56.14640
G1 X66.890 Y96.233 E56.17401
G1 X72.163 Y101.506 E56.40589
G1 X72.163 Y100.618 E56.43350
G1 X66.890 Y95.345 E56.66538
G1 X66.890 Y94.457 E56.69299
G1 X72.163 Y99.730 E56.92487
G1 X63.664 Y113.433 F1800.000
G1 X45.617 Y95.386 E57.71844 F1800.000
G1 X45.617 Y96.274 E57.74605
G1 X62.776 Y113.433 E58.50057
G1 X61.888 Y113.433 E58.52818
G1 X45.617 Y97.162 E59.24365
G1 X45.617 Y98.050 E59.27126
G1 X61.000 Y113.433 E59.94768
G1 X60.112 Y113.433 E59.97530
G1 X45.617 Y98.938 E60.61267
G1 X45.617 Y99.826 E60.64028
G1 X59.224 Y113.433 E61.23860
G1 X58.336 Y113.433 E61.26622
G1 X45.617 Y100.714 E61.82549
G1 X45.617 Y101.602 E61.85310
G1 X57.448 Y113.433 E62.37332
G1 X56.560 Y113.433 E62.40094
G1 X45.617 Y102.490 E62.88211
G1 X45.617 Y103.378 E62.90972
G1 X55.672 Y113.433 E63.35185
G1 X54.784 Y113.433 E63.37946
