; generated by Slic3r 1.2.6 on 2015-02-24 at 19:32:50

; external perimeters extrusion width = 0.50mm
; perimeters extrusion width = 0.72mm
; infill extrusion width = 0.72mm
; solid infill extrusion width = 0.72mm
; top infill extrusion width = 0.72mm

M107
M190 S110 ; set bed temperature
M104 S230 ; set temperature
G28 ; home all axes
G1 Z1 F100 ; lift nozzle
M203 X4000 Y4000 Z20 ; set feedrate limits
M109 S230 ; wait for temperature to be reached
G21 ; set units to millimeters
G90 ; use absolute coordinates
M82 ; use absolute distances for extrusion
G92 E0
G1 E-2.00000 F600.00000
G92 E0
G1 Z0.500 F1800.000
G1 X31.069 Y38.909 F1800.000
G1 Z0.350 F1800.000
G1 E2.00000 F600.00000
G1 X33.273 Y37.959 E2.07426 F1800.000
G1 X35.000 Y37.750 E2.12808
G1 X65.000 Y37.750 E3.05632
G1 X67.367 Y38.147 E3.13058
G1 X69.474 Y39.296 E3.20484 F1800.000
G1 X71.091 Y41.069 E3.27909
G1 X72.041 Y43.273 E3.35335
G1 X72.250 Y45.000 E3.40717
G1 X72.250 Y65.500 E4.04147
G1 X72.223 Y66.128 E4.06092
G1 X64.807 Y151.402 E6.70937
G1 X64.373 Y153.320 E6.77021
G1 X62.788 Y157.546 E6.90985
G1 X61.585 Y159.622 E6.98411
G1 X59.770 Y161.192 E7.05837
G1 X57.542 Y162.084 E7.13263
G1 X56.000 Y162.250 E7.18061
G1 X44.000 Y162.250 E7.55190
G1 X41.633 Y161.853 E7.62616
G1 X39.526 Y160.704 E7.70042
G1 X37.909 Y158.931 E7.77468
G1 X37.212 Y157.546 E7.82266
G1 X35.620 Y153.300 E7.96297
G1 X35.185 Y151.382 E8.02382
G1 X27.777 Y66.128 E10.67163
G1 X27.750 Y65.500 E10.69107
G1 X27.750 Y45.000 E11.32536
G1 X28.147 Y42.633 E11.39962
G1 X29.296 Y40.526 E11.47388
G1 X31.014 Y38.959 E11.54582
G1 X31.498 Y39.417 F1800.000
G1 X31.668 Y39.274 E11.55269 F1800.000
G1 X33.820 Y38.481 E11.62366
G1 X35.000 Y38.375 E11.66031
G1 X65.000 Y38.375 E12.58855
G1 X67.259 Y38.772 E12.65951
G1 X69.247 Y39.915 E12.73047 F1800.000
G1 X70.726 Y41.668 E12.80143
G1 X71.519 Y43.820 E12.87240
G1 X71.625 Y45.000 E12.90905
G1 X71.625 Y65.500 E13.54334
G1 X71.600 Y66.074 E13.56112
G1 X64.185 Y151.348 E16.20957
G1 X63.788 Y153.100 E16.26516
G1 X62.203 Y157.326 E16.40480
G1 X61.038 Y159.302 E16.47577
G1 X59.270 Y160.762 E16.54673
G1 X56.000 Y161.625 E16.65136
G1 X44.000 Y161.625 E17.02266
G1 X41.741 Y161.228 E17.09362
G1 X39.753 Y160.085 E17.16458
G1 X37.797 Y157.326 E17.26921
G1 X36.205 Y153.080 E17.40952
G1 X35.808 Y151.328 E17.46512
G1 X28.400 Y66.073 E20.11293
G1 X28.375 Y65.500 E20.13070
G1 X28.375 Y45.000 E20.76499
G1 X28.772 Y42.741 E20.83595
G1 X29.915 Y40.753 E20.90692
G1 X31.441 Y39.466 E20.96868
G1 E18.96868 F600.00000
G92 E0
G1 Z0.850 F1800.000
G1 X45.211 Y58.528 F1800.000
G1 Z0.350 F1800.000
G1 E2.00000 F600.00000
G1 X44.553 Y58.989 E2.02484 F1800.000
G1 X43.825 Y59.328 E2.04968
G1 X43.050 Y59.536 E2.07452
G1 X42.250 Y59.606 E2.09937
G1 X41.450 Y59.536 E2.12421
G1 X40.675 Y59.328 E2.14905
G1 X39.947 Y58.989 E2.17389
G1 X39.289 Y58.528 E2.19873
G1 X38.722 Y57.961 E2.22357
G1 X38.261 Y57.303 E2.24842
G1 X37.922 Y56.575 E2.27326
G1 X37.713 Y55.795 E2.29824
G1 X37.646 Y54.977 E2.32364
G1 X37.714 Y54.200 E2.34777
G1 X37.922 Y53.425 E2.37261
G1 X38.261 Y52.697 E2.39746
G1 X38.722 Y52.039 E2.42230
G1 X39.289 Y51.472 E2.44714
G1 X39.947 Y51.011 E2.47198
G1 X40.679 Y50.670 E2.49697
G1 X41.473 Y50.462 E2.52237
G1 X42.250 Y50.394 E2.54650 F1800.000
G1 X43.050 Y50.464 E2.57134
G1 X43.825 Y50.672 E2.59618
G1 X44.553 Y51.011 E2.62102
G1 X45.211 Y51.472 E2.64586
G1 X45.778 Y52.039 E2.67070
G1 X46.239 Y52.697 E2.69555
G1 X46.578 Y53.425 E2.72039
G1 X46.786 Y54.200 E2.74523
G1 X46.857 Y55.014 E2.77049
G1 X46.768 Y55.868 E2.79706
G1 X46.578 Y56.575 E2.81973
G1 X46.239 Y57.303 E2.84457
G1 X45.778 Y57.961 E2.86941
G1 X45.264 Y58.475 E2.89194
G1 X44.807 Y58.048 F1800.000
G1 X44.239 Y58.446 E2.91339 F1800.000
G1 X43.611 Y58.739 E2.93485
G1 X42.941 Y58.918 E2.95631
G1 X42.250 Y58.979 E2.97777
G1 X41.559 Y58.918 E2.99923
G1 X40.889 Y58.739 E3.02069
G1 X40.261 Y58.446 E3.04214
G1 X39.693 Y58.048 E3.06360
G1 X39.202 Y57.557 E3.08506
G1 X38.804 Y56.989 E3.10652
G1 X38.511 Y56.361 E3.12798
G1 X38.331 Y55.688 E3.14952
G1 X38.273 Y54.979 E3.17154
G1 X38.332 Y54.309 E3.19234
G1 X38.511 Y53.639 E3.21380
G1 X38.804 Y53.011 E3.23526
G1 X39.202 Y52.443 E3.25672
G1 X39.693 Y51.952 E3.27818
G1 X40.261 Y51.554 E3.29964
G1 X40.892 Y51.260 E3.32118
G1 X41.580 Y51.080 E3.34320
G1 X42.250 Y51.021 E3.36400 F1800.000
G1 X42.941 Y51.082 E3.38546
G1 X43.611 Y51.261 E3.40692
G1 X44.239 Y51.554 E3.42838
G1 X44.807 Y51.952 E3.44984
G1 X45.298 Y52.443 E3.47129
G1 X45.696 Y53.011 E3.49275
G1 X45.989 Y53.639 E3.51421
G1 X46.168 Y54.309 E3.53567
G1 X46.229 Y55.008 E3.55739
G1 X46.151 Y55.754 E3.58057
G1 X45.989 Y56.361 E3.60002
G1 X45.696 Y56.989 E3.62148
G1 X45.298 Y57.557 E3.64294
G1 X44.860 Y57.995 E3.66208
G1 X44.404 Y57.567 F1800.000
G1 X43.926 Y57.902 E3.68015 F1800.000
G1 X43.396 Y58.149 E3.69823
G1 X42.832 Y58.300 E3.71630
G1 X42.250 Y58.351 E3.73438
G1 X41.668 Y58.300 E3.75245
G1 X41.104 Y58.149 E3.77053
G1 X40.574 Y57.902 E3.78860
G1 X40.096 Y57.567 E3.80668
G1 X39.683 Y57.154 E3.82475
G1 X39.348 Y56.676 E3.84283
G1 X39.101 Y56.146 E3.86090
G1 X38.949 Y55.581 E3.87901
G1 X38.900 Y54.981 E3.89764
G1 X38.950 Y54.418 E3.91512
G1 X39.101 Y53.854 E3.93320
G1 X39.348 Y53.324 E3.95127
G1 X39.683 Y52.846 E3.96935
G1 X40.096 Y52.433 E3.98742
G1 X40.574 Y52.098 E4.00550
G1 X41.105 Y51.850 E4.02360
G1 X41.687 Y51.698 E4.04224
G1 X42.250 Y51.649 E4.05971 F1800.000
G1 X42.832 Y51.700 E4.07779
G1 X43.396 Y51.851 E4.09586
G1 X43.926 Y52.098 E4.11394
G1 X44.404 Y52.433 E4.13201
G1 X44.817 Y52.846 E4.15009
G1 X45.152 Y53.324 E4.16816
G1 X45.399 Y53.854 E4.18624
G1 X45.550 Y54.418 E4.20431
G1 X45.602 Y55.003 E4.22248
G1 X45.535 Y55.640 E4.24228
G1 X45.399 Y56.146 E4.25852
G1 X45.152 Y56.676 E4.27659
G1 X44.817 Y57.154 E4.29467
G1 X44.457 Y57.514 E4.31042
G1 X44.477 Y58.062 F1800.000
G1 X53.214 Y55.800 F1800.000
G1 X53.144 Y55.000 E4.33526 F1800.000
G1 X53.214 Y54.200 E4.36010
G1 X53.422 Y53.425 E4.38495
G1 X53.761 Y52.697 E4.40979
G1 X54.222 Y52.039 E4.43463
G1 X54.789 Y51.472 E4.45947
G1 X55.447 Y51.011 E4.48431
G1 X56.179 Y50.670 E4.50930
G1 X56.973 Y50.462 E4.53470
G1 X57.750 Y50.394 E4.55883 F1800.000
G1 X58.550 Y50.464 E4.58367
G1 X59.325 Y50.672 E4.60851
G1 X60.053 Y51.011 E4.63335
G1 X60.711 Y51.472 E4.65819
G1 X61.278 Y52.039 E4.68304
G1 X61.739 Y52.697 E4.70788
G1 X62.078 Y53.425 E4.73272
G1 X62.286 Y54.200 E4.75756
G1 X62.356 Y55.000 E4.78240
G1 X62.286 Y55.805 E4.80739
G1 X62.068 Y56.596 E4.83279
G1 X61.739 Y57.303 E4.85692
G1 X61.278 Y57.961 E4.88176
G1 X60.711 Y58.528 E4.90660
G1 X60.053 Y58.989 E4.93144
G1 X59.325 Y59.328 E4.95628
G1 X58.545 Y59.537 E4.98127
G1 X57.727 Y59.604 E5.00667
G1 X56.950 Y59.536 E5.03080
G1 X56.175 Y59.328 E5.05564
G1 X55.447 Y58.989 E5.08048
G1 X54.789 Y58.528 E5.10533
G1 X54.222 Y57.961 E5.13017
G1 X53.761 Y57.303 E5.15501
G1 X53.422 Y56.575 E5.17985
G1 X53.233 Y55.872 E5.20237
G1 X53.832 Y55.691 F1800.000
G1 X53.771 Y55.000 E5.22383 F1800.000
G1 X53.832 Y54.309 E5.24529
G1 X54.011 Y53.639 E5.26675
G1 X54.304 Y53.011 E5.28820
G1 X54.702 Y52.443 E5.30966
G1 X55.193 Y51.952 E5.33112
G1 X55.761 Y51.554 E5.35258
G1 X56.392 Y51.260 E5.37413
G1 X57.080 Y51.080 E5.39614
G1 X57.750 Y51.021 E5.41695 F1800.000
G1 X58.441 Y51.082 E5.43841
G1 X59.111 Y51.261 E5.45986
G1 X59.739 Y51.554 E5.48132
G1 X60.307 Y51.952 E5.50278
G1 X60.798 Y52.443 E5.52424
G1 X61.196 Y53.011 E5.54570
G1 X61.489 Y53.639 E5.56716
G1 X61.668 Y54.309 E5.58861
G1 X61.729 Y55.000 E5.61007
G1 X61.668 Y55.694 E5.63162
G1 X61.480 Y56.380 E5.65364
G1 X61.196 Y56.989 E5.67444
G1 X60.798 Y57.557 E5.69590
G1 X60.307 Y58.048 E5.71736
G1 X59.739 Y58.446 E5.73881
G1 X59.111 Y58.739 E5.76027
G1 X58.438 Y58.919 E5.78182
G1 X57.729 Y58.977 E5.80384
G1 X57.059 Y58.918 E5.82464
G1 X56.389 Y58.739 E5.84610
G1 X55.761 Y58.446 E5.86756
G1 X55.193 Y58.048 E5.88901
G1 X54.702 Y57.557 E5.91047
G1 X54.304 Y56.989 E5.93193
G1 X54.011 Y56.361 E5.95339
G1 X53.851 Y55.763 E5.97253
G1 X54.450 Y55.582 F1800.000
G1 X54.399 Y55.000 E5.99060 F1800.000
G1 X54.450 Y54.418 E6.00868
G1 X54.601 Y53.854 E6.02675
G1 X54.848 Y53.324 E6.04483
G1 X55.183 Y52.846 E6.06290
G1 X55.596 Y52.433 E6.08098
G1 X56.074 Y52.098 E6.09905
G1 X56.605 Y51.850 E6.11716
G1 X57.187 Y51.698 E6.13579
G1 X57.750 Y51.649 E6.15327 F1800.000
G1 X58.332 Y51.700 E6.17135
G1 X58.896 Y51.851 E6.18942
G1 X59.426 Y52.098 E6.20750
G1 X59.904 Y52.433 E6.22557
G1 X60.317 Y52.846 E6.24365
G1 X60.652 Y53.324 E6.26172
G1 X60.899 Y53.854 E6.27980
G1 X61.050 Y54.418 E6.29787
G1 X61.101 Y55.000 E6.31595
G1 X61.050 Y55.583 E6.33405
G1 X60.891 Y56.164 E6.35269
G1 X60.652 Y56.676 E6.37016
G1 X60.317 Y57.154 E6.38824
G1 X59.904 Y57.567 E6.40631
G1 X59.426 Y57.902 E6.42439
G1 X58.896 Y58.149 E6.44247
G1 X58.331 Y58.301 E6.46057
G1 X57.731 Y58.350 E6.47921
G1 X57.168 Y58.300 E6.49668
G1 X56.604 Y58.149 E6.51476
G1 X56.074 Y57.902 E6.53283
G1 X55.596 Y57.567 E6.55091
G1 X55.183 Y57.154 E6.56898
G1 X54.848 Y56.676 E6.58706
G1 X54.601 Y56.146 E6.60513
G1 X54.469 Y55.654 E6.62089
G1 X53.985 Y55.397 F1800.000
G1 X53.600 Y105.400 F1800.000
G1 X46.400 Y105.400 E6.84365 F1800.000
G1 X46.400 Y153.400 E8.32884
G1 X45.109 Y153.400 E8.36880
G1 X44.008 Y150.466 E8.46576
G1 X44.013 Y148.600 E8.52350
G1 X45.877 Y148.600 E8.58117
G1 X45.877 Y109.193 E9.80045
G1 X45.860 Y100.700 E10.06326
G1 X45.774 Y99.825 E10.09044
G1 X45.682 Y99.441 E10.10269
G1 X45.555 Y99.000 E10.11686
G1 X45.236 Y98.203 E10.14342
G1 X44.685 Y97.210 E10.17858
G1 X44.100 Y96.402 E10.20944
G1 X44.100 Y69.430 E11.04398
G1 X44.018 Y68.501 E11.07284
G1 X43.766 Y67.579 E11.10243
G1 X43.355 Y66.697 E11.13253
G1 X42.794 Y65.897 E11.16276
G1 X42.103 Y65.206 E11.19300
G1 X41.303 Y64.645 E11.22323
G1 X40.417 Y64.232 E11.25347
G1 X39.473 Y63.979 E11.28370
G1 X38.570 Y63.900 E11.31177
G1 X36.600 Y63.900 E11.37273
G1 X36.600 Y46.600 E11.90802
G1 X63.400 Y46.600 E12.73727
G1 X63.400 Y63.900 E13.27256
G1 X61.430 Y63.900 E13.33352
G1 X60.527 Y63.979 E13.36159
G1 X59.583 Y64.232 E13.39182
G1 X58.697 Y64.645 E13.42206
G1 X57.897 Y65.206 E13.45229
G1 X57.206 Y65.897 E13.48253
G1 X56.645 Y66.697 E13.51276
G1 X56.232 Y67.583 E13.54300
G1 X55.979 Y68.527 E13.57323
G1 X55.900 Y69.430 E13.60130
G1 X55.900 Y96.394 E14.43560
G1 X55.422 Y97.060 E14.46097
G1 X55.094 Y97.582 E14.48003
G1 X54.764 Y98.217 E14.50217
G1 X54.484 Y98.890 E14.52475
G1 X54.226 Y99.821 E14.55462
G1 X54.140 Y100.701 E14.58199
G1 X54.122 Y148.600 E16.06404
G1 X55.984 Y148.600 E16.12162
G1 X55.985 Y150.485 E16.17994
G1 X54.891 Y153.400 E16.27629
G1 X53.600 Y153.400 E16.31625
G1 X53.600 Y105.475 E17.79911
G1 X52.975 Y106.025 F1800.000
G1 X47.025 Y106.025 E17.98321 F1800.000
G1 X47.025 Y154.025 E19.46839
G1 X44.676 Y154.025 E19.54109
G1 X43.383 Y150.579 E19.65498
G1 X43.390 Y147.975 E19.73554
G1 X45.252 Y147.975 E19.79316
G1 X45.252 Y109.194 E20.99308
G1 X45.235 Y100.731 E21.25495
G1 X45.157 Y99.929 E21.27987
G1 X45.077 Y99.600 E21.29034
G1 X44.963 Y99.203 E21.30312
G1 X44.670 Y98.472 E21.32748
G1 X44.156 Y97.546 E21.36026
G1 X43.622 Y96.807 E21.38848
G1 X43.475 Y96.637 E21.39543
G1 X43.475 Y69.457 E22.23641
G1 X43.401 Y68.612 E22.26268
G1 X43.177 Y67.795 E22.28888
G1 X42.812 Y67.011 E22.31565
G1 X42.314 Y66.300 E22.34250
G1 X41.700 Y65.686 E22.36936
G1 X40.989 Y65.188 E22.39621
G1 X40.203 Y64.822 E22.42306
G1 X39.365 Y64.597 E22.44991
G1 X38.543 Y64.525 E22.47544
G1 X35.975 Y64.525 E22.55489
G1 X35.975 Y45.975 E23.12886
G1 X64.025 Y45.975 E23.99677
G1 X64.025 Y64.525 E24.57074
G1 X61.457 Y64.525 E24.65018
G1 X60.635 Y64.597 E24.67571
G1 X59.797 Y64.822 E24.70256
G1 X59.011 Y65.188 E24.72942
G1 X58.300 Y65.686 E24.75627
G1 X57.686 Y66.300 E24.78312
G1 X57.188 Y67.011 E24.80997
G1 X56.822 Y67.797 E24.83682
G1 X56.597 Y68.635 E24.86368
G1 X56.525 Y69.457 E24.88920
G1 X56.525 Y96.634 E25.73008
G1 X56.371 Y96.810 E25.73733
G1 X55.940 Y97.409 E25.76015
G1 X55.637 Y97.892 E25.77781
G1 X55.331 Y98.481 E25.79834
G1 X55.073 Y99.101 E25.81911
G1 X54.932 Y99.570 E25.83426
G1 X54.844 Y99.926 E25.84563
G1 X54.765 Y100.732 E25.87066
G1 X54.748 Y147.975 E27.33243
G1 X56.608 Y147.975 E27.38999
G1 X56.610 Y150.598 E27.47114
G1 X55.324 Y154.025 E27.58440
G1 X52.975 Y154.025 E27.65710
G1 X52.975 Y106.100 E29.13996
G1 X52.350 Y106.650 F1800.000
G1 X47.650 Y106.650 E29.28539 F1800.000
G1 X47.650 Y154.650 E30.77057
G1 X44.243 Y154.650 E30.87600
G1 X42.758 Y150.691 E31.00683
G1 X42.767 Y147.350 E31.11020
G1 X44.627 Y147.350 E31.16777
G1 X44.627 Y109.195 E32.34834
G1 X44.610 Y100.762 E32.60927
G1 X44.539 Y100.033 E32.63192
G1 X44.473 Y99.760 E32.64062
G1 X44.371 Y99.406 E32.65200
G1 X44.105 Y98.741 E32.67417
G1 X43.628 Y97.882 E32.70457
G1 X43.131 Y97.195 E32.73080
G1 X42.850 Y96.870 E32.74411
G1 X42.850 Y69.485 E33.59144
G1 X42.783 Y68.722 E33.61512
G1 X42.589 Y68.011 E33.63794
G1 X42.268 Y67.324 E33.66138
G1 X41.833 Y66.703 E33.68485
G1 X41.297 Y66.167 E33.70832
G1 X40.676 Y65.732 E33.73179
G1 X39.988 Y65.411 E33.75526
G1 X39.256 Y65.215 E33.77873
G1 X38.515 Y65.150 E33.80172
G1 X35.350 Y65.150 E33.89966
G1 X35.350 Y45.350 E34.51230
G1 X64.650 Y45.350 E35.41888
G1 X64.650 Y65.150 E36.03152
G1 X61.485 Y65.150 E36.12945
G1 X60.744 Y65.215 E36.15245
G1 X60.012 Y65.411 E36.17592
G1 X59.324 Y65.732 E36.19938
G1 X58.703 Y66.167 E36.22285
G1 X58.167 Y66.703 E36.24632
G1 X57.732 Y67.324 E36.26979
G1 X57.411 Y68.012 E36.29326
G1 X57.215 Y68.744 E36.31673
G1 X57.150 Y69.485 E36.33972
G1 X57.150 Y96.869 E37.18701
G1 X56.861 Y97.199 E37.20061
G1 X56.459 Y97.758 E37.22190
G1 X56.179 Y98.203 E37.23817
G1 X55.898 Y98.746 E37.25708
G1 X55.662 Y99.312 E37.27605
G1 X55.535 Y99.735 E37.28972
G1 X55.461 Y100.032 E37.29920
G1 X55.390 Y100.762 E37.32189
G1 X55.373 Y147.350 E38.76338
G1 X57.233 Y147.350 E38.82093
G1 X57.235 Y150.711 E38.92492
G1 X55.757 Y154.650 E39.05509
G1 X52.350 Y154.650 E39.16052
G1 X52.350 Y106.725 E40.64338
G1 X52.350 Y106.150 F1800.000
G1 X55.617 Y149.272 F1800.000
G1 X55.311 Y148.967 E40.65881 F1800.000
G1 X54.290 Y148.967 E40.69531
G1 X55.617 Y150.294 E40.76238
G1 X55.402 Y151.100 E40.79221
G1 X53.967 Y149.665 E40.86477
G1 X53.967 Y150.686 E40.90127
G1 X55.124 Y151.843 E40.95975
G1 X54.845 Y152.585 E40.98810
G1 X53.967 Y151.707 E41.03250
G1 X53.967 Y152.728 E41.06900
G1 X54.272 Y153.033 E41.08443
G1 E39.08443 F600.00000
G92 E0
G1 Z0.850 F1800.000
G1 X45.302 Y152.714 F1800.000
G1 Z0.350 F1800.000
G1 E2.00000 F600.00000
G1 X45.621 Y153.033 E2.01649 F1800.000
G1 X46.033 Y152.401 E2.04402
G1 X44.676 Y151.045 E2.11408
G1 X44.377 Y149.703 E2.16429
G1 X46.033 Y151.358 E2.24980
G1 X46.033 Y150.315 E2.28789
G1 X44.685 Y148.967 E2.35752
G1 X45.728 Y148.967 E2.39561
G1 X46.033 Y149.272 E2.41136
G1 X46.235 Y104.728 F1800.000
G1 X46.541 Y105.033 E2.42472 F1800.000
G1 X47.424 Y105.033 E2.45208
G1 X46.234 Y103.842 E2.50420
G1 X46.232 Y102.956 E2.53162
G1 X48.308 Y105.033 E2.62251
G1 X49.192 Y105.033 E2.64987
G1 X46.230 Y102.070 E2.77953
G1 X46.228 Y101.185 E2.80695
G1 X50.076 Y105.033 E2.97538
G1 X50.960 Y105.033 E3.00274
G1 X46.201 Y100.273 E3.21107
G1 X46.045 Y99.234 E3.24359
G1 X51.844 Y105.033 E3.49741
G1 X52.728 Y105.033 E3.52476
G1 X45.559 Y97.863 E3.83858
G1 X44.467 Y95.888 F1800.000
G1 X53.612 Y105.033 E4.23885 F1800.000
G1 X53.772 Y104.308 E4.26182
G1 X44.467 Y95.004 E4.66907
G1 X44.467 Y94.120 E4.69643
G1 X53.772 Y103.425 E5.10370
G1 X53.772 Y102.541 E5.13105
G1 X44.467 Y93.236 E5.53833
G1 X44.467 Y92.352 E5.56569
G1 X53.773 Y101.657 E5.97299
G1 X53.776 Y100.777 E6.00024
G1 X44.467 Y91.468 E6.40769
G1 X44.467 Y90.584 E6.43505
G1 X53.855 Y99.972 E6.84594
G1 X54.031 Y99.264 E6.86851
G1 X44.467 Y89.700 E7.28711
G1 X44.467 Y88.816 E7.31447
G1 X54.251 Y98.600 E7.74271
G1 X54.522 Y97.987 E7.76345
G1 X44.467 Y87.932 E8.20354
G1 X44.467 Y87.048 E8.23090
G1 X54.828 Y97.409 E8.68439
G1 X55.172 Y96.869 E8.70421
G1 X44.467 Y86.164 E9.17274
G1 X44.467 Y85.280 E9.20010
G1 X55.533 Y96.346 E9.68444
G1 X55.533 Y95.462 E9.71180
G1 X44.467 Y84.396 E10.19615
G1 X44.467 Y83.512 E10.22350
G1 X55.533 Y94.578 E10.70785
G1 X55.533 Y93.694 E10.73521
G1 X44.467 Y82.628 E11.21955
G1 X44.467 Y81.744 E11.24691
G1 X55.533 Y92.810 E11.73126
