; generated by Slic3r 1.2.6 on 2015-02-24 at 20:32:44

; external perimeters extrusion width = 0.50mm
; perimeters extrusion width = 0.72mm
; infill extrusion width = 0.72mm
; solid infill extrusion width = 0.72mm
; top infill extrusion width = 0.72mm

M107
M190 S110 ; set bed temperature
M104 S230 ; set temperature
G28 ; home all axes
G1 Z1 F100 ; lift nozzle
M203 X4000 Y4000 Z20 ; set feedrate limits
M109 S230 ; wait for temperature to be reached
G21 ; set units to millimeters
G90 ; use absolute coordinates
M82 ; use absolute distances for extrusion
G92 E0
G1 E-2.00000 F600.00000
G92 E0
G1 Z0.500 F1800.000
G1 X41.319 Y83.132 F1800.000
G1 Z0.350 F1800.000
G1 E2.00000 F600.00000
G1 X42.089 Y82.749 E2.02660 F1800.000
G1 X43.487 Y82.166 E2.07346
G1 X44.390 Y81.857 E2.10300
G1 X45.853 Y81.462 E2.14987
G1 X46.789 Y81.275 E2.17940
G1 X48.290 Y81.076 E2.22628
G1 X49.243 Y81.013 E2.25581
G1 X50.757 Y81.013 E2.30267
G1 X51.710 Y81.076 E2.33221
G1 X53.211 Y81.275 E2.37907 F1800.000
G1 X54.148 Y81.462 E2.40861
G1 X55.610 Y81.857 E2.45547
G1 X56.513 Y82.166 E2.48502
G1 X57.911 Y82.749 E2.53188
G1 X58.766 Y83.174 E2.56142
G1 X60.075 Y83.936 E2.60828
G1 X60.866 Y84.469 E2.63782
G1 X62.290 Y85.580 E2.69369
G1 X79.666 Y100.188 E3.39607
G1 X81.222 Y102.016 E3.47033
G1 X82.096 Y104.251 E3.54459
G1 X82.250 Y105.738 E3.59084
G1 X82.250 Y111.738 E3.77649
G1 X81.853 Y114.104 E3.85074
G1 X80.704 Y116.212 E3.92500
G1 X78.931 Y117.829 E3.99926
G1 X76.727 Y118.779 E4.07352
G1 X75.000 Y118.987 E4.12734
G1 X25.000 Y118.987 E5.67441
G1 X22.633 Y118.590 E5.74866
G1 X20.526 Y117.442 E5.82292
G1 X18.909 Y115.669 E5.89718
G1 X17.959 Y113.464 E5.97144
G1 X17.750 Y111.738 E6.02526
G1 X17.750 Y105.738 E6.21091
G1 X18.147 Y103.371 E6.28517
G1 X19.296 Y101.263 E6.35942
G1 X20.334 Y100.188 E6.40567
G1 X37.710 Y85.580 E7.10805
G1 X39.134 Y84.469 E7.16392
G1 X39.925 Y83.936 E7.19346
G1 X41.252 Y83.165 E7.24095
G1 X41.597 Y83.690 F1800.000
G1 X42.330 Y83.326 E7.26627 F1800.000
G1 X43.728 Y82.742 E7.31313
G1 X44.553 Y82.460 E7.34013
G1 X46.016 Y82.065 E7.38700
G1 X46.871 Y81.894 E7.41399
G1 X48.373 Y81.695 E7.46086
G1 X49.243 Y81.638 E7.48784
G1 X50.757 Y81.638 E7.53470
G1 X51.628 Y81.695 E7.56170
G1 X53.129 Y81.894 E7.60856 F1800.000
G1 X53.985 Y82.065 E7.63556
G1 X55.447 Y82.460 E7.68242
G1 X56.272 Y82.742 E7.70941
G1 X57.670 Y83.326 E7.75628
G1 X58.451 Y83.714 E7.78327
G1 X59.760 Y84.476 E7.83013
G1 X60.484 Y84.964 E7.85713
G1 X61.888 Y86.058 E7.91222
G1 X79.263 Y100.667 E8.61460
G1 X80.737 Y102.424 E8.68556
G1 X81.523 Y104.579 E8.75653
G1 X81.625 Y105.738 E8.79252
G1 X81.625 Y111.738 E8.97816
G1 X81.228 Y113.996 E9.04913
G1 X80.085 Y115.984 E9.12009
G1 X78.332 Y117.464 E9.19105
G1 X76.180 Y118.257 E9.26201
G1 X75.000 Y118.362 E9.29866
G1 X25.000 Y118.362 E10.84573
G1 X22.741 Y117.965 E10.91669
G1 X20.753 Y116.822 E10.98765
G1 X19.274 Y115.069 E11.05862
G1 X18.481 Y112.917 E11.12958
G1 X18.375 Y111.738 E11.16623
G1 X18.375 Y105.738 E11.35188
G1 X18.772 Y103.479 E11.42284
G1 X19.915 Y101.491 E11.49380
G1 X20.737 Y100.667 E11.52979
G1 X38.112 Y86.058 E12.23217
G1 X39.516 Y84.964 E12.28727
G1 X40.240 Y84.476 E12.31426
G1 X41.530 Y83.725 E12.36047
G1 E10.36047 F600.00000
G92 E0
G1 Z0.850 F1800.000
G1 X52.355 Y109.378 F1800.000
G1 Z0.350 F1800.000
G1 E2.00000 F600.00000
G1 X51.317 Y109.574 E2.03269 F1800.000
G1 X50.264 Y109.658 E2.06537
G1 X49.208 Y109.630 E2.09806
G1 X48.161 Y109.490 E2.13074
G1 X47.135 Y109.239 E2.16343
G1 X46.141 Y108.881 E2.19611
G1 X45.191 Y108.419 E2.22880
G1 X44.296 Y107.859 E2.26149
G1 X43.465 Y107.206 E2.29417
G1 X42.708 Y106.469 E2.32686
G1 X42.034 Y105.656 E2.35954
G1 X41.450 Y104.776 E2.39223
G1 X40.963 Y103.838 E2.42491
G1 X40.578 Y102.854 E2.45760
G1 X40.300 Y101.835 E2.49029
G1 X40.132 Y100.792 E2.52297
G1 X40.076 Y99.738 E2.55566
G1 X40.132 Y98.683 E2.58834
G1 X40.300 Y97.640 E2.62103
G1 X40.578 Y96.621 E2.65372
G1 X40.963 Y95.637 E2.68640
G1 X41.450 Y94.699 E2.71909
G1 X42.034 Y93.819 E2.75177
G1 X42.708 Y93.006 E2.78446
G1 X43.465 Y92.269 E2.81714
G1 X44.296 Y91.616 E2.84983
G1 X45.191 Y91.056 E2.88252
G1 X46.141 Y90.594 E2.91520
G1 X47.135 Y90.236 E2.94789
G1 X48.161 Y89.985 E2.98057
G1 X49.208 Y89.845 E3.01326
G1 X50.065 Y89.822 E3.03978
G1 X50.264 Y89.817 E3.04594 F1800.000
G1 X51.317 Y89.901 E3.07863
G1 X52.355 Y90.097 E3.11132
G1 X53.367 Y90.402 E3.14400
G1 X54.340 Y90.813 E3.17669
G1 X55.264 Y91.324 E3.20937
G1 X56.128 Y91.932 E3.24206
G1 X56.923 Y92.627 E3.27474
G1 X57.640 Y93.403 E3.30743
G1 X58.270 Y94.251 E3.34012
G1 X58.806 Y95.162 E3.37280
G1 X59.243 Y96.124 E3.40549
G1 X59.575 Y97.126 E3.43817
G1 X59.798 Y98.159 E3.47086
G1 X59.910 Y99.209 E3.50354
G1 X59.910 Y100.266 E3.53623
G1 X59.798 Y101.316 E3.56892
G1 X59.575 Y102.349 E3.60160
G1 X59.243 Y103.352 E3.63429
G1 X58.806 Y104.314 E3.66697
G1 X58.270 Y105.224 E3.69966
G1 X57.640 Y106.072 E3.73235
G1 X56.923 Y106.848 E3.76503
G1 X56.128 Y107.543 E3.79772
G1 X55.264 Y108.151 E3.83040
G1 X54.340 Y108.663 E3.86309
G1 X53.367 Y109.073 E3.89577
G1 X52.427 Y109.357 E3.92614
G1 X52.207 Y108.770 F1800.000
G1 X51.234 Y108.954 E3.95676 F1800.000
G1 X50.248 Y109.033 E3.98739
G1 X49.258 Y109.006 E4.01801
G1 X48.277 Y108.875 E4.04864
G1 X47.316 Y108.640 E4.07926
G1 X46.385 Y108.304 E4.10989
G1 X45.494 Y107.871 E4.14051
G1 X44.655 Y107.346 E4.17114
G1 X43.877 Y106.735 E4.20176
G1 X43.168 Y106.045 E4.23239
G1 X42.536 Y105.283 E4.26301
G1 X41.989 Y104.458 E4.29364
G1 X41.532 Y103.580 E4.32426
G1 X41.172 Y102.658 E4.35489
G1 X40.912 Y101.703 E4.38551
G1 X40.754 Y100.726 E4.41614
G1 X40.702 Y99.738 E4.44676
G1 X40.754 Y98.749 E4.47738
G1 X40.912 Y97.772 E4.50801
G1 X41.172 Y96.817 E4.53863
G1 X41.532 Y95.895 E4.56926
G1 X41.989 Y95.017 E4.59988
G1 X42.536 Y94.192 E4.63051
G1 X43.168 Y93.430 E4.66113
G1 X43.877 Y92.740 E4.69176
G1 X44.655 Y92.129 E4.72238
G1 X45.494 Y91.604 E4.75301
G1 X46.385 Y91.171 E4.78363
G1 X47.316 Y90.835 E4.81426
G1 X48.277 Y90.600 E4.84488
G1 X49.258 Y90.469 E4.87551 F1800.000
G1 X50.082 Y90.447 E4.90100
G1 X50.248 Y90.442 E4.90613
G1 X51.234 Y90.521 E4.93676
G1 X52.207 Y90.705 E4.96738
G1 X53.154 Y90.990 E4.99801
G1 X54.066 Y91.375 E5.02863
G1 X54.932 Y91.855 E5.05925
G1 X55.742 Y92.424 E5.08988
G1 X56.487 Y93.076 E5.12050
G1 X57.158 Y93.803 E5.15113
G1 X57.749 Y94.597 E5.18175
G1 X58.251 Y95.450 E5.21238
G1 X58.660 Y96.351 E5.24300
G1 X58.971 Y97.291 E5.27363
G1 X59.180 Y98.258 E5.30425
G1 X59.285 Y99.243 E5.33488
G1 X59.285 Y100.232 E5.36550
G1 X59.180 Y101.217 E5.39613
G1 X58.971 Y102.184 E5.42675
G1 X58.660 Y103.124 E5.45738
G1 X58.251 Y104.025 E5.48800
G1 X57.749 Y104.878 E5.51863
G1 X57.158 Y105.672 E5.54925
G1 X56.487 Y106.399 E5.57988
G1 X55.742 Y107.051 E5.61050
G1 X54.932 Y107.620 E5.64113
G1 X54.066 Y108.100 E5.67175
G1 X53.154 Y108.485 E5.70237
G1 X52.279 Y108.749 E5.73068
G1 X52.058 Y109.248 F1800.000
G1 X35.600 Y109.576 F1800.000
G1 X35.600 Y107.337 E5.79995 F1800.000
G1 X35.878 Y107.337 E5.80857
G1 X36.555 Y107.282 E5.82958
G1 X37.278 Y107.104 E5.85260
G1 X37.962 Y106.811 E5.87562
G1 X38.590 Y106.412 E5.89864
G1 X39.145 Y105.917 E5.92167
G1 X39.614 Y105.339 E5.94469
G1 X39.983 Y104.693 E5.96771
G1 X40.284 Y103.888 E5.99431
G1 X40.911 Y105.093 E6.03636
G1 X41.531 Y106.029 E6.07111
G1 X42.248 Y106.894 E6.10586
G1 X43.053 Y107.677 E6.14060
G1 X43.936 Y108.371 E6.17535
G1 X44.888 Y108.966 E6.21010
G1 X45.898 Y109.457 E6.24484
G1 X46.924 Y109.827 E6.27859
G1 X46.870 Y110.138 E6.28834
G1 X26.600 Y110.138 E6.91551
G1 X26.600 Y109.576 E6.93290
G1 X35.525 Y109.576 E7.20905
G1 X64.400 Y109.576 F1800.000
G1 X73.400 Y109.576 E7.48752 F1800.000
G1 X73.400 Y110.138 E7.50490
G1 X53.110 Y110.138 E8.13270
G1 X53.063 Y109.818 E8.14272
G1 X53.579 Y109.662 E8.15939
G1 X54.614 Y109.225 E8.19414
G1 X55.596 Y108.681 E8.22889
G1 X56.515 Y108.036 E8.26363
G1 X57.360 Y107.296 E8.29838
G1 X58.122 Y106.471 E8.33313
G1 X58.791 Y105.570 E8.36788
G1 X59.362 Y104.602 E8.40262
G1 X59.702 Y103.851 E8.42814
G1 X60.017 Y104.693 E8.45595
G1 X60.386 Y105.339 E8.47897
G1 X60.855 Y105.917 E8.50199
G1 X61.410 Y106.412 E8.52502
G1 X62.038 Y106.811 E8.54804
G1 X62.722 Y107.104 E8.57106
G1 X63.445 Y107.282 E8.59408
G1 X64.122 Y107.337 E8.61509
G1 X64.400 Y107.337 E8.62371
G1 X64.400 Y109.501 E8.69066
G1 X65.025 Y108.951 F1800.000
G1 X72.975 Y108.951 E8.93664 F1800.000
G1 X72.975 Y106.712 E9.00590
G1 X74.025 Y106.712 E9.03840
G1 X74.025 Y110.763 E9.16372
G1 X25.975 Y110.763 E10.65046
G1 X25.975 Y106.712 E10.77577
G1 X27.025 Y106.712 E10.80827
G1 X27.025 Y108.951 E10.87754
G1 X34.975 Y108.951 E11.12351
G1 X34.975 Y106.712 E11.19278
G1 X35.853 Y106.712 E11.21995
G1 X36.454 Y106.664 E11.23862
G1 X37.078 Y106.509 E11.25850
G1 X37.669 Y106.256 E11.27839
G1 X38.212 Y105.912 E11.29828
G1 X38.692 Y105.484 E11.31817
G1 X39.096 Y104.985 E11.33805
G1 X39.415 Y104.427 E11.35794
G1 X39.640 Y103.825 E11.37783
G1 X39.763 Y103.205 E11.39738
G1 X39.788 Y102.548 E11.41772
G1 X39.508 Y100.545 E11.48031
G1 X39.493 Y99.157 E11.52324
G1 X39.660 Y97.781 E11.56612
G1 X40.007 Y96.440 E11.60900
G1 X40.527 Y95.155 E11.65188
G1 X41.212 Y93.950 E11.69476
G1 X42.048 Y92.845 E11.73764
G1 X43.023 Y91.860 E11.78052
G1 X44.119 Y91.012 E11.82340
G1 X45.316 Y90.314 E11.86628
G1 X46.595 Y89.781 E11.90916
G1 X47.933 Y89.419 E11.95204
G1 X49.307 Y89.237 E11.99492
G1 X50.693 Y89.237 E12.03780
G1 X52.039 Y89.416 E12.07981
G1 X53.406 Y89.781 E12.12359
G1 X54.684 Y90.314 E12.16643
G1 X55.881 Y91.012 E12.20931
G1 X56.977 Y91.860 E12.25219
G1 X57.952 Y92.845 E12.29507
G1 X58.788 Y93.950 E12.33795
G1 X59.473 Y95.155 E12.38083
G1 X59.993 Y96.440 E12.42371
G1 X60.340 Y97.781 E12.46659
G1 X60.507 Y99.157 E12.50947
G1 X60.492 Y100.545 E12.55241
G1 X60.212 Y102.546 E12.61495
G1 X60.234 Y103.194 E12.63501
G1 X60.360 Y103.825 E12.65489
G1 X60.585 Y104.427 E12.67478
G1 X60.904 Y104.985 E12.69467
G1 X61.308 Y105.484 E12.71456
G1 X61.788 Y105.912 E12.73444
G1 X62.331 Y106.256 E12.75433
G1 X62.922 Y106.509 E12.77422
G1 X63.546 Y106.664 E12.79410
G1 X64.147 Y106.712 E12.81277
G1 X65.025 Y106.712 E12.83994
G1 X65.025 Y108.876 E12.90689
G1 X65.650 Y108.326 F1800.000
G1 X72.350 Y108.326 E13.11420 F1800.000
G1 X72.350 Y106.088 E13.18346
G1 X74.650 Y106.088 E13.25463
G1 X74.650 Y111.388 E13.41862
G1 X25.350 Y111.388 E14.94402
G1 X25.350 Y106.088 E15.10801
G1 X27.650 Y106.088 E15.17918
G1 X27.650 Y108.326 E15.24844
G1 X34.350 Y108.326 E15.45575
G1 X34.350 Y106.088 E15.52502
G1 X35.828 Y106.088 E15.57074
G1 X36.353 Y106.045 E15.58706
G1 X36.879 Y105.915 E15.60381
G1 X37.377 Y105.702 E15.62056
G1 X37.834 Y105.411 E15.63732
G1 X38.238 Y105.051 E15.65407
G1 X38.579 Y104.631 E15.67082
G1 X38.848 Y104.161 E15.68758
G1 X39.037 Y103.653 E15.70433
G1 X39.141 Y103.132 E15.72077
G1 X39.161 Y102.580 E15.73788
G1 X38.883 Y100.591 E15.79999
G1 X38.868 Y99.123 E15.84545
G1 X39.045 Y97.665 E15.89088
G1 X39.412 Y96.243 E15.93631
G1 X39.963 Y94.882 E15.98174
G1 X40.688 Y93.606 E16.02717
G1 X41.575 Y92.435 E16.07260
G1 X42.608 Y91.391 E16.11804
G1 X43.769 Y90.492 E16.16347
G1 X45.038 Y89.754 E16.20890
G1 X46.393 Y89.188 E16.25433
G1 X47.810 Y88.805 E16.29976
G1 X49.266 Y88.612 E16.34520
G1 X50.734 Y88.612 E16.39063
G1 X52.161 Y88.802 E16.43516
G1 X53.608 Y89.188 E16.48150
G1 X54.962 Y89.754 E16.52692
G1 X56.231 Y90.492 E16.57235
G1 X57.392 Y91.391 E16.61778
G1 X58.425 Y92.435 E16.66321
G1 X59.312 Y93.606 E16.70864
G1 X60.037 Y94.882 E16.75407
G1 X60.588 Y96.243 E16.79951
G1 X60.955 Y97.665 E16.84494
G1 X61.132 Y99.123 E16.89037
G1 X61.117 Y100.591 E16.93582
G1 X60.839 Y102.579 E16.99792
G1 X60.857 Y103.122 E17.01474
G1 X60.963 Y103.653 E17.03149
G1 X61.152 Y104.161 E17.04824
G1 X61.421 Y104.631 E17.06500
G1 X61.762 Y105.051 E17.08175
G1 X62.166 Y105.411 E17.09850
G1 X62.623 Y105.702 E17.11526
G1 X63.121 Y105.915 E17.13201
G1 X63.647 Y106.045 E17.14876
G1 X64.172 Y106.088 E17.16508
G1 X65.650 Y106.088 E17.21080
G1 X65.650 Y108.251 E17.27775
G1 X65.650 Y108.826 F1800.000
G1 X64.033 Y107.992 F1800.000
G1 X63.726 Y107.685 E17.29128 F1800.000
G1 X62.653 Y107.502 E17.32522
G1 X64.033 Y108.882 E17.38605
G1 X64.012 Y109.751 E17.41315
G1 X59.409 Y105.148 E17.61602
G1 X59.079 Y105.708 E17.63627
G1 X63.141 Y109.770 E17.81530
G1 X62.251 Y109.770 E17.84304
G1 X58.700 Y106.220 E17.99954
G1 X58.314 Y106.723 E18.01932
G1 X61.361 Y109.770 E18.15361
G1 X60.471 Y109.770 E18.18135
G1 X57.887 Y107.186 E18.29524
G1 X57.446 Y107.636 E18.31485
G1 X59.581 Y109.770 E18.40892
G1 X58.691 Y109.770 E18.43666
G1 X56.972 Y108.052 E18.51241
G1 X56.477 Y108.447 E18.53215
G1 X57.801 Y109.770 E18.59047
G1 X56.910 Y109.770 E18.61821
G1 X55.955 Y108.814 E18.66034
G1 X55.403 Y109.153 E18.68051
G1 X56.020 Y109.770 E18.70770
G1 X55.130 Y109.770 E18.73544
G1 X54.845 Y109.485 E18.74801
G1 X51.753 Y110.133 F1800.000
G1 X51.381 Y110.167 E18.75309 F1800.000
G1 X50.266 Y110.211 E18.76828
G1 X49.176 Y110.196 E18.78311
G1 X48.216 Y110.133 E18.79621
G1 X45.172 Y109.750 F1800.000
G1 X44.863 Y109.442 E18.80983 F1800.000
G1 X44.300 Y109.770 E18.83020
G1 X39.940 Y105.411 E19.02275
G1 X39.551 Y105.914 E19.04260
G1 X43.408 Y109.770 E19.21293
G1 X42.516 Y109.770 E19.24079
G1 X39.111 Y106.366 E19.39115
G1 X38.621 Y106.767 E19.41095
G1 X41.624 Y109.770 E19.54357
G1 X40.732 Y109.770 E19.57143
G1 X38.076 Y107.114 E19.68875
G1 X37.453 Y107.383 E19.70994
G1 X39.840 Y109.770 E19.81537
G1 X38.948 Y109.770 E19.84323
G1 X36.759 Y107.582 E19.93990
G1 X35.990 Y107.704 E19.96423
G1 X38.056 Y109.770 E20.05549
G1 X37.164 Y109.770 E20.08334
G1 X35.967 Y108.573 E20.13621
G1 X35.967 Y109.465 E20.16407
G1 X36.272 Y109.770 E20.17754
G1 X26.500 Y109.263 F1800.000
G1 X26.500 Y107.025 E20.20801 F1800.000
G1 E18.20801 F600.00000
G92 E0
G1 Z0.850 F1800.000
G1 X73.500 Y107.025 F1800.000
G1 Z0.350 F1800.000
G1 E2.00000 F600.00000
G1 X73.500 Y109.263 E2.03047 F1800.000
G1 E0.03047 F600.00000
G92 E0
G1 Z0.850 F1800.000
G1 X58.561 Y104.186 F1800.000
G1 Z0.650 F1800.000
G1 E2.00000 F600.00000
G1 X58.039 Y105.071 E2.02853 F3600.000
G1 X57.427 Y105.895 E2.05705
G1 X56.730 Y106.650 E2.08558
G1 X55.958 Y107.326 E2.11410
G1 X55.117 Y107.916 E2.14263
G1 X54.219 Y108.414 E2.17115
G1 X53.273 Y108.813 E2.19968
G1 X52.290 Y109.109 E2.22821
G1 X51.280 Y109.300 E2.25673
G1 X50.257 Y109.382 E2.28526
G1 X49.230 Y109.354 E2.31378
G1 X48.212 Y109.218 E2.34231
G1 X47.215 Y108.974 E2.37083
G1 X46.249 Y108.626 E2.39936
G1 X45.325 Y108.177 E2.42788
G1 X44.455 Y107.632 E2.45641
G1 X43.647 Y106.998 E2.48494
G1 X42.911 Y106.282 E2.51346
G1 X42.256 Y105.491 E2.54199
G1 X41.688 Y104.635 E2.57051
G1 X41.215 Y103.724 E2.59904
G1 X40.841 Y102.768 E2.62756
G1 X40.570 Y101.777 E2.65609
G1 X40.407 Y100.763 E2.68462
G1 X40.352 Y99.738 E2.71314
G1 X40.407 Y98.712 E2.74167
G1 X40.570 Y97.698 E2.77019
G1 X40.841 Y96.707 E2.79872
G1 X41.215 Y95.751 E2.82724
G1 X41.688 Y94.840 E2.85577
G1 X42.256 Y93.984 E2.88430
G1 X42.911 Y93.193 E2.91282
G1 X43.647 Y92.477 E2.94135
G1 X44.455 Y91.843 E2.96987
G1 X45.325 Y91.298 E2.99840
G1 X46.249 Y90.849 E3.02692
G1 X47.215 Y90.501 E3.05545
G1 X48.212 Y90.257 E3.08398
G1 X49.230 Y90.121 E3.11250
G1 X49.794 Y90.106 E3.12817
G1 X50.257 Y90.093 E3.14103 F3600.000
G1 X51.280 Y90.175 E3.16955
G1 X52.290 Y90.366 E3.19808
G1 X53.273 Y90.662 E3.22660
G1 X54.219 Y91.061 E3.25513
G1 X55.117 Y91.559 E3.28366
G1 X55.958 Y92.149 E3.31218
G1 X56.730 Y92.825 E3.34071
G1 X57.427 Y93.580 E3.36923
G1 X58.039 Y94.404 E3.39776
G1 X58.561 Y95.289 E3.42628
G1 X58.985 Y96.224 E3.45481
G1 X59.308 Y97.199 E3.48333
G1 X59.525 Y98.203 E3.51186
G1 X59.634 Y99.224 E3.54039
G1 X59.634 Y100.251 E3.56891
G1 X59.525 Y101.272 E3.59744
G1 X59.308 Y102.276 E3.62596
G1 X58.985 Y103.251 E3.65449
G1 X58.592 Y104.118 E3.68093
G1 X58.076 Y103.934 F1800.000
G1 X57.585 Y104.769 E3.69884 F1800.000
G1 X57.007 Y105.547 E3.71675
G1 X56.350 Y106.258 E3.73467
G1 X55.621 Y106.896 E3.75258
G1 X54.828 Y107.453 E3.77049
G1 X53.980 Y107.923 E3.78840
G1 X53.088 Y108.299 E3.80631
G1 X52.160 Y108.579 E3.82423
G1 X51.208 Y108.759 E3.84214
G1 X50.242 Y108.836 E3.86005
G1 X49.274 Y108.810 E3.87796
G1 X48.314 Y108.682 E3.89587
G1 X47.372 Y108.452 E3.91379
G1 X46.461 Y108.123 E3.93170
