; generated by Slic3r 1.2.6 on 2015-02-06 at 13:16:59

; external perimeters extrusion width = 0.50mm
; perimeters extrusion width = 0.72mm
; infill extrusion width = 0.72mm
; solid infill extrusion width = 0.72mm
; top infill extrusion width = 0.72mm

M107
M190 S110 ; set bed temperature
M104 S230 ; set temperature
G28 ; home all axes
G1 Z5 F100 ; lift nozzle

M109 S230 ; wait for temperature to be reached
G21 ; set units to millimeters
G90 ; use absolute coordinates
M82 ; use absolute distances for extrusion
G92 E0
G1 Z0.0 F100.000
G1 E-2.00000 F2400.00000
G92 E0
G1 X74.746 Y88.878 F7800.000
G1 E2.00000 F2400.00000
G1 X76.606 Y87.527 E2.10673 F1800.000
G1 X77.545 Y86.957 E2.15769
G1 X96.045 Y77.736 E3.11706
G1 X99.000 Y77.040 E3.25797
G1 X125.000 Y77.040 E4.46468
G1 X127.259 Y77.437 E4.57113
G1 X129.247 Y78.581 E4.67757 F1800.000
G1 X130.726 Y80.333 E4.78402
G1 X131.519 Y82.485 E4.89046
G1 X131.625 Y83.665 E4.94543
G1 X131.625 Y117.187 E6.50128
G1 X131.555 Y118.333 E6.55452
G1 X131.393 Y119.360 E6.60279
G1 X131.246 Y119.971 E6.63195
G1 X130.925 Y120.959 E6.68017
G1 X130.685 Y121.539 E6.70930
G1 X130.213 Y122.464 E6.75749
G1 X129.885 Y123.000 E6.78668
G1 X129.274 Y123.841 E6.83491
G1 X128.866 Y124.319 E6.86408
G1 X128.131 Y125.053 E6.91229
G1 X127.654 Y125.461 E6.94143
G1 X126.813 Y126.072 E6.98969
G1 X126.277 Y126.400 E7.01882
G1 X125.352 Y126.872 E7.06705
G1 X124.911 Y127.055 E7.08920
G1 X122.728 Y127.550 E7.19309
G1 X117.625 Y127.812 E7.43023
G1 X106.375 Y127.812 E7.95236
G1 X101.272 Y127.550 E8.18951
G1 X99.089 Y127.055 E8.29339
G1 X80.015 Y118.974 E9.25483
G1 X77.805 Y117.991 E9.36707
G1 X76.606 Y117.298 E9.43136
G1 X74.746 Y115.947 E9.53809
G1 X73.716 Y115.020 E9.60236
G1 X72.178 Y113.311 E9.70910
G1 X71.363 Y112.191 E9.77338
G1 X70.214 Y110.199 E9.88011
G1 X69.650 Y108.934 E9.94439
G1 X68.940 Y106.747 E10.05112
G1 X68.652 Y105.392 E10.11539
G1 X68.411 Y103.105 E10.22212
G1 X68.411 Y101.720 E10.28641
G1 X68.652 Y99.433 E10.39314
G1 X68.940 Y98.078 E10.45741
G1 X69.650 Y95.891 E10.56414
G1 X70.214 Y94.626 E10.62842
G1 X71.363 Y92.634 E10.73515
G1 X72.178 Y91.514 E10.79943
G1 X73.716 Y89.805 E10.90617
G1 X74.690 Y88.928 E10.96696
G1 E8.96696 F2400.00000
G92 E0
G1 X118.100 Y108.886 F7800.000
G1 E2.00000 F2400.00000
G1 X105.900 Y108.886 E2.56621 F1800.000
G1 X105.900 Y91.939 E3.35273
G1 X118.100 Y91.939 E3.91894
G1 X118.100 Y108.811 E4.70199
G1 X117.475 Y108.261 F7800.000
G1 X106.525 Y108.261 E5.21019 F1800.000
G1 X106.525 Y92.564 E5.93871
G1 X117.475 Y92.564 E6.44691
G1 X117.475 Y108.186 E7.17196
G1 X116.850 Y107.636 F7800.000
G1 X107.150 Y107.636 E7.62215 F1800.000
G1 X107.150 Y93.189 E8.29267
G1 X116.850 Y93.189 E8.74287
G1 X116.850 Y107.561 E9.40991
G1 X116.850 Y108.136 F7800.000
G1 X123.400 Y111.950 F7800.000
G1 X123.134 Y112.031 E9.42281 F1800.000
G1 X122.833 Y111.580 E9.44799
G1 X121.533 Y110.711 E9.52053
G1 X120.000 Y110.406 E9.59308
G1 X118.462 Y110.712 E9.66584
G1 X117.157 Y111.595 E9.73897
G1 X116.299 Y112.879 E9.81067
G1 X116.025 Y114.255 E9.87577
G1 X116.025 Y119.588 E10.12327
G1 X107.975 Y119.588 E10.49691
G1 X107.975 Y114.255 E10.74441
G1 X107.701 Y112.879 E10.80951
G1 X106.833 Y111.580 E10.88205
G1 X105.533 Y110.711 E10.95460
G1 X104.000 Y110.406 E11.02715
G1 X102.467 Y110.711 E11.09969
G1 X101.167 Y111.580 E11.17224
G1 X100.866 Y112.031 E11.19742
G1 X100.600 Y111.950 E11.21032
G1 X100.600 Y85.265 E12.44883
G1 X123.400 Y85.265 E13.50705
G1 X123.400 Y111.875 E14.74208
G1 X123.350 Y118.599 F7800.000
G1 X123.350 Y114.316 E14.94082 F1800.000
G1 X123.113 Y113.123 E14.99728
G1 X122.382 Y112.030 E15.05829
G1 X121.289 Y111.300 E15.11930
G1 X120.000 Y111.044 E15.18031
G1 X118.708 Y111.301 E15.24145
G1 X117.609 Y112.044 E15.30304
G1 X116.887 Y113.123 E15.36329
G1 X116.650 Y114.316 E15.41976
G1 X116.650 Y120.213 E15.69341
G1 X107.350 Y120.213 E16.12505
G1 X107.350 Y114.316 E16.39870
G1 X107.113 Y113.123 E16.45517
G1 X106.382 Y112.030 E16.51617
G1 X105.289 Y111.300 E16.57718
G1 X104.000 Y111.044 E16.63819
G1 X102.711 Y111.300 E16.69920
G1 X101.618 Y112.030 E16.76021
G1 X100.887 Y113.123 E16.82122
G1 X100.650 Y114.316 E16.87769
G1 X100.650 Y118.599 E17.07642
G1 X100.348 Y118.659 E17.09070
G1 X100.126 Y118.121 E17.11769
G1 X100.015 Y117.660 E17.13970
G1 X99.975 Y117.149 E17.16349
G1 X99.975 Y84.640 E18.67231
G1 X124.025 Y84.640 E19.78853
G1 X124.025 Y117.149 E21.29735
G1 X123.985 Y117.660 E21.32114
G1 X123.874 Y118.121 E21.34315
G1 X123.652 Y118.659 E21.37013
G1 X123.423 Y118.613 E21.38093
G1 X122.725 Y120.397 F7800.000
G1 X122.725 Y114.378 E21.66028 F1800.000
G1 X122.524 Y113.367 E21.70812
G1 X121.932 Y112.481 E21.75759
G1 X121.045 Y111.889 E21.80706
G1 X120.000 Y111.681 E21.85653
G1 X118.954 Y111.889 E21.90605
G1 X118.060 Y112.493 E21.95610
G1 X117.476 Y113.367 E22.00490
G1 X117.275 Y114.378 E22.05274
G1 X117.275 Y120.837 E22.35253
G1 X106.725 Y120.837 E22.84218
G1 X106.725 Y114.378 E23.14198
G1 X106.524 Y113.367 E23.18982
G1 X105.932 Y112.481 E23.23929
G1 X105.045 Y111.889 E23.28876
G1 X104.000 Y111.681 E23.33823
G1 X102.955 Y111.889 E23.38771
G1 X102.068 Y112.481 E23.43718
G1 X101.476 Y113.367 E23.48665
G1 X101.275 Y114.378 E23.53449
G1 X101.275 Y120.397 E23.81383
G1 X100.855 Y120.140 E23.83668
G1 X100.420 Y119.768 E23.86325
G1 X100.048 Y119.332 E23.88983
G1 X99.749 Y118.844 E23.91640
G1 X99.530 Y118.315 E23.94298
G1 X99.396 Y117.758 E23.96955
G1 X99.350 Y117.174 E23.99677
G1 X99.350 Y84.015 E25.53573
G1 X124.650 Y84.015 E26.70995
G1 X124.650 Y117.174 E28.24891
G1 X124.604 Y117.758 E28.27612
G1 X124.470 Y118.315 E28.30270
G1 X124.251 Y118.844 E28.32928
G1 X123.952 Y119.332 E28.35585
G1 X123.580 Y119.768 E28.38242
G1 X123.145 Y120.140 E28.40900
G1 X122.789 Y120.358 E28.42837
G1 X122.892 Y119.925 F7800.000
G1 E26.42837 F2400.00000
G92 E0
G1 X108.647 Y119.220 F7800.000
G1 E2.00000 F2400.00000
G1 X108.342 Y118.915 E2.02038 F1800.000
G1 X108.342 Y118.016 E2.06286
G1 X109.547 Y119.220 E2.14333
G1 X110.446 Y119.220 E2.18581
G1 X108.342 Y117.116 E2.32636
G1 X108.342 Y116.217 E2.36884
G1 X111.345 Y119.220 E2.56947
G1 X112.245 Y119.220 E2.61195
G1 X108.342 Y115.318 E2.87266
G1 X108.342 Y114.418 E2.91515
G1 X113.144 Y119.220 E3.23594
G1 X114.044 Y119.220 E3.27842
G1 X108.204 Y113.381 E3.66849
G1 X107.566 Y111.844 F7800.000
G1 X114.943 Y119.220 E4.16127 F1800.000
G1 X115.658 Y119.036 E4.19614
G1 X105.875 Y109.253 E4.84964
G1 X105.533 Y108.911 F7800.000
G1 X100.967 Y104.345 E5.15464 F1800.000
G1 X100.967 Y103.446 E5.19713
G1 X105.533 Y108.011 E5.50213
G1 X105.533 Y107.112 E5.54461
G1 X100.967 Y102.546 E5.84962
G1 X100.967 Y101.647 E5.89210
G1 X105.533 Y106.213 E6.19711
G1 X105.533 Y105.313 E6.23959
G1 X100.967 Y100.747 E6.54459
G1 X100.967 Y99.848 E6.58708
G1 X105.533 Y104.414 E6.89208
G1 X105.533 Y103.514 E6.93457
G1 X100.967 Y98.949 E7.23957
G1 X100.967 Y98.049 E7.28206
G1 X105.533 Y102.615 E7.58706
G1 X105.533 Y101.716 E7.62954
G1 X100.967 Y97.150 E7.93455
G1 X100.967 Y96.250 E7.97703
G1 X105.533 Y100.816 E8.28204
G1 X105.533 Y99.917 E8.32452
G1 X100.967 Y95.351 E8.62952
G1 X100.967 Y94.451 E8.67201
G1 X105.533 Y99.017 E8.97701
G1 X105.533 Y98.118 E9.01950
G1 X100.967 Y93.552 E9.32450
G1 X100.967 Y92.653 E9.36699
G1 X105.533 Y97.218 E9.67199
G1 X105.533 Y96.319 E9.71447
G1 X100.967 Y91.753 E10.01948
G1 X100.967 Y90.854 E10.06196
G1 X105.533 Y95.420 E10.36697
G1 X105.533 Y94.520 E10.40945
G1 X100.967 Y89.954 E10.71445
G1 X100.967 Y89.055 E10.75694
G1 X105.533 Y93.621 E11.06194
G1 X105.533 Y92.721 E11.10443
G1 X100.967 Y88.156 E11.40943
G1 X100.967 Y87.256 E11.45191
G1 X105.533 Y91.822 E11.75692
G1 X106.182 Y91.572 F7800.000
G1 X100.967 Y86.357 E12.10529 F1800.000
G1 X101.142 Y85.632 E12.14050
G1 X107.082 Y91.572 E12.53728
G1 X107.981 Y91.572 E12.57977
G1 X102.041 Y85.632 E12.97655
G1 X102.941 Y85.632 E13.01903
G1 X108.880 Y91.572 E13.41581
G1 X109.780 Y91.572 E13.45830
G1 X103.840 Y85.632 E13.85508
G1 X104.740 Y85.632 E13.89756
G1 X110.679 Y91.572 E14.29434
G1 X111.579 Y91.572 E14.33683
G1 X105.639 Y85.632 E14.73361
G1 X106.538 Y85.632 E14.77609
G1 X112.478 Y91.572 E15.17287
G1 X113.377 Y91.572 E15.21536
G1 X107.438 Y85.632 E15.61214
G1 X108.337 Y85.632 E15.65462
G1 X114.277 Y91.572 E16.05141
G1 X115.176 Y91.572 E16.09389
G1 X109.237 Y85.632 E16.49067
G1 X110.136 Y85.632 E16.53315
G1 X116.076 Y91.572 E16.92994
G1 X116.975 Y91.572 E16.97242
G1 X111.035 Y85.632 E17.36920
G1 X111.935 Y85.632 E17.41169
G1 X117.875 Y91.572 E17.80847
G1 X118.467 Y92.164 F7800.000
G1 X123.033 Y96.730 E18.11347 F1800.000
G1 X123.033 Y95.831 E18.15595
G1 X112.834 Y85.632 E18.83724
G1 X113.734 Y85.632 E18.87972
G1 X123.033 Y94.931 E19.50093
G1 X123.033 Y94.032 E19.54341
G1 X114.633 Y85.632 E20.10453
G1 X115.532 Y85.632 E20.14702
G1 X123.033 Y93.133 E20.64806
G1 X123.033 Y92.233 E20.69054
G1 X116.432 Y85.632 E21.13150
G1 X117.331 Y85.632 E21.17398
G1 X123.033 Y91.334 E21.55486
G1 X123.033 Y90.434 E21.59734
G1 X118.231 Y85.632 E21.91813
G1 X119.130 Y85.632 E21.96062
G1 X123.033 Y89.535 E22.22133
G1 X123.033 Y88.636 E22.26381
G1 X120.030 Y85.632 E22.46444
G1 X120.929 Y85.632 E22.50693
G1 X123.033 Y87.736 E22.64747
G1 X123.033 Y86.837 E22.68996
G1 X121.828 Y85.632 E22.77042
G1 X122.728 Y85.632 E22.81291
G1 X123.033 Y85.937 E22.83329
G1 X118.467 Y93.064 F7800.000
G1 X123.033 Y97.630 E23.13829 F1800.000
G1 X123.033 Y98.529 E23.18078
G1 X118.467 Y93.963 E23.48578
G1 X118.467 Y94.863 E23.52827
G1 X123.033 Y99.428 E23.83327
G1 X123.033 Y100.328 E23.87575
G1 X118.467 Y95.762 E24.18076
G1 X118.467 Y96.661 E24.22324
G1 X123.033 Y101.227 E24.52825
G1 X123.033 Y102.127 E24.57073
G1 X118.467 Y97.561 E24.87573
G1 X118.467 Y98.460 E24.91822
G1 X123.033 Y103.026 E25.22322
G1 X123.033 Y103.926 E25.26571
G1 X118.467 Y99.360 E25.57071
G1 X118.467 Y100.259 E25.61320
G1 X123.033 Y104.825 E25.91820
G1 X123.033 Y105.724 E25.96068
G1 X118.467 Y101.159 E26.26569
G1 X118.467 Y102.058 E26.30817
G1 X123.033 Y106.624 E26.61318
G1 X123.033 Y107.523 E26.65566
G1 X118.467 Y102.957 E26.96066
G1 X118.467 Y103.857 E27.00315
G1 X123.033 Y108.423 E27.30815
G1 X123.033 Y109.322 E27.35064
G1 X118.467 Y104.756 E27.65564
G1 X118.467 Y105.656 E27.69813
G1 X123.033 Y110.221 E28.00313
G1 X123.033 Y111.121 E28.04561
G1 X118.467 Y106.555 E28.35062
G1 X118.467 Y107.454 E28.39310
G1 X121.268 Y110.255 E28.58019
G1 X120.145 Y110.032 E28.63426
G1 X118.467 Y108.354 E28.74635
G1 X118.467 Y109.253 E28.78883
G1 X119.391 Y110.177 E28.85054
G1 X118.641 Y110.326 E28.88667
G1 X117.568 Y109.253 E28.95834
G1 X116.668 Y109.253 E29.00082
G1 X118.035 Y110.620 E29.09213
G1 X117.498 Y110.983 E29.12273
G1 X115.769 Y109.253 E29.23827
G1 X114.869 Y109.253 E29.28076
G1 X116.962 Y111.346 E29.42054
G1 X116.591 Y111.874 E29.45103
G1 X113.970 Y109.253 E29.62610
G1 X113.071 Y109.253 E29.66858
G1 X116.230 Y112.413 E29.87967
G1 X115.923 Y113.005 E29.91118
G1 X112.171 Y109.253 E30.16182
G1 X111.272 Y109.253 E30.20430
G1 X115.774 Y113.755 E30.50505
G1 X115.658 Y114.539 E30.54247
G1 X110.372 Y109.253 E30.89555
G1 X109.473 Y109.253 E30.93804
G1 X115.658 Y115.438 E31.35121
G1 X115.658 Y116.338 E31.39369
G1 X108.573 Y109.253 E31.86694
G1 X107.674 Y109.253 E31.90943
G1 X115.658 Y117.237 E32.44276
G1 X115.658 Y118.136 E32.48525
G1 X106.775 Y109.253 E33.07866
G1 X106.569 Y110.846 F7800.000
G1 X100.967 Y105.244 E33.45287 F1800.000
G1 X100.967 Y106.144 E33.49535
G1 X105.031 Y110.208 E33.76685
G1 X103.983 Y110.059 E33.81687
G1 X100.967 Y107.043 E34.01833
G1 X100.967 Y107.943 E34.06081
G1 X103.233 Y110.208 E34.21216
G1 X102.483 Y110.358 E34.24829
G1 X100.967 Y108.842 E34.34952
G1 X100.967 Y109.741 E34.39200
G1 X101.921 Y110.696 E34.45575
G1 X101.382 Y111.056 E34.48638
G1 X100.967 Y110.641 E34.51411
G1 E32.51411 F2400.00000
G92 E0
G1 X93.953 Y106.587 F7800.000
G1 E2.00000 F2400.00000
G1 X92.723 Y108.369 E2.10050 F1800.000
G1 X91.102 Y109.805 E2.20100
G1 X89.185 Y110.811 E2.30149
G1 X87.083 Y111.329 E2.40199
G1 X84.917 Y111.329 E2.50249
G1 X82.815 Y110.811 E2.60298
G1 X80.898 Y109.805 E2.70348
G1 X79.277 Y108.369 E2.80398
G1 X78.047 Y106.587 E2.90447
G1 X77.279 Y104.562 E3.00497
G1 X77.018 Y102.412 E3.10547
G1 X77.279 Y100.263 E3.20597
G1 X78.047 Y98.238 E3.30646
G1 X79.277 Y96.456 E3.40696
G1 X80.898 Y95.020 E3.50746
G1 X82.815 Y94.014 E3.60796
G1 X84.917 Y93.496 E3.70845
G1 X87.083 Y93.496 E3.80895 F1800.000
G1 X89.185 Y94.014 E3.90945
G1 X91.102 Y95.020 E4.00994
G1 X92.723 Y96.456 E4.11044
G1 X93.953 Y98.238 E4.21094
G1 X94.721 Y100.263 E4.31144
G1 X94.982 Y102.412 E4.41193
G1 X94.721 Y104.562 E4.51243
G1 X93.980 Y106.517 E4.60945
G1 X93.396 Y106.294 F7800.000
G1 X92.252 Y107.951 E4.70290 F1800.000
G1 X90.745 Y109.287 E4.79636
G1 X88.962 Y110.222 E4.88981
G1 X87.007 Y110.704 E4.98326
G1 X84.993 Y110.704 E5.07672
G1 X83.038 Y110.222 E5.17017
G1 X81.255 Y109.287 E5.26363
G1 X79.748 Y107.951 E5.35708
G1 X78.604 Y106.294 E5.45053
G1 X77.890 Y104.411 E5.54399
G1 X77.647 Y102.412 E5.63744
G1 X77.890 Y100.414 E5.73090
G1 X78.604 Y98.531 E5.82435
G1 X79.748 Y96.874 E5.91781
G1 X81.255 Y95.538 E6.01126
G1 X83.038 Y94.603 E6.10472
G1 X84.993 Y94.121 E6.19817
G1 X87.007 Y94.121 E6.29162 F1800.000
G1 X88.962 Y94.603 E6.38508
G1 X90.745 Y95.538 E6.47853
G1 X92.252 Y96.874 E6.57199
G1 X93.396 Y98.531 E6.66544
G1 X94.110 Y100.414 E6.75890
G1 X94.353 Y102.412 E6.85235
G1 X94.110 Y104.411 E6.94580
G1 X93.422 Y106.224 E7.03578
G1 X93.646 Y106.727 F7800.000
G1 X94.798 Y107.104 F7800.000
G1 X94.106 Y108.302 E7.09999 F1800.000
G1 X92.704 Y109.859 E7.19721
G1 X91.010 Y111.090 E7.29443
G1 X89.096 Y111.942 E7.39165
G1 X87.047 Y112.377 E7.48887
G1 X84.953 Y112.377 E7.58609
G1 X82.904 Y111.942 E7.68331
G1 X80.990 Y111.090 E7.78053
G1 X79.296 Y109.859 E7.87774
G1 X77.894 Y108.302 E7.97497
G1 X76.847 Y106.488 E8.07218
G1 X76.199 Y104.496 E8.16940
G1 X75.980 Y102.412 E8.26662
G1 X76.199 Y100.329 E8.36384
G1 X76.847 Y98.337 E8.46106
G1 X77.894 Y96.523 E8.55828
G1 X79.296 Y94.966 E8.65550
G1 X80.990 Y93.735 E8.75272
G1 X82.904 Y92.883 E8.84993
G1 X84.953 Y92.448 E8.94715
G1 X87.047 Y92.448 E9.04437
G1 X88.815 Y92.823 E9.12826
G1 X89.096 Y92.883 E9.14159 F1800.000
G1 X91.010 Y93.735 E9.23881
G1 X92.704 Y94.966 E9.33603
G1 X94.106 Y96.523 E9.43325
G1 X95.153 Y98.337 E9.53047
G1 X95.801 Y100.329 E9.62769
G1 X96.020 Y102.412 E9.72490
G1 X95.801 Y104.496 E9.82212
G1 X95.153 Y106.488 E9.91934
G1 X94.835 Y107.039 E9.94886
G1 X95.339 Y107.416 F7800.000
G1 X94.614 Y108.671 E10.01613 F1800.000
G1 X93.125 Y110.326 E10.11944
G1 X91.324 Y111.634 E10.22276
G1 X89.290 Y112.539 E10.32607
G1 X87.113 Y113.002 E10.42939
G1 X84.887 Y113.002 E10.53270
G1 X82.710 Y112.539 E10.63602
G1 X80.676 Y111.634 E10.73933
G1 X78.875 Y110.326 E10.84265
G1 X77.386 Y108.671 E10.94597
G1 X76.273 Y106.743 E11.04928
G1 X75.585 Y104.626 E11.15260
G1 X75.352 Y102.412 E11.25591
G1 X75.585 Y100.199 E11.35923
G1 X76.273 Y98.082 E11.46254
G1 X77.386 Y96.154 E11.56586
G1 X78.875 Y94.499 E11.66918
G1 X80.676 Y93.191 E11.77249
G1 X82.710 Y92.286 E11.87580
G1 X84.887 Y91.823 E11.97912
G1 X87.113 Y91.823 E12.08243
G1 X88.945 Y92.212 E12.16937
G1 X89.290 Y92.286 E12.18575 F1800.000
G1 X91.324 Y93.191 E12.28907
G1 X93.125 Y94.499 E12.39238
G1 X94.614 Y96.154 E12.49570
G1 X95.727 Y98.082 E12.59901
G1 X96.415 Y100.199 E12.70233
G1 X96.648 Y102.412 E12.80564
G1 X96.415 Y104.626 E12.90896
G1 X95.727 Y106.743 E13.01227
G1 X95.377 Y107.351 E13.04484
G1 X94.839 Y107.416 F7800.000
G1 X94.382 Y106.836 F7800.000
G1 X93.660 Y107.978 E13.07241 F1800.000
G1 X93.077 Y108.711 E13.09154
G1 X92.334 Y109.448 E13.11290
G1 X91.400 Y110.198 E13.13736
G1 X90.735 Y110.614 E13.15338
G1 X89.341 Y111.286 E13.18497
G1 X88.929 Y111.428 E13.19387
G1 X87.168 Y111.832 E13.23077
G1 X86.992 Y111.853 E13.23437
G1 X85.008 Y111.853 E13.27489
G1 X84.879 Y111.840 E13.27753
G1 X83.071 Y111.428 E13.31540
G1 X82.617 Y111.269 E13.32521
G1 X81.265 Y110.614 E13.35589
G1 X80.600 Y110.198 E13.37190
G1 X79.666 Y109.448 E13.39637
G1 X78.923 Y108.711 E13.41772
G1 X78.340 Y107.978 E13.43685
G1 X77.618 Y106.836 E13.46442
G1 X77.345 Y106.266 E13.47733
G1 X76.796 Y104.705 E13.51112
G1 X76.722 Y104.385 E13.51783
G1 X76.499 Y102.412 E13.55835
