; generated by Slic3r 1.2.6 on 2015-02-24 at 15:06:40

; external perimeters extrusion width = 0.50mm
; perimeters extrusion width = 0.72mm
; infill extrusion width = 0.72mm
; solid infill extrusion width = 0.72mm
; top infill extrusion width = 0.72mm

M107
M190 S110 ; set bed temperature
M104 S230 ; set temperature
G28 ; home all axes
G1 Z1 F100 ; lift nozzle
M203 X4000 Y4000 Z20 ; set feedrate limits
M109 S230 ; wait for temperature to be reached
G21 ; set units to millimeters
G90 ; use absolute coordinates
M82 ; use absolute distances for extrusion
G92 E0
G1 E-2.00000 F600.00000
G92 E0
G1 Z0.500 F100.000
G1 X39.920 Y80.090 F1800.000
G1 Z0.350 F100.000
G1 E2.00000 F600.00000
G1 X45.766 Y77.177 E2.20210 F1800.000
G1 X49.000 Y76.415 E2.30490
G1 X75.000 Y76.415 E3.10937
G1 X77.367 Y76.813 E3.18363
G1 X79.474 Y77.961 E3.25789 F1800.000
G1 X81.091 Y79.734 E3.33215
G1 X82.041 Y81.938 E3.40641
G1 X82.250 Y83.665 E3.46023
G1 X82.250 Y117.187 E4.49746
G1 X82.178 Y118.382 E4.53447
G1 X82.000 Y119.506 E4.56968
G1 X81.854 Y120.117 E4.58912
G1 X81.502 Y121.198 E4.62430
G1 X81.262 Y121.778 E4.64372
G1 X80.746 Y122.790 E4.67888
G1 X80.418 Y123.327 E4.69834
G1 X79.749 Y124.247 E4.73353
G1 X79.341 Y124.725 E4.75298
G1 X78.537 Y125.528 E4.78815
G1 X78.060 Y125.936 E4.80758
G1 X77.139 Y126.605 E4.84279
G1 X76.604 Y126.933 E4.86221
G1 X75.591 Y127.449 E4.89739
G1 X75.150 Y127.632 E4.91216
G1 X72.761 Y128.174 E4.98795
G1 X67.625 Y128.437 E5.14707
G1 X56.375 Y128.437 E5.49516
G1 X51.239 Y128.174 E5.65429
G1 X48.850 Y127.632 E5.73007
G1 X29.771 Y119.549 E6.37119
G1 X27.551 Y118.562 E6.44637
G1 X26.239 Y117.804 E6.49327
G1 X24.378 Y116.452 E6.56442
G1 X23.252 Y115.438 E6.61131
G1 X21.713 Y113.729 E6.68247
G1 X20.822 Y112.503 E6.72936
G1 X19.673 Y110.511 E6.80052
G1 X19.056 Y109.127 E6.84742
G1 X18.345 Y106.940 E6.91857
G1 X18.030 Y105.457 E6.96546
G1 X17.790 Y103.170 E7.03661
G1 X17.790 Y101.655 E7.08351
G1 X18.030 Y99.368 E7.15467
G1 X18.345 Y97.885 E7.20155
G1 X19.056 Y95.698 E7.27271
G1 X19.673 Y94.313 E7.31961
G1 X20.822 Y92.322 E7.39076
G1 X21.713 Y91.096 E7.43765
G1 X23.252 Y89.387 E7.50881
G1 X24.378 Y88.373 E7.55570
G1 X26.239 Y87.021 E7.62686
G1 X27.266 Y86.398 E7.66403
G1 X39.853 Y80.124 E8.09920
G1 X40.199 Y80.650 F1800.000
G1 X46.045 Y77.736 E8.30129 F1800.000
G1 X49.000 Y77.040 E8.39523
G1 X75.000 Y77.040 E9.19971
G1 X77.259 Y77.437 E9.27067
G1 X79.247 Y78.581 E9.34163 F1800.000
G1 X80.726 Y80.333 E9.41260
G1 X81.519 Y82.485 E9.48356
G1 X81.625 Y83.665 E9.52021
G1 X81.625 Y117.187 E10.55744
G1 X81.555 Y118.333 E10.59293
G1 X81.393 Y119.360 E10.62511
G1 X81.246 Y119.971 E10.64455
G1 X80.925 Y120.959 E10.67670
G1 X80.685 Y121.539 E10.69612
G1 X80.213 Y122.464 E10.72824
G1 X79.885 Y123.000 E10.74770
G1 X79.274 Y123.841 E10.77986
G1 X78.866 Y124.319 E10.79930
G1 X78.131 Y125.053 E10.83145
G1 X77.654 Y125.461 E10.85087
G1 X76.813 Y126.072 E10.88305
G1 X76.277 Y126.400 E10.90247
G1 X75.352 Y126.872 E10.93462
G1 X74.911 Y127.055 E10.94939
G1 X72.728 Y127.550 E11.01864
G1 X67.625 Y127.812 E11.17674
G1 X56.375 Y127.812 E11.52483
G1 X51.272 Y127.550 E11.68292
G1 X49.089 Y127.055 E11.75218
G1 X30.015 Y118.974 E12.39314
G1 X27.805 Y117.991 E12.46797
G1 X26.606 Y117.298 E12.51083
G1 X24.746 Y115.947 E12.58198
G1 X23.716 Y115.020 E12.62483
G1 X22.178 Y113.311 E12.69598
G1 X21.363 Y112.191 E12.73884
G1 X20.214 Y110.199 E12.80999
G1 X19.650 Y108.934 E12.85285
G1 X18.940 Y106.747 E12.92400
G1 X18.652 Y105.392 E12.96685
G1 X18.411 Y103.105 E13.03800
G1 X18.411 Y101.720 E13.08086
G1 X18.652 Y99.433 E13.15201
G1 X18.940 Y98.078 E13.19486
G1 X19.650 Y95.891 E13.26601
G1 X20.214 Y94.626 E13.30887
G1 X21.363 Y92.634 E13.38002
G1 X22.178 Y91.514 E13.42287
G1 X23.716 Y89.805 E13.49403
G1 X24.746 Y88.878 E13.53688
G1 X26.606 Y87.527 E13.60803
G1 X27.545 Y86.957 E13.64201
G1 X40.132 Y80.683 E14.07717
G1 E12.07717 F600.00000
G92 E0
G1 Z0.850 F1800.000
G1 X68.100 Y108.886 F1800.000
G1 Z0.350 F1800.000
G1 E2.00000 F600.00000
G1 X55.900 Y108.886 E2.37747 F1800.000
G1 X55.900 Y91.939 E2.90182
G1 X68.100 Y91.939 E3.27929
G1 X68.100 Y108.811 E3.80132
G1 X67.475 Y108.261 F1800.000
G1 X56.525 Y108.261 E4.14013 F1800.000
G1 X56.525 Y92.564 E4.62581
G1 X67.475 Y92.564 E4.96461
G1 X67.475 Y108.186 E5.44797
G1 X66.850 Y107.636 F1800.000
G1 X57.150 Y107.636 E5.74810 F1800.000
G1 X57.150 Y93.189 E6.19511
G1 X66.850 Y93.189 E6.49524
G1 X66.850 Y107.561 E6.93994
G1 X66.850 Y108.136 F1800.000
G1 X73.400 Y111.950 F1800.000
G1 X73.134 Y112.031 E6.94854 F1800.000
G1 X72.833 Y111.580 E6.96532
G1 X71.533 Y110.711 E7.01369
G1 X70.000 Y110.406 E7.06205
G1 X68.462 Y110.712 E7.11056
G1 X67.157 Y111.595 E7.15931
G1 X66.299 Y112.879 E7.20712
G1 X66.025 Y114.255 E7.25051
G1 X66.025 Y119.588 E7.41551
G1 X57.975 Y119.588 E7.66461
G1 X57.975 Y114.255 E7.82961
G1 X57.701 Y112.879 E7.87300
G1 X56.833 Y111.580 E7.92137
G1 X55.533 Y110.711 E7.96973
G1 X54.000 Y110.406 E8.01810
G1 X52.467 Y110.711 E8.06646
G1 X51.167 Y111.580 E8.11483
G1 X50.866 Y112.031 E8.13161
G1 X50.600 Y111.950 E8.14021
G1 X50.600 Y85.265 E8.96589
G1 X73.400 Y85.265 E9.67136
G1 X73.400 Y111.875 E10.49472
G1 X73.350 Y118.599 F1800.000
G1 X73.350 Y114.316 E10.62721 F1800.000
G1 X73.113 Y113.123 E10.66485
G1 X72.382 Y112.030 E10.70553
G1 X71.289 Y111.300 E10.74620
G1 X70.000 Y111.044 E10.78687
G1 X68.708 Y111.301 E10.82763
G1 X67.609 Y112.044 E10.86869
G1 X66.887 Y113.123 E10.90886
G1 X66.650 Y114.316 E10.94650
G1 X66.650 Y120.213 E11.12894
G1 X57.350 Y120.213 E11.41670
G1 X57.350 Y114.316 E11.59913
G1 X57.113 Y113.123 E11.63678
G1 X56.382 Y112.030 E11.67745
G1 X55.289 Y111.300 E11.71812
G1 X54.000 Y111.044 E11.75880
G1 X52.711 Y111.300 E11.79947
G1 X51.618 Y112.030 E11.84014
G1 X50.887 Y113.123 E11.88081
G1 X50.650 Y114.316 E11.91846
G1 X50.650 Y118.599 E12.05095
G1 X50.348 Y118.659 E12.06047
G1 X50.126 Y118.121 E12.07846
G1 X50.015 Y117.660 E12.09313
G1 X49.975 Y117.149 E12.10899
G1 X49.975 Y84.640 E13.11487
G1 X74.025 Y84.640 E13.85902
G1 X74.025 Y117.149 E14.86490
G1 X73.985 Y117.660 E14.88076
G1 X73.874 Y118.121 E14.89543
G1 X73.652 Y118.659 E14.91342
G1 X73.423 Y118.613 E14.92062
G1 X72.725 Y120.397 F1800.000
G1 X72.725 Y114.378 E15.10685 F1800.000
G1 X72.524 Y113.367 E15.13874
G1 X71.932 Y112.481 E15.17173
G1 X71.045 Y111.889 E15.20471
G1 X70.000 Y111.681 E15.23769
G1 X68.954 Y111.889 E15.27070
G1 X68.060 Y112.493 E15.30407
G1 X67.476 Y113.367 E15.33660
G1 X67.275 Y114.378 E15.36849
G1 X67.275 Y120.837 E15.56836
G1 X56.725 Y120.837 E15.89479
G1 X56.725 Y114.378 E16.09465
G1 X56.524 Y113.367 E16.12655
G1 X55.932 Y112.481 E16.15953
G1 X55.045 Y111.889 E16.19251
G1 X54.000 Y111.681 E16.22549
G1 X52.955 Y111.889 E16.25847
G1 X52.068 Y112.481 E16.29145
G1 X51.476 Y113.367 E16.32443
G1 X51.275 Y114.378 E16.35632
G1 X51.275 Y120.397 E16.54255
G1 X50.855 Y120.140 E16.55778
G1 X50.420 Y119.768 E16.57550
G1 X50.048 Y119.332 E16.59322
G1 X49.749 Y118.844 E16.61093
G1 X49.530 Y118.315 E16.62865
G1 X49.396 Y117.758 E16.64637
G1 X49.350 Y117.174 E16.66451
G1 X49.350 Y84.015 E17.69049
G1 X74.650 Y84.015 E18.47330
G1 X74.650 Y117.174 E19.49927
G1 X74.604 Y117.758 E19.51742
G1 X74.470 Y118.315 E19.53513
G1 X74.251 Y118.844 E19.55285
G1 X73.952 Y119.332 E19.57056
G1 X73.580 Y119.768 E19.58828
G1 X73.145 Y120.140 E19.60600
G1 X72.789 Y120.358 E19.61891
G1 X72.892 Y119.925 F1800.000
G1 E17.61891 F600.00000
G92 E0
G1 Z0.850 F1800.000
G1 X58.647 Y119.220 F1800.000
G1 Z0.350 F1800.000
G1 E2.00000 F600.00000
G1 X58.342 Y118.915 E2.01359 F1800.000
G1 X58.342 Y118.016 E2.04191
G1 X59.547 Y119.220 E2.09555
G1 X60.446 Y119.220 E2.12387
G1 X58.342 Y117.116 E2.21757
G1 X58.342 Y116.217 E2.24589
G1 X61.345 Y119.220 E2.37965
G1 X62.245 Y119.220 E2.40797
G1 X58.342 Y115.318 E2.58177
G1 X58.342 Y114.418 E2.61010
G1 X63.144 Y119.220 E2.82396
G1 X64.044 Y119.220 E2.85228
G1 X58.204 Y113.381 E3.11233
G1 X57.566 Y111.844 F1800.000
G1 X64.943 Y119.220 E3.44084 F1800.000
G1 X65.658 Y119.036 E3.46409
G1 X55.875 Y109.253 E3.89976
G1 X55.533 Y108.911 F1800.000
G1 X50.967 Y104.345 E4.10309 F1800.000
G1 X50.967 Y103.446 E4.13142
G1 X55.533 Y108.011 E4.33475
G1 X55.533 Y107.112 E4.36308
G1 X50.967 Y102.546 E4.56641
G1 X50.967 Y101.647 E4.59473
G1 X55.533 Y106.213 E4.79807
G1 X55.533 Y105.313 E4.82639
G1 X50.967 Y100.747 E5.02973
G1 X50.967 Y99.848 E5.05805
G1 X55.533 Y104.414 E5.26139
G1 X55.533 Y103.514 E5.28971
G1 X50.967 Y98.949 E5.49305
G1 X50.967 Y98.049 E5.52137
G1 X55.533 Y102.615 E5.72471
G1 X55.533 Y101.716 E5.75303
G1 X50.967 Y97.150 E5.95637
G1 X50.967 Y96.250 E5.98469
G1 X55.533 Y100.816 E6.18802
G1 X55.533 Y99.917 E6.21635
G1 X50.967 Y95.351 E6.41968
G1 X50.967 Y94.451 E6.44801
G1 X55.533 Y99.017 E6.65134
G1 X55.533 Y98.118 E6.67966
G1 X50.967 Y93.552 E6.88300
G1 X50.967 Y92.653 E6.91132
G1 X55.533 Y97.218 E7.11466
G1 X55.533 Y96.319 E7.14298
G1 X50.967 Y91.753 E7.34632
G1 X50.967 Y90.854 E7.37464
G1 X55.533 Y95.420 E7.57798
G1 X55.533 Y94.520 E7.60630
G1 X50.967 Y89.954 E7.80964
G1 X50.967 Y89.055 E7.83796
G1 X55.533 Y93.621 E8.04129
G1 X55.533 Y92.721 E8.06962
G1 X50.967 Y88.156 E8.27295
G1 X50.967 Y87.256 E8.30128
G1 X55.533 Y91.822 E8.50461
G1 X56.182 Y91.572 F1800.000
G1 X50.967 Y86.357 E8.73686 F1800.000
G1 X51.142 Y85.632 E8.76034
G1 X57.082 Y91.572 E9.02486
G1 X57.981 Y91.572 E9.05318
G1 X52.041 Y85.632 E9.31770
G1 X52.941 Y85.632 E9.34602
G1 X58.880 Y91.572 E9.61054
G1 X59.780 Y91.572 E9.63887
G1 X53.840 Y85.632 E9.90339
G1 X54.740 Y85.632 E9.93171
G1 X60.679 Y91.572 E10.19623
G1 X61.579 Y91.572 E10.22455
G1 X55.639 Y85.632 E10.48907
G1 X56.538 Y85.632 E10.51740
G1 X62.478 Y91.572 E10.78192
G1 X63.377 Y91.572 E10.81024
G1 X57.438 Y85.632 E11.07476
G1 X58.337 Y85.632 E11.10308
G1 X64.277 Y91.572 E11.36760
G1 X65.176 Y91.572 E11.39593
G1 X59.237 Y85.632 E11.66045
G1 X60.136 Y85.632 E11.68877
G1 X66.076 Y91.572 E11.95329
G1 X66.975 Y91.572 E11.98161
G1 X61.035 Y85.632 E12.24613
G1 X61.935 Y85.632 E12.27446
G1 X67.875 Y91.572 E12.53898
G1 X68.467 Y92.164 F1800.000
G1 X73.033 Y96.730 E12.74231 F1800.000
G1 X73.033 Y95.831 E12.77064
G1 X62.834 Y85.632 E13.22483
G1 X63.734 Y85.632 E13.25315
G1 X73.033 Y94.931 E13.66728
G1 X73.033 Y94.032 E13.69561
G1 X64.633 Y85.632 E14.06969
G1 X65.532 Y85.632 E14.09801
G1 X73.033 Y93.133 E14.43204
G1 X73.033 Y92.233 E14.46036
G1 X66.432 Y85.632 E14.75433
G1 X67.331 Y85.632 E14.78266
G1 X73.033 Y91.334 E15.03657
G1 X73.033 Y90.434 E15.06489
G1 X68.231 Y85.632 E15.27876
G1 X69.130 Y85.632 E15.30708
G1 X73.033 Y89.535 E15.48089
G1 X73.033 Y88.636 E15.50921
G1 X70.030 Y85.632 E15.64296
G1 X70.929 Y85.632 E15.67129
G1 X73.033 Y87.736 E15.76498
G1 X73.033 Y86.837 E15.79331
G1 X71.828 Y85.632 E15.84695
G1 X72.728 Y85.632 E15.87527
G1 X73.033 Y85.937 E15.88886
G1 X68.467 Y93.064 F1800.000
G1 X73.033 Y97.630 E16.09220 F1800.000
G1 X73.033 Y98.529 E16.12052
G1 X68.467 Y93.963 E16.32385
G1 X68.467 Y94.863 E16.35218
G1 X73.033 Y99.428 E16.55551
G1 X73.033 Y100.328 E16.58384
G1 X68.467 Y95.762 E16.78717
G1 X68.467 Y96.661 E16.81550
G1 X73.033 Y101.227 E17.01883
G1 X73.033 Y102.127 E17.04715
G1 X68.467 Y97.561 E17.25049
G1 X68.467 Y98.460 E17.27881
G1 X73.033 Y103.026 E17.48215
G1 X73.033 Y103.926 E17.51047
G1 X68.467 Y99.360 E17.71381
G1 X68.467 Y100.259 E17.74213
G1 X73.033 Y104.825 E17.94547
G1 X73.033 Y105.724 E17.97379
G1 X68.467 Y101.159 E18.17713
G1 X68.467 Y102.058 E18.20545
G1 X73.033 Y106.624 E18.40878
G1 X73.033 Y107.523 E18.43711
G1 X68.467 Y102.957 E18.64044
G1 X68.467 Y103.857 E18.66877
G1 X73.033 Y108.423 E18.87210
G1 X73.033 Y109.322 E18.90042
G1 X68.467 Y104.756 E19.10376
G1 X68.467 Y105.656 E19.13208
G1 X73.033 Y110.221 E19.33542
G1 X73.033 Y111.121 E19.36374
G1 X68.467 Y106.555 E19.56708
G1 X68.467 Y107.454 E19.59540
G1 X71.268 Y110.255 E19.72013
G1 X70.145 Y110.032 E19.75618
G1 X68.467 Y108.354 E19.83090
G1 X68.467 Y109.253 E19.85922
G1 X69.391 Y110.177 E19.90036
G1 X68.641 Y110.326 E19.92444
G1 X67.568 Y109.253 E19.97223
G1 X66.668 Y109.253 E20.00055
G1 X68.035 Y110.620 E20.06142
G1 X67.498 Y110.983 E20.08182
G1 X65.769 Y109.253 E20.15885
G1 X64.869 Y109.253 E20.18717
G1 X66.962 Y111.346 E20.28036
G1 X66.591 Y111.874 E20.30069
G1 X63.970 Y109.253 E20.41740
G1 X63.071 Y109.253 E20.44572
G1 X66.230 Y112.413 E20.58645
G1 X65.923 Y113.005 E20.60745
G1 X62.171 Y109.253 E20.77455
G1 X61.272 Y109.253 E20.80287
G1 X65.774 Y113.755 E21.00337
G1 X65.658 Y114.539 E21.02831
G1 X60.372 Y109.253 E21.26370
G1 X59.473 Y109.253 E21.29203
G1 X65.658 Y115.438 E21.56747
G1 X65.658 Y116.338 E21.59579
G1 X58.573 Y109.253 E21.91130
G1 X57.674 Y109.253 E21.93962
G1 X65.658 Y117.237 E22.29518
G1 X65.658 Y118.136 E22.32350
G1 X56.775 Y109.253 E22.71911
G1 X56.569 Y110.846 F1800.000
G1 X50.967 Y105.244 E22.96858 F1800.000
G1 X50.967 Y106.144 E22.99690
G1 X55.031 Y110.208 E23.17790
G1 X53.983 Y110.059 E23.21125
G1 X50.967 Y107.043 E23.34555
G1 X50.967 Y107.943 E23.37387
G1 X53.233 Y110.208 E23.47477
G1 X52.483 Y110.358 E23.49886
G1 X50.967 Y108.842 E23.56635
G1 X50.967 Y109.741 E23.59467
G1 X51.921 Y110.696 E23.63717
G1 X51.382 Y111.056 E23.65759
G1 X50.967 Y110.641 E23.67607
G1 E21.67607 F600.00000
G92 E0
G1 Z0.850 F1800.000
G1 X43.953 Y106.587 F1800.000
G1 Z0.350 F1800.000
G1 E2.00000 F600.00000
G1 X42.723 Y108.369 E2.06700 F1800.000
G1 X41.102 Y109.805 E2.13400
G1 X39.185 Y110.811 E2.20099
G1 X37.083 Y111.329 E2.26799
G1 X34.917 Y111.329 E2.33499
G1 X32.815 Y110.811 E2.40199
G1 X30.898 Y109.805 E2.46899
G1 X29.277 Y108.369 E2.53599
G1 X28.047 Y106.587 E2.60298
G1 X27.279 Y104.562 E2.66998
G1 X27.018 Y102.412 E2.73698
G1 X27.279 Y100.263 E2.80398
G1 X28.047 Y98.238 E2.87098
G1 X29.277 Y96.456 E2.93797
G1 X30.898 Y95.020 E3.00497
G1 X32.815 Y94.014 E3.07197
G1 X34.917 Y93.496 E3.13897
G1 X37.083 Y93.496 E3.20597 F1800.000
G1 X39.185 Y94.014 E3.27296
G1 X41.102 Y95.020 E3.33996
G1 X42.723 Y96.456 E3.40696
G1 X43.953 Y98.238 E3.47396
G1 X44.721 Y100.263 E3.54096
G1 X44.982 Y102.412 E3.60796
G1 X44.721 Y104.562 E3.67495
G1 X43.980 Y106.517 E3.73963
G1 X43.396 Y106.294 F1800.000
G1 X42.252 Y107.951 E3.80193 F1800.000
G1 X40.745 Y109.287 E3.86424
G1 X38.962 Y110.222 E3.92654
G1 X37.007 Y110.704 E3.98884
G1 X34.993 Y110.704 E4.05115
G1 X33.038 Y110.222 E4.11345
G1 X31.255 Y109.287 E4.17575
G1 X29.748 Y107.951 E4.23805
G1 X28.604 Y106.294 E4.30036
G1 X27.890 Y104.411 E4.36266
G1 X27.647 Y102.412 E4.42496
G1 X27.890 Y100.414 E4.48726
G1 X28.604 Y98.531 E4.54957
G1 X29.748 Y96.874 E4.61187
G1 X31.255 Y95.538 E4.67417
G1 X33.038 Y94.603 E4.73648
G1 X34.993 Y94.121 E4.79878
G1 X37.007 Y94.121 E4.86108 F1800.000
G1 X38.962 Y94.603 E4.92338
G1 X40.745 Y95.538 E4.98569
G1 X42.252 Y96.874 E5.04799
G1 X43.396 Y98.531 E5.11029
G1 X44.110 Y100.414 E5.17260
G1 X44.353 Y102.412 E5.23490
G1 X44.110 Y104.411 E5.29720
G1 X43.422 Y106.224 E5.35718
G1 X43.646 Y106.727 F1800.000
G1 X44.798 Y107.104 F1800.000
G1 X44.106 Y108.302 E5.40000 F1800.000
G1 X42.704 Y109.859 E5.46481
G1 X41.010 Y111.090 E5.52962
G1 X39.096 Y111.942 E5.59443
G1 X37.047 Y112.377 E5.65925
G1 X34.953 Y112.377 E5.72406
G1 X32.904 Y111.942 E5.78887
G1 X30.990 Y111.090 E5.85368
G1 X29.296 Y109.859 E5.91850
G1 X27.894 Y108.302 E5.98331
G1 X26.847 Y106.488 E6.04812
G1 X26.199 Y104.496 E6.11294
G1 X25.980 Y102.412 E6.17775
G1 X26.199 Y100.329 E6.24256
G1 X26.847 Y98.337 E6.30737
G1 X27.894 Y96.523 E6.37218
G1 X29.296 Y94.966 E6.43700
G1 X30.990 Y93.735 E6.50181
G1 X32.904 Y92.883 E6.56662
G1 X34.953 Y92.448 E6.63144
G1 X37.047 Y92.448 E6.69625
G1 X38.815 Y92.823 E6.75217
G1 X39.096 Y92.883 E6.76106 F1800.000
G1 X41.010 Y93.735 E6.82587
G1 X42.704 Y94.966 E6.89068
G1 X44.106 Y96.523 E6.95550
G1 X45.153 Y98.337 E7.02031
G1 X45.801 Y100.329 E7.08512
G1 X46.020 Y102.412 E7.14994
G1 X45.801 Y104.496 E7.21475
G1 X45.153 Y106.488 E7.27956
G1 X44.835 Y107.039 E7.29924
G1 X45.339 Y107.416 F1800.000
G1 X44.614 Y108.671 E7.34408 F1800.000
G1 X43.125 Y110.326 E7.41296
G1 X41.324 Y111.634 E7.48184
G1 X39.290 Y112.539 E7.55072
G1 X37.113 Y113.002 E7.61959
G1 X34.887 Y113.002 E7.68847
G1 X32.710 Y112.539 E7.75735
G1 X30.676 Y111.634 E7.82622
G1 X28.875 Y110.326 E7.89510
